; GCode generated by CraftWare

G28 X0 Y0
G28 Z0

M190 S70 ;set bed temp (wait)
M109 S220 ;set head temp (wait)

; ------------------------------------
; Raft Layer #0
; ------------------------------------
G21 ; mm
G90 ; abs
G92 E0 ; reset extr
M106 S0
;segType:Raft
G0 F4800 E-1.0000
G0 F300 Z0.300
G0 X0.000 Y0.000 F10800
G0 F4800 E0.0000
G1 X113.922 Y121.063 E8.2936 F600
G1 X113.922 Y79.063 E10.3890
G1 X117.892 Y78.811 E10.5874
G1 X117.892 Y121.442 E12.7143
G1 X121.862 Y121.442 E12.9124
G1 X121.862 Y104.919 E13.7367
G1 X121.862 Y100.126 E13.9758
G1 X121.862 Y82.090 E14.8757
G1 X125.832 Y84.108 E15.0978
G1 X125.832 Y100.126 E15.8970
G1 X129.802 Y100.126 E16.0951
G1 X129.802 Y90.793 E16.5607
G1 X133.772 Y84.360 E16.9378
G1 X133.772 Y100.126 E17.7244
G1 X137.742 Y100.126 E17.9224
G1 X137.742 Y82.090 E18.8223
G1 X141.711 Y78.811 E19.0792
G1 X141.711 Y121.442 E21.2060
G1 X137.742 Y121.442 E21.4041
G1 X137.742 Y104.919 E22.2284
G1 X133.772 Y112.108 E22.6382
G1 X133.772 Y121.442 E23.1038
G1 X129.802 Y121.442 E23.3019
G1 X129.802 Y112.108 E23.7675
G1 X125.832 Y112.108 E23.9656
G1 X125.832 Y121.442 E24.4312
G1 X145.681 Y121.316 E25.4215
G1 X145.681 Y78.811 E27.5421
G1 X149.651 Y90.667 E28.1659
G1 X149.651 Y108.577 E29.0594
G1 X153.621 Y106.937 E29.2737
G1 X153.621 Y92.180 E30.0100
G0 F4800 E29.0100
G0 X109.952 Y90.667 F10800
G0 F4800 E30.0100
G1 X109.952 Y108.577 E30.9035 F600
G1 X105.982 Y106.685 E31.1229
G1 X105.982 Y92.432 E31.8340



; ------------------------------------
; Raft Layer #1
; ------------------------------------
G21 ; mm
G90 ; abs
G92 E0 ; reset extr
M106 S255
;segType:Raft
G0 F4800 E-1.0000
G0 F300 Z0.600
G0 X105.676 Y92.614 F10800
G0 F4800 E0.0000
G1 X154.060 Y92.614 E2.4139 F3600
G1 X154.457 Y93.876 E2.4799
G1 X105.279 Y93.876 E4.9334
G1 X105.279 Y95.139 E4.9964
G1 X154.457 Y95.139 E7.4499
G1 X154.457 Y96.402 E7.5128
G1 X105.279 Y96.402 E9.9663
G1 X105.279 Y97.664 E10.0293
G1 X154.457 Y97.664 E12.4828
G0 F4800 E11.4828
G0 X152.738 Y91.351 F10800
G0 F4800 E12.4828
G1 X106.998 Y91.351 E14.7648 F3600
G0 F4800 E13.7648
G0 X112.814 Y79.989 F10800
G0 F4800 E14.7648
G1 X120.217 Y79.989 E15.1341 F3600
G1 X121.407 Y81.251 E15.2207
G1 X111.625 Y81.251 E15.7087
G1 X111.625 Y82.514 E15.7717
G1 X124.051 Y82.514 E16.3917
G1 X125.373 Y83.776 E16.4829
G1 X111.625 Y83.776 E17.1688
G1 X111.625 Y85.039 E17.2318
G1 X126.034 Y85.039 E17.9507
G1 X126.034 Y86.301 E18.0137
G1 X111.625 Y86.301 E18.7326
G1 X111.625 Y87.564 E18.7956
G1 X126.034 Y87.564 E19.5144
G1 X126.034 Y88.826 E19.5774
G1 X111.625 Y88.826 E20.2963
G1 X111.625 Y90.089 E20.3593
G1 X126.034 Y90.089 E21.0782
G0 F4800 E20.0782
G0 X133.702 Y85.039 F10800
G0 F4800 E21.0782
G1 X148.111 Y85.039 E21.7971 F3600
G1 X148.111 Y86.301 E21.8601
G1 X133.702 Y86.301 E22.5790
G1 X133.702 Y87.564 E22.6420
G1 X148.111 Y87.564 E23.3609
G1 X148.111 Y88.826 E23.4239
G1 X133.702 Y88.826 E24.1428
G1 X133.702 Y90.089 E24.2057
G1 X148.111 Y90.089 E24.9246
G0 F4800 E23.9246
G0 X148.111 Y81.251 F10800
G0 F4800 E24.9246
G1 X138.328 Y81.251 E25.4127 F3600
G1 X139.518 Y79.989 E25.4992
G1 X146.921 Y79.989 E25.8686
G0 F4800 E24.8686
G0 X135.685 Y82.514 F10800
G0 F4800 E25.8686
G1 X148.111 Y82.514 E26.4885 F3600
G1 X148.111 Y83.776 E26.5515
G1 X134.363 Y83.776 E27.2374
G0 F4800 E26.2374
G0 X136.610 Y105.239 F10800
G0 F4800 E27.2374
G1 X154.457 Y105.239 E28.1278 F3600
G1 X154.457 Y103.977 E28.1908
G1 X138.328 Y103.977 E28.9954
G1 X138.328 Y102.714 E29.0584
G1 X154.457 Y102.714 E29.8631
G1 X154.457 Y101.452 E29.9261
G1 X138.328 Y101.452 E30.7307
G1 X138.328 Y100.189 E30.7937
G1 X154.457 Y100.189 E31.5983
G1 X154.457 Y98.927 E31.6613
G1 X105.279 Y98.927 E34.1148
G1 X105.279 Y100.189 E34.1778
G1 X121.407 Y100.189 E34.9824
G1 X121.407 Y101.452 E35.0454
G1 X105.279 Y101.452 E35.8500
G1 X105.279 Y102.714 E35.9130
G1 X121.407 Y102.714 E36.7176
G1 X121.407 Y103.977 E36.7806
G1 X105.279 Y103.977 E37.5853
G1 X105.279 Y105.239 E37.6482
G1 X123.126 Y105.239 E38.5386
G1 X124.448 Y106.502 E38.6298
G1 X105.808 Y106.502 E39.5598
G1 X107.130 Y107.764 E39.6510
G1 X125.109 Y107.764 E40.5479
G1 X125.109 Y109.027 E40.6109
G1 X111.625 Y109.027 E41.2837
G1 X111.625 Y110.290 E41.3466
G1 X125.109 Y110.290 E42.0194
G1 X125.109 Y111.552 E42.0824
G1 X111.625 Y111.552 E42.7551
G1 X111.625 Y117.865 E43.0700
G1 X148.111 Y117.865 E44.8903
G1 X148.111 Y116.602 E44.9533
G1 X111.625 Y116.602 E46.7737
G1 X111.625 Y115.340 E46.8366
G1 X148.111 Y115.340 E48.6570
G1 X148.111 Y114.077 E48.7199
G1 X111.625 Y114.077 E50.5403
G1 X111.625 Y112.815 E50.6033
G1 X148.111 Y112.815 E52.4236
G1 X148.111 Y111.552 E52.4866
G1 X134.627 Y111.552 E53.1593
G1 X134.627 Y110.290 E53.2223
G1 X148.111 Y110.290 E53.8950
G1 X148.111 Y109.027 E53.9580
G1 X134.627 Y109.027 E54.6307
G1 X134.627 Y107.764 E54.6937
G1 X152.606 Y107.764 E55.5907
G1 X153.928 Y106.502 E55.6819
G1 X135.288 Y106.502 E56.6118
G0 F4800 E55.6118
G0 X147.847 Y119.127 F10800
G0 F4800 E56.6118
G1 X111.889 Y119.127 E58.4058 F3600
G1 X113.211 Y120.390 E58.4970
G1 X146.525 Y120.390 E60.1590



; ------------------------------------
; Raft Layer #2
; ------------------------------------
G21 ; mm
G90 ; abs
G92 E0 ; reset extr
M106 S255
;segType:Raft
G0 F4800 E-1.0000
G0 F300 Z0.900
G0 X138.536 Y121.442 F10800
G0 F4800 E0.0000
G1 X138.536 Y80.955 E2.0199 F3600
G1 X138.933 Y80.576 E2.0473
G1 X138.933 Y121.442 E4.0860
G1 X139.330 Y121.442 E4.1059
G1 X139.330 Y80.198 E6.1635
G1 X139.727 Y79.820 E6.1909
G1 X139.727 Y121.442 E8.2674
G1 X140.124 Y121.442 E8.2872
G1 X140.124 Y79.441 E10.3826
G1 X140.521 Y79.063 E10.4100
G1 X140.521 Y121.442 E12.5243
G1 X140.918 Y121.442 E12.5441
G1 X140.918 Y78.811 E14.6710
G1 X141.315 Y78.811 E14.6908
G1 X141.315 Y121.442 E16.8177
G1 X141.712 Y121.442 E16.8375
G1 X141.712 Y78.811 E18.9643
G1 X142.109 Y78.811 E18.9842
G1 X142.109 Y121.442 E21.1110
G1 X142.506 Y121.442 E21.1308
G1 X142.506 Y78.811 E23.2577
G1 X142.902 Y78.811 E23.2775
G1 X142.902 Y121.442 E25.4044
G1 X143.299 Y121.442 E25.4242
G1 X143.299 Y78.811 E27.5511
G1 X143.696 Y78.811 E27.5709
G1 X143.696 Y121.442 E29.6978
G1 X144.093 Y121.442 E29.7176
G1 X144.093 Y78.811 E31.8445
G1 X144.490 Y78.811 E31.8643
G1 X144.490 Y121.442 E33.9911
G1 X144.887 Y121.442 E34.0109
G1 X144.887 Y78.811 E36.1378
G1 X145.284 Y78.811 E36.1576
G1 X145.284 Y121.442 E38.2845
G1 X145.681 Y121.316 E38.3053
G1 X145.681 Y78.811 E40.4259
G1 X146.078 Y79.189 E40.4532
G1 X146.078 Y120.937 E42.5361
G1 X146.475 Y120.559 E42.5634
G1 X146.475 Y79.567 E44.6085
G1 X146.872 Y79.946 E44.6359
G1 X146.872 Y120.180 E46.6432
G1 X147.269 Y119.802 E46.6705
G1 X147.269 Y80.324 E48.6401
G1 X147.666 Y80.702 E48.6675
G1 X147.666 Y119.424 E50.5993
G1 X148.063 Y119.045 E50.6266
G1 X148.063 Y81.081 E52.5207
G0 F4800 E51.5207
G0 X138.139 Y100.126 F10800
G0 F4800 E52.5207
G1 X138.139 Y82.090 E53.4205 F3600
G1 X137.742 Y82.090 E53.4403
G1 X137.742 Y100.126 E54.3402
G1 X137.345 Y100.126 E54.3600
G1 X137.345 Y82.090 E55.2598
G1 X136.948 Y82.090 E55.2796
G1 X136.948 Y100.126 E56.1795
G1 X136.551 Y100.126 E56.1993
G1 X136.551 Y82.090 E57.0991
G1 X136.154 Y82.090 E57.1189
G1 X136.154 Y100.126 E58.0187
G1 X135.757 Y100.126 E58.0385
G1 X135.757 Y82.468 E58.9195
G1 X135.360 Y82.847 E58.9469
G1 X135.360 Y100.126 E59.8089
G1 X134.963 Y100.126 E59.8287
G1 X134.963 Y83.225 E60.6719
G1 X134.566 Y83.603 E60.6993
G1 X134.566 Y100.126 E61.5236
G1 X134.169 Y100.126 E61.5434
G1 X134.169 Y83.982 E62.3489
G1 X133.772 Y84.360 E62.3762
G1 X133.772 Y100.126 E63.1628
G1 X133.375 Y100.126 E63.1826
G1 X133.375 Y90.793 E63.6483
G1 X132.978 Y90.793 E63.6681
G1 X132.978 Y100.126 E64.1337
G1 X132.581 Y100.126 E64.1535
G1 X132.581 Y90.793 E64.6192
G1 X132.184 Y90.793 E64.6390
G1 X132.184 Y100.126 E65.1046
G1 X131.787 Y100.126 E65.1244
G1 X131.787 Y90.793 E65.5901
G1 X131.390 Y90.793 E65.6099
G1 X131.390 Y100.126 E66.0755
G1 X130.993 Y100.126 E66.0953
G1 X130.993 Y90.793 E66.5610
G1 X130.596 Y90.793 E66.5808
G1 X130.596 Y100.126 E67.0464
G1 X130.199 Y100.126 E67.0662
G1 X130.199 Y90.793 E67.5319
G1 X129.802 Y90.793 E67.5517
G1 X129.802 Y100.126 E68.0173
G1 X129.405 Y100.126 E68.0371
G1 X129.405 Y90.793 E68.5028
G1 X129.008 Y90.793 E68.5226
G1 X129.008 Y100.126 E68.9882
G1 X128.611 Y100.126 E69.0080
G1 X128.611 Y90.793 E69.4737
G1 X128.214 Y90.793 E69.4935
G1 X128.214 Y100.126 E69.9591
G1 X127.817 Y100.126 E69.9789
G1 X127.817 Y90.793 E70.4446
G1 X127.420 Y90.793 E70.4644
G1 X127.420 Y100.126 E70.9300
G1 X127.023 Y100.126 E70.9498
G1 X127.023 Y90.793 E71.4155
G1 X126.626 Y90.793 E71.4353
G1 X126.626 Y100.126 E71.9009
G1 X126.229 Y100.126 E71.9207
G1 X126.229 Y90.793 E72.3864
G0 F4800 E71.3864
G0 X125.832 Y100.126 F10800
G0 F4800 E72.3864
G1 X125.832 Y84.108 E73.1855 F3600
G1 X125.435 Y83.730 E73.2129
G1 X125.435 Y100.126 E74.0309
G1 X125.038 Y100.126 E74.0507
G1 X125.038 Y83.351 E74.8876
G1 X124.641 Y82.973 E74.9150
G1 X124.641 Y100.126 E75.7708
G1 X124.244 Y100.126 E75.7906
G1 X124.244 Y82.594 E76.6653
G1 X123.847 Y82.216 E76.6926
G1 X123.847 Y100.126 E77.5862
G1 X123.450 Y100.126 E77.6060
G1 X123.450 Y82.090 E78.5058
G1 X123.053 Y82.090 E78.5256
G1 X123.053 Y100.126 E79.4254
G1 X122.656 Y100.126 E79.4452
G1 X122.656 Y82.090 E80.3451
G1 X122.259 Y82.090 E80.3649
G1 X122.259 Y100.126 E81.2647
G1 X121.862 Y100.126 E81.2845
G1 X121.862 Y82.090 E82.1844
G1 X121.465 Y81.081 E82.2385
G1 X121.465 Y121.442 E84.2521
G1 X121.068 Y121.442 E84.2719
G1 X121.068 Y80.702 E86.3044
G1 X120.671 Y80.324 E86.3317
G1 X120.671 Y121.442 E88.3831
G1 X120.274 Y121.442 E88.4029
G1 X120.274 Y79.946 E90.4731
G1 X119.877 Y79.567 E90.5005
G1 X119.877 Y121.442 E92.5896
G1 X119.480 Y121.442 E92.6094
G1 X119.480 Y79.189 E94.7174
G1 X119.083 Y78.811 E94.7448
G1 X119.083 Y121.442 E96.8717
G1 X118.686 Y121.442 E96.8915
G1 X118.686 Y78.811 E99.0184
G1 X118.289 Y78.811 E99.0382
G1 X118.289 Y121.442 E101.1650
G1 X117.892 Y121.442 E101.1848
G1 X117.892 Y78.811 E103.3117
G1 X117.495 Y78.811 E103.3315
G1 X117.495 Y121.442 E105.4584
G1 X117.098 Y121.442 E105.4782
G1 X117.098 Y78.811 E107.6051
G1 X116.701 Y78.811 E107.6249
G1 X116.701 Y121.442 E109.7518
G1 X116.304 Y121.442 E109.7716
G1 X116.304 Y78.811 E111.8985
G1 X115.907 Y78.811 E111.9183
G1 X115.907 Y121.442 E114.0451
G1 X115.510 Y121.442 E114.0649
G1 X115.510 Y78.811 E116.1918
G1 X115.113 Y78.811 E116.2116
G1 X115.113 Y121.442 E118.3385
G1 X114.716 Y121.442 E118.3583
G1 X114.716 Y78.811 E120.4852
G1 X114.319 Y78.811 E120.5050
G1 X114.319 Y121.442 E122.6319
G1 X113.922 Y121.063 E122.6592
G1 X113.922 Y79.063 E124.7546
G1 X113.525 Y79.441 E124.7820
G1 X113.525 Y120.685 E126.8397
G1 X113.128 Y120.307 E126.8670
G1 X113.128 Y79.820 E128.8869
G1 X112.731 Y80.198 E128.9143
G1 X112.731 Y119.928 E130.8964
G1 X112.334 Y119.550 E130.9238
G1 X112.334 Y80.576 E132.8682
G1 X111.937 Y80.955 E132.8956
G1 X111.937 Y119.171 E134.8022
G0 F4800 E133.8022
G0 X121.862 Y121.442 F10800
G0 F4800 E134.8022
G1 X121.862 Y104.919 E135.6265 F3600
G1 X122.259 Y104.919 E135.6463
G1 X122.259 Y121.442 E136.4707
G1 X122.656 Y121.442 E136.4905
G1 X122.656 Y104.919 E137.3148
G1 X123.053 Y105.171 E137.3383
G1 X123.053 Y121.442 E138.1500
G1 X123.450 Y121.442 E138.1698
G1 X123.450 Y105.550 E138.9627
G1 X123.847 Y105.928 E138.9900
G1 X123.847 Y121.442 E139.7640
G1 X124.244 Y121.442 E139.7838
G1 X124.244 Y106.306 E140.5389
G1 X124.641 Y106.685 E140.5663
G1 X124.641 Y121.442 E141.3025
G1 X125.038 Y121.442 E141.3223
G1 X125.038 Y107.063 E142.0397
G0 F4800 E141.0397
G0 X138.139 Y104.919 F10800
G0 F4800 E142.0397
G1 X138.139 Y121.442 E142.8640 F3600
G1 X137.742 Y121.442 E142.8838
G1 X137.742 Y104.919 E143.7081
G1 X137.345 Y104.919 E143.7279
G1 X137.345 Y121.442 E144.5523
G1 X136.948 Y121.442 E144.5721
G1 X136.948 Y105.045 E145.3901
G1 X136.551 Y105.423 E145.4174
G1 X136.551 Y121.442 E146.2166
G1 X136.154 Y121.442 E146.2364
G1 X136.154 Y105.802 E147.0167
G1 X135.757 Y106.180 E147.0440
G1 X135.757 Y121.442 E147.8054
G1 X135.360 Y121.442 E147.8252
G1 X135.360 Y106.559 E148.5678
G1 X134.963 Y106.937 E148.5951
G1 X134.963 Y121.442 E149.3188
G1 X134.566 Y121.442 E149.3386
G1 X134.566 Y112.108 E149.8042
G1 X134.169 Y112.108 E149.8240
G1 X134.169 Y121.442 E150.2897
G1 X133.772 Y121.442 E150.3095
G1 X133.772 Y112.108 E150.7751
G1 X133.375 Y112.108 E150.7949
G1 X133.375 Y121.442 E151.2606
G1 X132.978 Y121.442 E151.2804
G1 X132.978 Y112.108 E151.7461
G1 X132.581 Y112.108 E151.7659
G1 X132.581 Y121.442 E152.2315
G1 X132.184 Y121.442 E152.2513
G1 X132.184 Y112.108 E152.7170
G1 X131.787 Y112.108 E152.7368
G1 X131.787 Y121.442 E153.2024
G1 X131.390 Y121.442 E153.2222
G1 X131.390 Y112.108 E153.6879
G1 X130.993 Y112.108 E153.7077
G1 X130.993 Y121.442 E154.1733
G1 X130.596 Y121.442 E154.1932
G1 X130.596 Y112.108 E154.6588
G1 X130.199 Y112.108 E154.6786
G1 X130.199 Y121.442 E155.1443
G1 X129.802 Y121.442 E155.1641
G1 X129.802 Y112.108 E155.6297
G1 X129.405 Y112.108 E155.6495
G1 X129.405 Y121.442 E156.1152
G1 X129.008 Y121.442 E156.1350
G1 X129.008 Y112.108 E156.6006
G1 X128.611 Y112.108 E156.6204
G1 X128.611 Y121.442 E157.0861
G1 X128.214 Y121.442 E157.1059
G1 X128.214 Y112.108 E157.5716
G1 X127.817 Y112.108 E157.5914
G1 X127.817 Y121.442 E158.0570
G1 X127.420 Y121.442 E158.0768
G1 X127.420 Y112.108 E158.5425
G1 X127.023 Y112.108 E158.5623
G1 X127.023 Y121.442 E159.0279
G1 X126.626 Y121.442 E159.0477
G1 X126.626 Y112.108 E159.5134
G1 X126.229 Y112.108 E159.5332
G1 X126.229 Y121.442 E159.9988
G1 X125.832 Y121.442 E160.0187
G1 X125.832 Y112.108 E160.4843
G1 X125.435 Y112.108 E160.5041
G1 X125.435 Y121.442 E160.9698
G0 F4800 E159.9698
G0 X111.540 Y108.577 F10800
G0 F4800 E160.9698
G1 X111.540 Y90.667 E161.8633 F3600
G1 X111.143 Y90.667 E161.8831
G1 X111.143 Y108.577 E162.7766
G1 X110.746 Y108.577 E162.7965
G1 X110.746 Y90.667 E163.6900
G1 X110.349 Y90.667 E163.7098
G1 X110.349 Y108.577 E164.6033
G1 X109.952 Y108.577 E164.6231
G1 X109.952 Y90.667 E165.5167
G1 X109.555 Y90.667 E165.5365
G1 X109.555 Y108.577 E166.4300
G1 X109.158 Y108.577 E166.4498
G1 X109.158 Y90.667 E167.3434
G1 X108.761 Y90.667 E167.3632
G1 X108.761 Y108.577 E168.2567
G1 X108.364 Y108.577 E168.2765
G1 X108.364 Y90.667 E169.1701
G1 X107.967 Y90.667 E169.1899
G1 X107.967 Y108.577 E170.0834
G1 X107.570 Y108.198 E170.1108
G1 X107.570 Y90.919 E170.9728
G1 X107.173 Y91.297 E171.0002
G1 X107.173 Y107.820 E171.8245
G1 X106.776 Y107.442 E171.8519
G1 X106.776 Y91.676 E172.6384
G1 X106.379 Y92.054 E172.6658
G1 X106.379 Y107.063 E173.4146
G1 X105.982 Y106.685 E173.4420
G1 X105.982 Y92.432 E174.1530
G1 X105.585 Y92.811 E174.1804
G1 X105.585 Y106.306 E174.8537
G0 F4800 E173.8537
G0 X148.460 Y108.577 F10800
G0 F4800 E174.8537
G1 X148.460 Y90.667 E175.7472 F3600
G1 X148.857 Y90.667 E175.7671
G1 X148.857 Y108.577 E176.6606
G1 X149.254 Y108.577 E176.6804
G1 X149.254 Y90.667 E177.5739
G1 X149.651 Y90.667 E177.5937
G1 X149.651 Y108.577 E178.4873
G1 X150.048 Y108.577 E178.5071
G1 X150.048 Y90.667 E179.4006
G1 X150.445 Y90.667 E179.4204
G1 X150.445 Y108.577 E180.3140
G1 X150.842 Y108.577 E180.3338
G1 X150.842 Y90.667 E181.2273
G1 X151.239 Y90.667 E181.2471
G1 X151.239 Y108.577 E182.1407
G1 X151.636 Y108.577 E182.1605
G1 X151.636 Y90.667 E183.0540
G1 X152.033 Y90.667 E183.0738
G1 X152.033 Y108.451 E183.9611
G1 X152.430 Y108.072 E183.9884
G1 X152.430 Y91.045 E184.8379
G1 X152.827 Y91.423 E184.8653
G1 X152.827 Y107.694 E185.6770
G1 X153.224 Y107.315 E185.7044
G1 X153.224 Y91.802 E186.4784
G1 X153.621 Y92.180 E186.5057
G1 X153.621 Y106.937 E187.2419
G1 X154.018 Y106.559 E187.2693
G1 X154.018 Y92.558 E187.9678
G1 X154.415 Y92.937 E187.9951
G1 X154.415 Y106.180 E188.6558



; ------------------------------------
; Raft Layer #3
; ------------------------------------
G21 ; mm
G90 ; abs
G92 E0 ; reset extr
M106 S255
;segType:Raft
G0 F4800 E-1.0000
G0 F300 Z1.200
G0 X154.457 Y104.734 F10800
G0 F4800 E0.0000
G1 X138.328 Y104.734 E0.8046 F3600
G1 X138.328 Y104.356 E0.8235
G1 X154.457 Y104.356 E1.6282
G1 X154.457 Y103.977 E1.6471
G1 X138.328 Y103.977 E2.4517
G1 X138.328 Y103.598 E2.4706
G1 X154.457 Y103.598 E3.2752
G1 X154.457 Y103.219 E3.2941
G1 X138.328 Y103.219 E4.0988
G1 X138.328 Y102.841 E4.1177
G1 X154.457 Y102.841 E4.9223
G1 X154.457 Y102.462 E4.9412
G1 X138.328 Y102.462 E5.7458
G1 X138.328 Y102.083 E5.7647
G1 X154.457 Y102.083 E6.5693
G1 X154.457 Y101.704 E6.5882
G1 X138.328 Y101.704 E7.3929
G1 X138.328 Y101.325 E7.4118
G1 X154.457 Y101.325 E8.2164
G1 X154.457 Y100.947 E8.2353
G1 X138.328 Y100.947 E9.0399
G1 X138.328 Y100.568 E9.0588
G1 X154.457 Y100.568 E9.8635
G1 X154.457 Y100.189 E9.8824
G1 X138.328 Y100.189 E10.6870
G0 F4800 E9.6870
G0 X136.742 Y105.113 F10800
G0 F4800 E10.6870
G1 X154.457 Y105.113 E11.5708 F3600
G1 X154.457 Y105.492 E11.5897
G1 X136.345 Y105.492 E12.4932
G1 X135.949 Y105.871 E12.5206
G1 X154.457 Y105.871 E13.4440
G1 X154.192 Y106.249 E13.4670
G1 X135.552 Y106.249 E14.3969
G1 X135.156 Y106.628 E14.4243
G1 X153.796 Y106.628 E15.3542
G1 X153.399 Y107.007 E15.3816
G1 X134.759 Y107.007 E16.3116
G1 X134.627 Y107.386 E16.3316
G1 X153.002 Y107.386 E17.2483
G1 X152.606 Y107.764 E17.2757
G1 X134.627 Y107.764 E18.1727
G1 X134.627 Y108.143 E18.1915
G1 X152.209 Y108.143 E19.0687
G0 F4800 E18.0687
G0 X148.111 Y108.522 F10800
G0 F4800 E19.0687
G1 X134.627 Y108.522 E19.7415 F3600
G1 X134.627 Y108.901 E19.7604
G1 X148.111 Y108.901 E20.4331
G1 X148.111 Y109.279 E20.4520
G1 X134.627 Y109.279 E21.1247
G1 X134.627 Y109.658 E21.1436
G1 X148.111 Y109.658 E21.8163
G1 X148.111 Y110.037 E21.8352
G1 X134.627 Y110.037 E22.5079
G1 X134.627 Y110.416 E22.5268
G1 X148.111 Y110.416 E23.1996
G1 X148.111 Y110.795 E23.2185
G1 X134.627 Y110.795 E23.8912
G1 X134.627 Y111.173 E23.9101
G1 X148.111 Y111.173 E24.5828
G1 X148.111 Y111.552 E24.6017
G1 X134.627 Y111.552 E25.2744
G1 X134.627 Y111.931 E25.2933
G1 X148.111 Y111.931 E25.9660
G1 X148.111 Y112.310 E25.9849
G1 X111.625 Y112.310 E27.8053
G1 X111.625 Y112.688 E27.8242
G1 X148.111 Y112.688 E29.6445
G1 X148.111 Y113.067 E29.6634
G1 X111.625 Y113.067 E31.4837
G1 X111.625 Y113.446 E31.5026
G1 X148.111 Y113.446 E33.3229
G1 X148.111 Y113.825 E33.3418
G1 X111.625 Y113.825 E35.1621
G1 X111.625 Y114.203 E35.1810
G1 X148.111 Y114.203 E37.0013
G1 X148.111 Y114.582 E37.0202
G1 X111.625 Y114.582 E38.8406
G1 X111.625 Y114.961 E38.8595
G1 X148.111 Y114.961 E40.6798
G1 X148.111 Y115.340 E40.6987
G1 X111.625 Y115.340 E42.5190
G1 X111.625 Y115.718 E42.5379
G1 X148.111 Y115.718 E44.3582
G1 X148.111 Y116.097 E44.3771
G1 X111.625 Y116.097 E46.1974
G1 X111.625 Y116.476 E46.2163
G1 X148.111 Y116.476 E48.0367
G1 X148.111 Y116.855 E48.0556
G1 X111.625 Y116.855 E49.8759
G1 X111.625 Y117.233 E49.8948
G1 X148.111 Y117.233 E51.7151
G1 X148.111 Y117.612 E51.7340
G1 X111.625 Y117.612 E53.5543
G1 X111.625 Y117.991 E53.5732
G1 X148.111 Y117.991 E55.3935
G1 X148.111 Y118.370 E55.4124
G1 X111.625 Y118.370 E57.2327
G1 X111.625 Y118.749 E57.2516
G1 X148.111 Y118.749 E59.0720
G1 X147.847 Y119.127 E59.0950
G1 X111.889 Y119.127 E60.8889
G1 X112.286 Y119.506 E60.9163
G1 X147.450 Y119.506 E62.6707
G1 X147.053 Y119.885 E62.6980
G1 X112.682 Y119.885 E64.4128
G1 X113.079 Y120.264 E64.4402
G1 X146.657 Y120.264 E66.1154
G1 X146.260 Y120.642 E66.1428
G1 X113.475 Y120.642 E67.7784
G1 X113.872 Y121.021 E67.8058
G1 X145.864 Y121.021 E69.4019
G0 F4800 E68.4019
G0 X125.109 Y111.931 F10800
G0 F4800 E69.4019
G1 X111.625 Y111.931 E70.0746 F3600
G1 X111.625 Y111.552 E70.0935
G1 X125.109 Y111.552 E70.7662
G1 X125.109 Y111.173 E70.7851
G1 X111.625 Y111.173 E71.4578
G1 X111.625 Y110.795 E71.4767
G1 X125.109 Y110.795 E72.1495
G1 X125.109 Y110.416 E72.1684
G1 X111.625 Y110.416 E72.8411
G1 X111.625 Y110.037 E72.8600
G1 X125.109 Y110.037 E73.5327
G1 X125.109 Y109.658 E73.5516
G1 X111.625 Y109.658 E74.2243
G1 X111.625 Y109.279 E74.2432
G1 X125.109 Y109.279 E74.9160
G1 X125.109 Y108.901 E74.9349
G1 X111.625 Y108.901 E75.6076
G1 X111.625 Y108.522 E75.6265
G1 X125.109 Y108.522 E76.2992
G0 F4800 E75.2992
G0 X122.994 Y105.113 F10800
G0 F4800 E76.2992
G1 X105.279 Y105.113 E77.1830 F3600
G1 X105.279 Y105.492 E77.2019
G1 X123.390 Y105.492 E78.1055
G1 X123.787 Y105.871 E78.1328
G1 X105.279 Y105.871 E79.0562
G1 X105.543 Y106.249 E79.0792
G1 X124.183 Y106.249 E80.0092
G1 X124.580 Y106.628 E80.0365
G1 X105.940 Y106.628 E80.9665
G1 X106.337 Y107.007 E80.9938
G1 X124.977 Y107.007 E81.9238
G1 X125.109 Y107.386 E81.9438
G1 X106.733 Y107.386 E82.8606
G1 X107.130 Y107.764 E82.8879
G1 X125.109 Y107.764 E83.7849
G1 X125.109 Y108.143 E83.8038
G1 X107.526 Y108.143 E84.6810
G0 F4800 E83.6810
G0 X121.407 Y104.734 F10800
G0 F4800 E84.6810
G1 X105.279 Y104.734 E85.4856 F3600
G1 X105.279 Y104.356 E85.5045
G1 X121.407 Y104.356 E86.3091
G1 X121.407 Y103.977 E86.3280
G1 X105.279 Y103.977 E87.1327
G1 X105.279 Y103.598 E87.1516
G1 X121.407 Y103.598 E87.9562
G1 X121.407 Y103.219 E87.9751
G1 X105.279 Y103.219 E88.7797
G1 X105.279 Y102.841 E88.7986
G1 X121.407 Y102.841 E89.6033
G1 X121.407 Y102.462 E89.6222
G1 X105.279 Y102.462 E90.4268
G1 X105.279 Y102.083 E90.4457
G1 X121.407 Y102.083 E91.2503
G1 X121.407 Y101.704 E91.2692
G1 X105.279 Y101.704 E92.0739
G1 X105.279 Y101.325 E92.0928
G1 X121.407 Y101.325 E92.8974
G1 X121.407 Y100.947 E92.9163
G1 X105.279 Y100.947 E93.7209
G1 X105.279 Y100.568 E93.7398
G1 X121.407 Y100.568 E94.5445
G1 X121.407 Y100.189 E94.5633
G1 X105.279 Y100.189 E95.3680
G1 X105.279 Y99.810 E95.3869
G1 X154.457 Y99.810 E97.8404
G1 X154.457 Y99.432 E97.8593
G1 X105.279 Y99.432 E100.3127
G1 X105.279 Y99.053 E100.3316
G1 X154.457 Y99.053 E102.7851
G1 X154.457 Y98.674 E102.8040
G1 X105.279 Y98.674 E105.2575
G1 X105.279 Y98.295 E105.2764
G1 X154.457 Y98.295 E107.7299
G1 X154.457 Y97.917 E107.7488
G1 X105.279 Y97.917 E110.2022
G1 X105.279 Y97.538 E110.2211
G1 X154.457 Y97.538 E112.6746
G1 X154.457 Y97.159 E112.6935
G1 X105.279 Y97.159 E115.1470
G1 X105.279 Y96.780 E115.1659
G1 X154.457 Y96.780 E117.6194
G1 X154.457 Y96.402 E117.6383
G1 X105.279 Y96.402 E120.0917
G1 X105.279 Y96.023 E120.1106
G1 X154.457 Y96.023 E122.5641
G1 X154.457 Y95.644 E122.5830
G1 X105.279 Y95.644 E125.0365
G1 X105.279 Y95.265 E125.0554
G1 X154.457 Y95.265 E127.5088
G1 X154.457 Y94.887 E127.5277
G1 X105.279 Y94.887 E129.9812
G1 X105.279 Y94.508 E130.0001
G1 X154.457 Y94.508 E132.4536
G1 X154.457 Y94.129 E132.4725
G1 X105.279 Y94.129 E134.9260
G1 X105.279 Y93.750 E134.9448
G1 X154.457 Y93.750 E137.3983
G1 X154.457 Y93.371 E137.4172
G1 X105.279 Y93.371 E139.8707
G1 X105.279 Y92.993 E139.8896
G1 X154.457 Y92.993 E142.3431
G1 X154.060 Y92.614 E142.3704
G1 X105.676 Y92.614 E144.7843
G1 X106.072 Y92.235 E144.8117
G1 X153.663 Y92.235 E147.1860
G1 X153.267 Y91.856 E147.2134
G1 X106.469 Y91.856 E149.5481
G1 X106.865 Y91.478 E149.5755
G1 X152.870 Y91.478 E151.8707
G1 X152.474 Y91.099 E151.8980
G1 X107.262 Y91.099 E154.1536
G1 X107.659 Y90.720 E154.1810
G1 X126.034 Y90.720 E155.0977
G1 X126.034 Y90.341 E155.1166
G1 X111.625 Y90.341 E155.8355
G1 X111.625 Y89.963 E155.8544
G1 X126.034 Y89.963 E156.5733
G1 X126.034 Y89.584 E156.5922
G1 X111.625 Y89.584 E157.3111
G1 X111.625 Y89.205 E157.3300
G1 X126.034 Y89.205 E158.0488
G1 X126.034 Y88.826 E158.0677
G1 X111.625 Y88.826 E158.7866
G1 X111.625 Y88.448 E158.8055
G1 X126.034 Y88.448 E159.5244
G1 X126.034 Y88.069 E159.5433
G1 X111.625 Y88.069 E160.2622
G1 X111.625 Y87.690 E160.2811
G1 X126.034 Y87.690 E161.0000
G1 X126.034 Y87.311 E161.0189
G1 X111.625 Y87.311 E161.7377
G1 X111.625 Y86.933 E161.7566
G1 X126.034 Y86.933 E162.4755
G1 X126.034 Y86.554 E162.4944
G1 X111.625 Y86.554 E163.2133
G1 X111.625 Y86.175 E163.2322
G1 X126.034 Y86.175 E163.9511
G1 X126.034 Y85.796 E163.9700
G1 X111.625 Y85.796 E164.6888
G1 X111.625 Y85.417 E164.7077
G1 X126.034 Y85.417 E165.4266
G1 X126.034 Y85.039 E165.4455
G1 X111.625 Y85.039 E166.1644
G1 X111.625 Y84.660 E166.1833
G1 X126.034 Y84.660 E166.9022
G1 X125.902 Y84.281 E166.9222
G1 X111.625 Y84.281 E167.6345
G1 X111.625 Y83.902 E167.6534
G1 X125.505 Y83.902 E168.3459
G1 X125.109 Y83.524 E168.3733
G1 X111.625 Y83.524 E169.0460
G1 X111.625 Y83.145 E169.0649
G1 X124.712 Y83.145 E169.7178
G1 X124.316 Y82.766 E169.7452
G1 X111.625 Y82.766 E170.3783
G1 X111.625 Y82.387 E170.3972
G1 X123.919 Y82.387 E171.0106
G0 F4800 E170.0106
G0 X121.407 Y82.009 F10800
G0 F4800 E171.0106
G1 X111.625 Y82.009 E171.4986 F3600
G1 X111.625 Y81.630 E171.5175
G1 X121.407 Y81.630 E172.0056
G1 X121.407 Y81.251 E172.0245
G1 X111.625 Y81.251 E172.5125
G1 X111.889 Y80.872 E172.5356
G1 X121.143 Y80.872 E172.9972
G1 X120.746 Y80.494 E173.0246
G1 X112.286 Y80.494 E173.4467
G1 X112.682 Y80.115 E173.4741
G1 X120.350 Y80.115 E173.8566
G1 X119.953 Y79.736 E173.8840
G1 X113.079 Y79.736 E174.2269
G1 X113.475 Y79.357 E174.2543
G1 X119.556 Y79.357 E174.5577
G1 X119.160 Y78.979 E174.5850
G1 X113.872 Y78.979 E174.8488
G0 F4800 E173.8488
G0 X135.817 Y82.387 F10800
G0 F4800 E174.8488
G1 X148.111 Y82.387 E175.4622 F3600
G1 X148.111 Y82.766 E175.4811
G1 X135.420 Y82.766 E176.1142
G1 X135.024 Y83.145 E176.1416
G1 X148.111 Y83.145 E176.7945
G1 X148.111 Y83.524 E176.8134
G1 X134.627 Y83.524 E177.4862
G1 X134.230 Y83.902 E177.5135
G1 X148.111 Y83.902 E178.2060
G1 X148.111 Y84.281 E178.2249
G1 X133.834 Y84.281 E178.9372
G1 X133.702 Y84.660 E178.9573
G1 X148.111 Y84.660 E179.6761
G1 X148.111 Y85.039 E179.6950
G1 X133.702 Y85.039 E180.4139
G1 X133.702 Y85.417 E180.4328
G1 X148.111 Y85.417 E181.1517
G1 X148.111 Y85.796 E181.1706
G1 X133.702 Y85.796 E181.8895
G1 X133.702 Y86.175 E181.9084
G1 X148.111 Y86.175 E182.6272
G1 X148.111 Y86.554 E182.6461
G1 X133.702 Y86.554 E183.3650
G1 X133.702 Y86.933 E183.3839
G1 X148.111 Y86.933 E184.1028
G1 X148.111 Y87.311 E184.1217
G1 X133.702 Y87.311 E184.8406
G1 X133.702 Y87.690 E184.8595
G1 X148.111 Y87.690 E185.5784
G1 X148.111 Y88.069 E185.5973
G1 X133.702 Y88.069 E186.3161
G1 X133.702 Y88.448 E186.3350
G1 X148.111 Y88.448 E187.0539
G1 X148.111 Y88.826 E187.0728
G1 X133.702 Y88.826 E187.7917
G1 X133.702 Y89.205 E187.8106
G1 X148.111 Y89.205 E188.5295
G1 X148.111 Y89.584 E188.5484
G1 X133.702 Y89.584 E189.2672
G1 X133.702 Y89.963 E189.2861
G1 X148.111 Y89.963 E190.0050
G1 X148.111 Y90.341 E190.0239
G1 X133.702 Y90.341 E190.7428
G1 X133.702 Y90.720 E190.7617
G1 X152.077 Y90.720 E191.6784
G0 F4800 E190.6784
G0 X148.111 Y82.009 F10800
G0 F4800 E191.6784
G1 X138.328 Y82.009 E192.1665 F3600
G1 X138.328 Y81.630 E192.1854
G1 X148.111 Y81.630 E192.6734
G1 X148.111 Y81.251 E192.6923
G1 X138.328 Y81.251 E193.1804
G1 X138.593 Y80.872 E193.2034
G1 X147.847 Y80.872 E193.6651
G1 X147.450 Y80.494 E193.6925
G1 X138.989 Y80.494 E194.1146
G1 X139.386 Y80.115 E194.1419
G1 X147.053 Y80.115 E194.5245
G1 X146.657 Y79.736 E194.5518
G1 X139.783 Y79.736 E194.8948
G1 X140.179 Y79.357 E194.9221
G1 X146.260 Y79.357 E195.2255
G1 X145.864 Y78.979 E195.2529
G1 X140.576 Y78.979 E195.5167



; ------------------------------------
; Raft Layer #4
; ------------------------------------
G21 ; mm
G90 ; abs
G92 E0 ; reset extr
M106 S255
;segType:Raft
G0 F4800 E-1.0000
G0 F300 Z1.500
G0 X148.063 Y81.081 F10800
G0 F4800 E0.0000
G1 X148.063 Y119.045 E1.8941 F3600
G1 X147.666 Y119.424 E1.9214
G1 X147.666 Y80.702 E3.8532
G1 X147.269 Y80.324 E3.8806
G1 X147.269 Y119.802 E5.8502
G1 X146.872 Y120.180 E5.8775
G1 X146.872 Y79.946 E7.8848
G1 X146.475 Y79.567 E7.9122
G1 X146.475 Y120.559 E9.9573
G1 X146.078 Y120.937 E9.9846
G1 X146.078 Y79.189 E12.0675
G1 X145.681 Y78.811 E12.0948
G1 X145.681 Y121.316 E14.2154
G1 X145.284 Y121.442 E14.2362
G1 X145.284 Y78.811 E16.3631
G1 X144.887 Y78.811 E16.3829
G1 X144.887 Y121.442 E18.5098
G1 X144.490 Y121.442 E18.5296
G1 X144.490 Y78.811 E20.6564
G1 X144.093 Y78.811 E20.6762
G1 X144.093 Y121.442 E22.8031
G1 X143.696 Y121.442 E22.8229
G1 X143.696 Y78.811 E24.9498
G1 X143.299 Y78.811 E24.9696
G1 X143.299 Y121.442 E27.0965
G1 X142.902 Y121.442 E27.1163
G1 X142.902 Y78.811 E29.2432
G1 X142.506 Y78.811 E29.2630
G1 X142.506 Y121.442 E31.3899
G1 X142.109 Y121.442 E31.4097
G1 X142.109 Y78.811 E33.5365
G1 X141.712 Y78.811 E33.5564
G1 X141.712 Y121.442 E35.6832
G1 X141.315 Y121.442 E35.7030
G1 X141.315 Y78.811 E37.8299
G1 X140.918 Y78.811 E37.8497
G1 X140.918 Y121.442 E39.9766
G1 X140.521 Y121.442 E39.9964
G1 X140.521 Y79.063 E42.1107
G1 X140.124 Y79.441 E42.1381
G1 X140.124 Y121.442 E44.2335
G1 X139.727 Y121.442 E44.2533
G1 X139.727 Y79.820 E46.3298
G1 X139.330 Y80.198 E46.3572
G1 X139.330 Y121.442 E48.4148
G1 X138.933 Y121.442 E48.4346
G1 X138.933 Y80.576 E50.4734
G1 X138.536 Y80.955 E50.5008
G1 X138.536 Y121.442 E52.5207
G0 F4800 E51.5207
G0 X125.435 Y121.442 F10800
G0 F4800 E52.5207
G1 X125.435 Y112.108 E52.9863 F3600
G1 X125.832 Y112.108 E53.0062
G1 X125.832 Y121.442 E53.4718
G1 X126.229 Y121.442 E53.4916
G1 X126.229 Y112.108 E53.9573
G1 X126.626 Y112.108 E53.9771
G1 X126.626 Y121.442 E54.4427
G1 X127.023 Y121.442 E54.4625
G1 X127.023 Y112.108 E54.9282
G1 X127.420 Y112.108 E54.9480
G1 X127.420 Y121.442 E55.4136
G1 X127.817 Y121.442 E55.4334
G1 X127.817 Y112.108 E55.8991
G1 X128.214 Y112.108 E55.9189
G1 X128.214 Y121.442 E56.3845
G1 X128.611 Y121.442 E56.4043
G1 X128.611 Y112.108 E56.8700
G1 X129.008 Y112.108 E56.8898
G1 X129.008 Y121.442 E57.3554
G1 X129.405 Y121.442 E57.3752
G1 X129.405 Y112.108 E57.8409
G1 X129.802 Y112.108 E57.8607
G1 X129.802 Y121.442 E58.3263
G1 X130.199 Y121.442 E58.3462
G1 X130.199 Y112.108 E58.8118
G1 X130.596 Y112.108 E58.8316
G1 X130.596 Y121.442 E59.2973
G1 X130.993 Y121.442 E59.3171
G1 X130.993 Y112.108 E59.7827
G1 X131.390 Y112.108 E59.8025
G1 X131.390 Y121.442 E60.2682
G1 X131.787 Y121.442 E60.2880
G1 X131.787 Y112.108 E60.7536
G1 X132.184 Y112.108 E60.7734
G1 X132.184 Y121.442 E61.2391
G1 X132.581 Y121.442 E61.2589
G1 X132.581 Y112.108 E61.7245
G1 X132.978 Y112.108 E61.7443
G1 X132.978 Y121.442 E62.2100
G1 X133.375 Y121.442 E62.2298
G1 X133.375 Y112.108 E62.6954
G1 X133.772 Y112.108 E62.7152
G1 X133.772 Y121.442 E63.1809
G1 X134.169 Y121.442 E63.2007
G1 X134.169 Y112.108 E63.6663
G1 X134.566 Y112.108 E63.6862
G1 X134.566 Y121.442 E64.1518
G1 X134.963 Y121.442 E64.1716
G1 X134.963 Y106.937 E64.8952
G1 X135.360 Y106.559 E64.9226
G1 X135.360 Y121.442 E65.6651
G1 X135.757 Y121.442 E65.6849
G1 X135.757 Y106.180 E66.4463
G1 X136.154 Y105.802 E66.4737
G1 X136.154 Y121.442 E67.2540
G1 X136.551 Y121.442 E67.2738
G1 X136.551 Y105.423 E68.0729
G1 X136.948 Y105.045 E68.1003
G1 X136.948 Y121.442 E68.9183
G1 X137.345 Y121.442 E68.9381
G1 X137.345 Y104.919 E69.7624
G1 X137.742 Y104.919 E69.7823
G1 X137.742 Y121.442 E70.6066
G1 X138.139 Y121.442 E70.6264
G1 X138.139 Y104.919 E71.4507
G0 F4800 E70.4507
G0 X138.139 Y100.126 F10800
G0 F4800 E71.4507
G1 X138.139 Y82.090 E72.3505 F3600
G1 X137.742 Y82.090 E72.3703
G1 X137.742 Y100.126 E73.2702
G1 X137.345 Y100.126 E73.2900
G1 X137.345 Y82.090 E74.1898
G1 X136.948 Y82.090 E74.2096
G1 X136.948 Y100.126 E75.1095
G1 X136.551 Y100.126 E75.1293
G1 X136.551 Y82.090 E76.0291
G1 X136.154 Y82.090 E76.0489
G1 X136.154 Y100.126 E76.9487
G1 X135.757 Y100.126 E76.9685
G1 X135.757 Y82.468 E77.8495
G1 X135.360 Y82.847 E77.8769
G1 X135.360 Y100.126 E78.7389
G1 X134.963 Y100.126 E78.7587
G1 X134.963 Y83.225 E79.6019
G1 X134.566 Y83.603 E79.6293
G1 X134.566 Y100.126 E80.4536
G1 X134.169 Y100.126 E80.4734
G1 X134.169 Y83.982 E81.2789
G1 X133.772 Y84.360 E81.3062
G1 X133.772 Y100.126 E82.0928
G1 X133.375 Y100.126 E82.1126
G1 X133.375 Y90.793 E82.5783
G1 X132.978 Y90.793 E82.5981
G1 X132.978 Y100.126 E83.0637
G1 X132.581 Y100.126 E83.0835
G1 X132.581 Y90.793 E83.5492
G1 X132.184 Y90.793 E83.5690
G1 X132.184 Y100.126 E84.0346
G1 X131.787 Y100.126 E84.0544
G1 X131.787 Y90.793 E84.5201
G1 X131.390 Y90.793 E84.5399
G1 X131.390 Y100.126 E85.0055
G1 X130.993 Y100.126 E85.0253
G1 X130.993 Y90.793 E85.4910
G1 X130.596 Y90.793 E85.5108
G1 X130.596 Y100.126 E85.9764
G1 X130.199 Y100.126 E85.9962
G1 X130.199 Y90.793 E86.4619
G1 X129.802 Y90.793 E86.4817
G1 X129.802 Y100.126 E86.9473
G1 X129.405 Y100.126 E86.9671
G1 X129.405 Y90.793 E87.4328
G1 X129.008 Y90.793 E87.4526
G1 X129.008 Y100.126 E87.9182
G1 X128.611 Y100.126 E87.9380
G1 X128.611 Y90.793 E88.4037
G1 X128.214 Y90.793 E88.4235
G1 X128.214 Y100.126 E88.8891
G1 X127.817 Y100.126 E88.9089
G1 X127.817 Y90.793 E89.3746
G1 X127.420 Y90.793 E89.3944
G1 X127.420 Y100.126 E89.8600
G1 X127.023 Y100.126 E89.8798
G1 X127.023 Y90.793 E90.3455
G1 X126.626 Y90.793 E90.3653
G1 X126.626 Y100.126 E90.8309
G1 X126.229 Y100.126 E90.8507
G1 X126.229 Y90.793 E91.3164
G0 F4800 E90.3164
G0 X125.832 Y100.126 F10800
G0 F4800 E91.3164
G1 X125.832 Y84.108 E92.1155 F3600
G1 X125.435 Y83.730 E92.1429
G1 X125.435 Y100.126 E92.9609
G1 X125.038 Y100.126 E92.9807
G1 X125.038 Y83.351 E93.8176
G1 X124.641 Y82.973 E93.8450
G1 X124.641 Y100.126 E94.7008
G1 X124.244 Y100.126 E94.7206
G1 X124.244 Y82.594 E95.5952
G1 X123.847 Y82.216 E95.6226
G1 X123.847 Y100.126 E96.5161
G1 X123.450 Y100.126 E96.5360
G1 X123.450 Y82.090 E97.4358
G1 X123.053 Y82.090 E97.4556
G1 X123.053 Y100.126 E98.3554
G1 X122.656 Y100.126 E98.3752
G1 X122.656 Y82.090 E99.2751
G1 X122.259 Y82.090 E99.2949
G1 X122.259 Y100.126 E100.1947
G1 X121.862 Y100.126 E100.2145
G1 X121.862 Y82.090 E101.1143
G1 X121.465 Y81.081 E101.1684
G1 X121.465 Y121.442 E103.1821
G1 X121.068 Y121.442 E103.2019
G1 X121.068 Y80.702 E105.2344
G1 X120.671 Y80.324 E105.2617
G1 X120.671 Y121.442 E107.3131
G1 X120.274 Y121.442 E107.3329
G1 X120.274 Y79.946 E109.4031
G1 X119.877 Y79.567 E109.4305
G1 X119.877 Y121.442 E111.5196
G1 X119.480 Y121.442 E111.5394
G1 X119.480 Y79.189 E113.6474
G1 X119.083 Y78.811 E113.6748
G1 X119.083 Y121.442 E115.8017
G1 X118.686 Y121.442 E115.8215
G1 X118.686 Y78.811 E117.9483
G1 X118.289 Y78.811 E117.9682
G1 X118.289 Y121.442 E120.0950
G1 X117.892 Y121.442 E120.1148
G1 X117.892 Y78.811 E122.2417
G1 X117.495 Y78.811 E122.2615
G1 X117.495 Y121.442 E124.3884
G1 X117.098 Y121.442 E124.4082
G1 X117.098 Y78.811 E126.5351
G1 X116.701 Y78.811 E126.5549
G1 X116.701 Y121.442 E128.6818
G1 X116.304 Y121.442 E128.7016
G1 X116.304 Y78.811 E130.8285
G1 X115.907 Y78.811 E130.8483
G1 X115.907 Y121.442 E132.9751
G1 X115.510 Y121.442 E132.9949
G1 X115.510 Y78.811 E135.1218
G1 X115.113 Y78.811 E135.1416
G1 X115.113 Y121.442 E137.2685
G1 X114.716 Y121.442 E137.2883
G1 X114.716 Y78.811 E139.4152
G1 X114.319 Y78.811 E139.4350
G1 X114.319 Y121.442 E141.5619
G1 X113.922 Y121.063 E141.5892
G1 X113.922 Y79.063 E143.6846
G1 X113.525 Y79.441 E143.7120
G1 X113.525 Y120.685 E145.7697
G1 X113.128 Y120.307 E145.7970
G1 X113.128 Y79.820 E147.8169
G1 X112.731 Y80.198 E147.8443
G1 X112.731 Y119.928 E149.8264
G1 X112.334 Y119.550 E149.8538
G1 X112.334 Y80.576 E151.7982
G1 X111.937 Y80.955 E151.8256
G1 X111.937 Y119.171 E153.7322
G0 F4800 E152.7322
G0 X121.862 Y121.442 F10800
G0 F4800 E153.7322
G1 X121.862 Y104.919 E154.5565 F3600
G1 X122.259 Y104.919 E154.5763
G1 X122.259 Y121.442 E155.4007
G1 X122.656 Y121.442 E155.4205
G1 X122.656 Y104.919 E156.2448
G1 X123.053 Y105.171 E156.2683
G1 X123.053 Y121.442 E157.0800
G1 X123.450 Y121.442 E157.0998
G1 X123.450 Y105.550 E157.8927
G1 X123.847 Y105.928 E157.9200
G1 X123.847 Y121.442 E158.6940
G1 X124.244 Y121.442 E158.7138
G1 X124.244 Y106.306 E159.4689
G1 X124.641 Y106.685 E159.4963
G1 X124.641 Y121.442 E160.2325
G1 X125.038 Y121.442 E160.2523
G1 X125.038 Y107.063 E160.9697
G0 F4800 E159.9697
G0 X111.540 Y108.577 F10800
G0 F4800 E160.9697
G1 X111.540 Y90.667 E161.8632 F3600
G1 X111.143 Y90.667 E161.8830
G1 X111.143 Y108.577 E162.7765
G1 X110.746 Y108.577 E162.7963
G1 X110.746 Y90.667 E163.6899
G1 X110.349 Y90.667 E163.7097
G1 X110.349 Y108.577 E164.6032
G1 X109.952 Y108.577 E164.6230
G1 X109.952 Y90.667 E165.5166
G1 X109.555 Y90.667 E165.5364
G1 X109.555 Y108.577 E166.4299
G1 X109.158 Y108.577 E166.4497
G1 X109.158 Y90.667 E167.3433
G1 X108.761 Y90.667 E167.3631
G1 X108.761 Y108.577 E168.2566
G1 X108.364 Y108.577 E168.2764
G1 X108.364 Y90.667 E169.1700
G1 X107.967 Y90.667 E169.1898
G1 X107.967 Y108.577 E170.0833
G1 X107.570 Y108.198 E170.1107
G1 X107.570 Y90.919 E170.9727
G1 X107.173 Y91.297 E171.0001
G1 X107.173 Y107.820 E171.8244
G1 X106.776 Y107.442 E171.8518
G1 X106.776 Y91.676 E172.6383
G1 X106.379 Y92.054 E172.6657
G1 X106.379 Y107.063 E173.4145
G1 X105.982 Y106.685 E173.4419
G1 X105.982 Y92.432 E174.1529
G1 X105.585 Y92.811 E174.1803
G1 X105.585 Y106.306 E174.8536
G0 F4800 E173.8536
G0 X148.460 Y108.577 F10800
G0 F4800 E174.8536
G1 X148.460 Y90.667 E175.7471 F3600
G1 X148.857 Y90.667 E175.7669
G1 X148.857 Y108.577 E176.6605
G1 X149.254 Y108.577 E176.6803
G1 X149.254 Y90.667 E177.5738
G1 X149.651 Y90.667 E177.5936
G1 X149.651 Y108.577 E178.4872
G1 X150.048 Y108.577 E178.5070
G1 X150.048 Y90.667 E179.4005
G1 X150.445 Y90.667 E179.4203
G1 X150.445 Y108.577 E180.3139
G1 X150.842 Y108.577 E180.3337
G1 X150.842 Y90.667 E181.2272
G1 X151.239 Y90.667 E181.2470
G1 X151.239 Y108.577 E182.1406
G1 X151.636 Y108.577 E182.1604
G1 X151.636 Y90.667 E183.0539
G1 X152.033 Y90.667 E183.0737
G1 X152.033 Y108.451 E183.9610
G1 X152.430 Y108.072 E183.9883
G1 X152.430 Y91.045 E184.8378
G1 X152.827 Y91.423 E184.8652
G1 X152.827 Y107.694 E185.6769
G1 X153.224 Y107.315 E185.7043
G1 X153.224 Y91.802 E186.4782
G1 X153.621 Y92.180 E186.5056
G1 X153.621 Y106.937 E187.2418
G1 X154.018 Y106.559 E187.2692
G1 X154.018 Y92.558 E187.9677
G1 X154.415 Y92.937 E187.9950
G1 X154.415 Y106.180 E188.6557


; ------------------------------------
; Layer #0
; ------------------------------------
G21 ; mm
G90 ; abs
G92 E0 ; reset extr
M106 S255
G0 F4800 E-1.0000
G0 F300 Z1.950
G0 X149.983 Y104.840 F10800
G0 X147.768 Y104.169
G0 X145.552 Y103.499
G0 F4800 E0.0000
;segType:HShell
G1 X147.454 Y101.684 E0.0874 F600
G1 X146.849 Y101.725
G1 X144.990 Y103.499 E0.1729
G1 X144.429 Y103.499
G1 X146.369 Y101.648 E0.2621
G1 X145.965 Y101.498
G1 X143.867 Y103.499 E0.3585
;segType:Perimeter
G1 X143.602 Y104.128 E0.3813 F359
G1 X143.602 Y116.972 E0.8085
G1 X116.399 Y116.972 E1.7133
G1 X116.399 Y104.072 E2.1423
G1 X110.049 Y104.072 E2.3535
G1 X110.049 Y94.929 E2.6576
G1 X116.399 Y94.929 E2.8688
G1 X116.399 Y83.028 E3.2646
G1 X116.998 Y83.028 E3.2846
G1 X116.998 Y86.330 E3.3944
G1 X121.570 Y86.330 E3.5465
G1 X121.570 Y90.521 E3.6858
G1 X116.998 Y90.521 E3.8379
G1 X116.998 Y95.033 E3.9880
G1 X143.002 Y95.033 E4.8529
G1 X143.002 Y90.521 E5.0030
G1 X138.430 Y90.521 E5.1551
G1 X138.430 Y86.330 E5.2944
G1 X143.002 Y86.330 E5.4465
G1 X143.002 Y83.028 E5.5563
G1 X143.602 Y83.028 E5.5763
G1 X143.602 Y94.929 E5.9721
G1 X149.952 Y94.929 E6.1833
G1 X149.952 Y104.072 E6.4874
G1 X143.661 Y104.072 E6.6966
G0 F4800 E5.6966
G0 X143.502 Y103.690 F10800
G0 F4800 E6.6966
;segType:Loop
G1 X143.402 Y103.690 E6.6999 F600
G1 X143.402 Y95.415 E6.9752
G1 X143.402 Y95.310 E6.9786
G1 X149.552 Y95.310 E7.1832
G1 X149.552 Y103.690 E7.4619
G1 X143.701 Y103.690 E7.6565
G0 F4800 E6.6565
G0 X145.771 Y101.157 F10800
G0 F4800 E7.6565
G1 X145.698 Y101.110 E7.6593 F600
G1 X145.441 Y100.874 E7.6710
G1 X145.228 Y100.599 E7.6825
G1 X145.066 Y100.294 E7.6940
G1 X144.958 Y99.968 E7.7054
G1 X144.908 Y99.629 E7.7169
G1 X144.915 Y99.286 E7.7283
G1 X144.980 Y98.950 E7.7397
G1 X145.102 Y98.628 E7.7511
G1 X145.277 Y98.329 E7.7626
G1 X145.501 Y98.063 E7.7742
G1 X145.768 Y97.838 E7.7858
G1 X146.073 Y97.659 E7.7976
G1 X146.404 Y97.534 E7.8093
G1 X146.754 Y97.466 E7.8212
G1 X147.110 Y97.459 E7.8330
G1 X147.462 Y97.511 E7.8449
G1 X147.799 Y97.622 E7.8567
G1 X148.111 Y97.788 E7.8684
G1 X148.389 Y98.002 E7.8801
G1 X148.625 Y98.259 E7.8917
G1 X148.813 Y98.550 E7.9032
G1 X148.948 Y98.867 E7.9147
G1 X149.027 Y99.201 E7.9261
G1 X149.049 Y99.543 E7.9375
G1 X149.012 Y99.883 E7.9489
G1 X148.919 Y100.214 E7.9603
G1 X148.771 Y100.525 E7.9718
G1 X148.570 Y100.808 E7.9833
G1 X148.324 Y101.055 E7.9949
G1 X148.036 Y101.258 E8.0066
G1 X147.717 Y101.410 E8.0184
G1 X147.376 Y101.507 E8.0301
G1 X147.021 Y101.545 E8.0420
G1 X146.665 Y101.522 E8.0539
G1 X146.320 Y101.440 E8.0657
G1 X145.994 Y101.301 E8.0775
G1 X145.935 Y101.263 E8.0798
;segType:Perimeter
G0 X147.491 Y101.607 F10800
G1 X146.953 Y101.158 E8.1031 F359
G1 X146.728 Y101.144 E8.1106
G1 X146.451 Y101.078 E8.1201
G1 X146.189 Y100.967 E8.1295
G1 X145.951 Y100.813 E8.1390
G1 X145.743 Y100.622 E8.1484
G1 X145.570 Y100.398 E8.1578
G1 X145.438 Y100.150 E8.1671
G1 X145.350 Y99.883 E8.1765
G1 X145.308 Y99.605 E8.1858
G1 X145.315 Y99.325 E8.1951
G1 X145.368 Y99.049 E8.2045
G1 X145.467 Y98.787 E8.2138
G1 X145.609 Y98.544 E8.2232
G1 X145.791 Y98.328 E8.2326
G1 X146.008 Y98.145 E8.2420
G1 X146.253 Y98.002 E8.2514
G1 X146.519 Y97.901 E8.2609
G1 X146.798 Y97.847 E8.2704
G1 X147.083 Y97.841 E8.2798
G1 X147.365 Y97.883 E8.2893
G1 X147.635 Y97.972 E8.2988
G1 X147.886 Y98.105 E8.3082
G1 X148.111 Y98.279 E8.3177
G1 X148.302 Y98.486 E8.3271
G1 X148.454 Y98.723 E8.3364
G1 X148.565 Y98.982 E8.3458
G1 X148.630 Y99.255 E8.3551
G1 X148.648 Y99.535 E8.3644
G1 X148.618 Y99.814 E8.3738
G1 X148.541 Y100.084 E8.3831
G1 X148.420 Y100.338 E8.3925
G1 X148.258 Y100.568 E8.4018
G1 X148.058 Y100.768 E8.4112
G1 X147.826 Y100.932 E8.4207
G1 X147.570 Y101.054 E8.4301
G1 X147.296 Y101.132 E8.4396
G1 X147.072 Y101.156 E8.4471
G1 X146.555 Y101.627
G0 X143.142 Y95.518 F10800
G0 X143.142 Y90.387
G0 X139.091 Y89.803
;segType:Loop
G1 X139.129 Y89.839 E8.4488 F600
G1 X139.668 Y90.081 E8.4685
G1 X140.264 Y90.131 E8.4884
G1 X140.839 Y89.979 E8.5082
G1 X141.325 Y89.649 E8.5277
G1 X141.668 Y89.183 E8.5470
G1 X141.828 Y88.658 E8.5652
G1 X141.840 Y88.326 E8.5762
G1 X141.724 Y87.792 E8.5944
G1 X141.420 Y87.301 E8.6136
G1 X140.963 Y86.935 E8.6331
G1 X140.403 Y86.739 E8.6528
G1 X139.806 Y86.740 E8.6727
G1 X139.247 Y86.939 E8.6924
G1 X138.830 Y87.278 E8.7103
G1 X138.830 Y86.712 E8.7291
G1 X143.202 Y86.712 E8.8746
G1 X143.202 Y90.139 E8.9886
G1 X138.830 Y90.139 E9.1340
G1 X138.830 Y89.554 E9.1534
G1 X138.951 Y89.669 E9.1590
;segType:Perimeter
G0 X140.755 Y90.127 F10800
G1 X140.167 Y89.740 E9.1824 F359
G1 X139.774 Y89.707 E9.1955
G1 X139.362 Y89.522 E9.2105
G1 X139.037 Y89.212 E9.2255
G1 X138.835 Y88.814 E9.2403
G1 X138.778 Y88.373 E9.2551
G1 X138.870 Y87.938 E9.2699
G1 X139.103 Y87.557 E9.2848
G1 X139.453 Y87.273 E9.2997
G1 X139.879 Y87.122 E9.3148
G1 X140.333 Y87.120 E9.3299
G1 X140.760 Y87.270 E9.3449
G1 X141.111 Y87.552 E9.3599
G1 X141.346 Y87.932 E9.3748
G1 X141.439 Y88.359 E9.3893
G1 X141.430 Y88.597 E9.3972
G1 X141.302 Y89.015 E9.4118
G1 X141.037 Y89.376 E9.4266
G1 X140.665 Y89.629 E9.4416
G1 X140.284 Y89.729 E9.4547
G1 X139.780 Y90.213
G0 F4800 E8.4547
G0 X123.995 Y90.140 F10800
G0 X121.434 Y89.971
G0 X118.873 Y89.803
G0 F4800 E9.4547
;segType:Loop
G1 X118.910 Y89.839 E9.4565 F600
G1 X119.450 Y90.081 E9.4761
G1 X120.045 Y90.131 E9.4960
G1 X120.621 Y89.979 E9.5158
G1 X121.107 Y89.649 E9.5353
G1 X121.170 Y89.562 E9.5389
G1 X121.170 Y90.139 E9.5581
G1 X116.799 Y90.139 E9.7035
G1 X116.799 Y86.712 E9.8175
G1 X121.170 Y86.712 E9.9629
G1 X121.170 Y87.276 E9.9817
G1 X120.745 Y86.935 E9.9998
G1 X120.185 Y86.739 E10.0195
G1 X119.588 Y86.740 E10.0394
G1 X119.029 Y86.939 E10.0591
G1 X118.574 Y87.308 E10.0786
G1 X118.273 Y87.800 E10.0978
G1 X118.154 Y88.358 E10.1168
G1 X118.228 Y88.924 E10.1357
G1 X118.488 Y89.437 E10.1549
G1 X118.732 Y89.669 E10.1661
;segType:Perimeter
G0 X120.537 Y90.127 F10800
G1 X119.949 Y89.740 E10.1895 F359
G1 X119.556 Y89.707 E10.2026
G1 X119.144 Y89.522 E10.2176
G1 X118.819 Y89.212 E10.2326
G1 X118.617 Y88.814 E10.2474
G1 X118.559 Y88.373 E10.2622
G1 X118.652 Y87.938 E10.2770
G1 X118.885 Y87.557 E10.2919
G1 X119.234 Y87.273 E10.3068
G1 X119.660 Y87.122 E10.3219
G1 X120.114 Y87.120 E10.3370
G1 X120.541 Y87.270 E10.3520
G1 X120.892 Y87.552 E10.3670
G1 X121.127 Y87.932 E10.3818
G1 X121.220 Y88.359 E10.3964
G1 X121.211 Y88.597 E10.4043
G1 X121.084 Y89.015 E10.4188
G1 X120.819 Y89.376 E10.4337
G1 X120.446 Y89.629 E10.4487
G1 X120.066 Y89.729 E10.4618
G1 X119.562 Y90.213
G0 F4800 E9.4618
G0 X116.800 Y93.886 F10800
G0 X116.858 Y90.387
G0 X121.430 Y90.387
G0 X121.430 Y86.464
G0 X116.858 Y86.464
G0 X111.164 Y99.306
G0 X110.649 Y101.982
G0 F4800 E10.4618
;segType:HShell
G1 X111.511 Y101.160 E10.5014 F600
G1 X111.827 Y101.394
G1 X110.649 Y102.518 E10.5556
G1 X110.649 Y103.054
G1 X112.197 Y101.577 E10.6268
G1 X112.630 Y101.699
G1 X110.743 Y103.499 E10.7135
G1 X111.305 Y103.499
G1 X113.162 Y101.727 E10.7989
;segType:Perimeter
G0 X113.538 Y101.607 F10800
G1 X113.000 Y101.158 E10.8222 F359
G1 X112.775 Y101.144 E10.8297
G1 X112.498 Y101.078 E10.8391
G1 X112.236 Y100.967 E10.8486
G1 X111.998 Y100.813 E10.8580
G1 X111.789 Y100.621 E10.8674
G1 X111.617 Y100.398 E10.8768
G1 X111.485 Y100.150 E10.8862
G1 X111.397 Y99.883 E10.8955
G1 X111.355 Y99.605 E10.9048
G1 X111.361 Y99.325 E10.9142
G1 X111.414 Y99.049 E10.9235
G1 X111.514 Y98.787 E10.9328
G1 X111.656 Y98.544 E10.9422
G1 X111.838 Y98.328 E10.9516
G1 X112.054 Y98.145 E10.9610
G1 X112.299 Y98.002 E10.9705
G1 X112.565 Y97.901 E10.9799
G1 X112.845 Y97.847 E10.9894
G1 X113.130 Y97.841 E10.9989
G1 X113.412 Y97.883 E11.0084
G1 X113.682 Y97.972 E11.0178
G1 X113.933 Y98.105 E11.0273
G1 X114.157 Y98.279 E11.0367
G1 X114.348 Y98.486 E11.0461
G1 X114.501 Y98.723 E11.0555
G1 X114.612 Y98.982 E11.0648
G1 X114.677 Y99.255 E11.0742
G1 X114.695 Y99.535 E11.0835
G1 X114.665 Y99.814 E11.0928
G1 X114.588 Y100.084 E11.1022
G1 X114.467 Y100.338 E11.1115
G1 X114.304 Y100.568 E11.1209
G1 X114.105 Y100.768 E11.1303
G1 X113.873 Y100.932 E11.1397
G1 X113.617 Y101.054 E11.1492
G1 X113.343 Y101.132 E11.1586
G1 X113.118 Y101.156 E11.1661
G1 X112.602 Y101.627
;segType:Loop
G0 X111.818 Y101.157 F10800
G1 X111.745 Y101.110 E11.1690 F600
G1 X111.487 Y100.874 E11.1807
G1 X111.275 Y100.599 E11.1922
G1 X111.113 Y100.294 E11.2037
G1 X111.005 Y99.968 E11.2151
G1 X110.955 Y99.629 E11.2265
G1 X110.962 Y99.287 E11.2379
G1 X111.027 Y98.950 E11.2493
G1 X111.148 Y98.628 E11.2608
G1 X111.323 Y98.329 E11.2723
G1 X111.548 Y98.063 E11.2838
G1 X111.815 Y97.838 E11.2955
G1 X112.120 Y97.659 E11.3072
G1 X112.451 Y97.534 E11.3190
G1 X112.801 Y97.466 E11.3308
G1 X113.157 Y97.459 E11.3427
G1 X113.509 Y97.511 E11.3545
G1 X113.846 Y97.622 E11.3663
G1 X114.158 Y97.788 E11.3781
G1 X114.436 Y98.002 E11.3898
G1 X114.671 Y98.259 E11.4013
G1 X114.859 Y98.550 E11.4129
G1 X114.995 Y98.867 E11.4243
G1 X115.074 Y99.201 E11.4357
G1 X115.096 Y99.543 E11.4471
G1 X115.060 Y99.883 E11.4585
G1 X114.966 Y100.214 E11.4700
G1 X114.817 Y100.525 E11.4814
G1 X114.617 Y100.808 E11.4930
G1 X114.370 Y101.055 E11.5046
G1 X114.084 Y101.258 E11.5162
G1 X113.764 Y101.410 E11.5280
G1 X113.423 Y101.507 E11.5398
G1 X113.068 Y101.545 E11.5517
G1 X112.712 Y101.522 E11.5636
G1 X112.367 Y101.440 E11.5753
G1 X112.041 Y101.301 E11.5871
G1 X111.982 Y101.263 E11.5895
G0 X116.539 Y103.938 F10800
G0 X116.999 Y112.529
;segType:HShell
G1 X119.844 Y109.814 E11.7203 F600
G1 X119.283 Y109.814
G1 X116.999 Y111.993 E11.8253
G1 X116.999 Y111.458
G1 X118.722 Y109.814 E11.9045
G1 X118.160 Y109.814
G1 X116.999 Y110.922 E11.9579
G1 X116.999 Y110.386
G1 X117.599 Y109.814 E11.9855
;segType:Perimeter
G0 X117.272 Y109.814 F10800
G1 X116.998 Y109.185 E12.0083 F359
G1 X116.998 Y95.652 E12.4584
G1 X143.002 Y95.652 E13.3233
G1 X143.002 Y109.241 E13.7753
G1 X139.319 Y109.241 E13.8978
G1 X139.319 Y111.812 E13.9833
G1 X139.400 Y111.739 E13.9869
G1 X139.820 Y111.568 E14.0020
G1 X140.274 Y111.547 E14.0172
G1 X140.709 Y111.678 E14.0323
G1 X141.073 Y111.946 E14.0473
G1 X141.325 Y112.317 E14.0622
G1 X141.437 Y112.749 E14.0770
G1 X141.400 Y113.193 E14.0919
G1 X141.215 Y113.600 E14.1068
G1 X140.903 Y113.924 E14.1217
G1 X140.498 Y114.127 E14.1368
G1 X140.047 Y114.183 E14.1519
G1 X139.603 Y114.085 E14.1670
G1 X139.319 Y113.908 E14.1781
G1 X139.319 Y116.353 E14.2595
G1 X120.681 Y116.353 E14.8794
G1 X120.681 Y113.909 E14.9606
G1 X120.600 Y113.982 E14.9643
G1 X120.180 Y114.153 E14.9794
G1 X119.726 Y114.175 E14.9945
G1 X119.291 Y114.043 E15.0096
G1 X118.927 Y113.775 E15.0246
G1 X118.675 Y113.404 E15.0395
G1 X118.563 Y112.972 E15.0544
G1 X118.601 Y112.528 E15.0692
G1 X118.785 Y112.121 E15.0841
G1 X119.097 Y111.796 E15.0991
G1 X119.502 Y111.594 E15.1141
G1 X119.954 Y111.538 E15.1293
G1 X120.397 Y111.636 E15.1444
G1 X120.681 Y111.813 E15.1555
G1 X120.681 Y109.241 E15.2410
G1 X117.058 Y109.241 E15.3615
G0 F4800 E14.3615
G0 X117.097 Y109.623 F10800
G0 F4800 E15.3615
;segType:Loop
G1 X120.281 Y109.623 E15.4674 F600
G1 X120.281 Y111.218 E15.5205
G1 X119.974 Y111.150 E15.5310
G1 X119.380 Y111.224 E15.5509
G1 X118.850 Y111.489 E15.5706
G1 X118.445 Y111.910 E15.5900
G1 X118.207 Y112.434 E15.6092
G1 X118.159 Y113.004 E15.6282
G1 X118.303 Y113.558 E15.6472
G1 X118.629 Y114.038 E15.6665
G1 X119.102 Y114.386 E15.6861
G1 X119.673 Y114.559 E15.7059
G1 X120.281 Y114.527 E15.7262
G1 X120.281 Y116.590 E15.7948
G1 X116.799 Y116.590 E15.9106
G1 X116.799 Y109.623 E16.1423
G1 X116.899 Y109.623 E16.1457
G0 X116.858 Y109.375 F10800
G0 X116.598 Y95.405
G1 X116.598 Y95.415 E16.1460 F600
G1 X116.598 Y103.690 E16.4213
G1 X110.448 Y103.690 E16.6258
G1 X110.448 Y95.310 E16.9045
G1 X116.499 Y95.310 E17.1057
G0 F4800 E16.1057
G0 X143.142 Y95.518 F10800
G0 X143.202 Y109.718
G0 F4800 E17.1057
G1 X143.202 Y116.590 E17.3343 F600
G1 X139.719 Y116.590 E17.4502
G1 X139.719 Y114.503 E17.5196
G1 X140.027 Y114.570 E17.5301
G1 X140.620 Y114.497 E17.5500
G1 X141.150 Y114.232 E17.5697
G1 X141.555 Y113.811 E17.5891
G1 X141.793 Y113.286 E17.6083
G1 X141.841 Y112.717 E17.6273
G1 X141.697 Y112.163 E17.6463
G1 X141.371 Y111.684 E17.6656
G1 X140.898 Y111.335 E17.6852
G1 X140.327 Y111.162 E17.7050
G1 X139.719 Y111.194 E17.7253
G1 X139.719 Y109.623 E17.7775
G1 X143.102 Y109.623 E17.8901
G0 F4800 E16.8901
G0 X145.104 Y106.372 F10800
G0 X146.113 Y103.499
G0 F4800 E17.8901
;segType:HShell
G1 X149.351 Y100.409 E18.0389 F600
G1 X149.351 Y100.945
G1 X146.675 Y103.499 E18.1620
G1 X147.236 Y103.499
G1 X149.351 Y101.481 E18.2592
G1 X149.351 Y102.016
G1 X147.797 Y103.499 E18.3307
G1 X148.359 Y103.499
G1 X149.351 Y102.552 E18.3763
G1 X149.351 Y103.088
G1 X148.920 Y103.499 E18.3961
G0 X149.175 Y100.042 F10800
G1 X149.351 Y99.874 E18.4043 F600
G1 X149.351 Y99.338
G1 X149.243 Y99.442 E18.4092
G1 X149.177 Y98.969
G1 X149.351 Y98.802 E18.4173
G1 X149.351 Y98.267
G1 X149.036 Y98.568 E18.4318
G1 X148.836 Y98.223
G1 X149.351 Y97.731 E18.4555
G1 X149.351 Y97.195
G1 X148.585 Y97.927 E18.4907
G1 X148.285 Y97.677
G1 X149.351 Y96.660 E18.5397
G1 X149.351 Y96.124
G1 X147.935 Y97.476 E18.6048
G1 X147.526 Y97.330
G1 X149.351 Y95.589 E18.6887
G1 X148.882 Y95.501
G1 X147.028 Y97.270 E18.7739
G1 X146.391 Y97.342
G1 X148.320 Y95.501 E18.8627
G1 X147.759 Y95.501
G1 X143.602 Y99.467 E19.0537
G1 X143.602 Y98.932
G1 X147.197 Y95.501 E19.2190
G1 X146.636 Y95.501
G1 X143.602 Y98.396 E19.3585
G1 X143.602 Y97.860
G1 X146.075 Y95.501 E19.4722
G1 X145.513 Y95.501
G1 X143.602 Y97.325 E19.5600
G1 X143.602 Y96.789
G1 X144.952 Y95.501 E19.6221
G1 X144.390 Y95.501
G1 X143.602 Y96.253 E19.6583
G1 X143.602 Y95.718
G1 X143.829 Y95.501 E19.6688
G0 X143.461 Y95.062 F10800
G0 X143.142 Y90.387
G0 X141.612 Y86.903
G1 X141.440 Y87.068 E19.6767 F600
G1 X141.691 Y87.363
G1 X142.174 Y86.903 E19.6989
G1 X142.735 Y86.903
G1 X141.899 Y87.700 E19.7373
G1 X142.003 Y88.137
G1 X143.002 Y87.184 E19.7832
G1 X143.002 Y87.720
G1 X142.028 Y88.649 E19.8280
G0 X141.636 Y89.558 F10800
G1 X143.002 Y88.256 E19.8907 F600
G1 X143.002 Y88.791
G1 X141.789 Y89.948 E19.9465
G1 X142.350 Y89.948
G1 X143.002 Y89.327 E19.9764
G1 X143.002 Y89.863
G1 X142.912 Y89.948 E19.9805
G0 X143.403 Y93.199 F10800
G0 X143.461 Y95.062
G0 X144.802 Y98.857
G1 X143.602 Y100.003 E20.0357 F600
G1 X143.602 Y100.538
G1 X144.711 Y99.480 E20.0867
G1 X144.757 Y99.972
G1 X143.602 Y101.074 E20.1398
G1 X143.602 Y101.610
G1 X144.889 Y100.382 E20.1990
G1 X145.083 Y100.733
G1 X143.602 Y102.145 E20.2670
G1 X143.602 Y102.681
G1 X145.327 Y101.035 E20.3463
G1 X145.621 Y101.291
G1 X143.602 Y103.217 E20.4391
G0 X139.919 Y109.945 F10800
G1 X140.056 Y109.814 E20.4455 F600
G1 X140.617 Y109.814
G1 X139.919 Y110.480 E20.4776
G1 X139.945 Y110.991
G1 X141.179 Y109.814 E20.5343
G1 X141.740 Y109.814
G1 X140.486 Y111.010 E20.5919
G1 X140.913 Y111.139
G1 X142.302 Y109.814 E20.6558
G1 X142.863 Y109.814
G1 X141.250 Y111.353 E20.7299
G1 X141.553 Y111.600
G1 X143.002 Y110.217 E20.7965
G1 X143.002 Y110.753
G1 X141.773 Y111.925 E20.8530
G1 X141.939 Y112.302
G1 X143.002 Y111.289 E20.9018
G1 X143.002 Y111.824
G1 X142.040 Y112.742 E20.9460
G1 X141.990 Y113.325
G1 X143.002 Y112.360 E20.9925
G1 X143.002 Y112.896
G1 X139.919 Y115.837 E21.1342
G1 X139.919 Y116.373
G1 X143.002 Y113.431 E21.2760
G1 X143.002 Y113.967
G1 X140.452 Y116.399 E21.3932
G1 X141.014 Y116.399
G1 X143.002 Y114.502 E21.4845
G1 X143.002 Y115.038
G1 X141.575 Y116.399 E21.5501
G1 X142.137 Y116.399
G1 X143.002 Y115.574 E21.5899
G1 X143.002 Y116.109
G1 X142.698 Y116.399 E21.6038
G0 X140.551 Y114.698 F10800
G1 X139.919 Y115.301 E21.6329 F600
G0 X123.244 Y116.487 F10800
G0 X120.541 Y116.487
G0 X120.225 Y114.338
G0 X119.199 Y114.211
G0 X118.493 Y113.480
G0 X118.408 Y112.482
G0 X118.904 Y111.247
G1 X120.081 Y110.123 E21.6870 F600
G1 X120.081 Y110.659
G1 X119.737 Y110.987 E21.7029
G0 X118.619 Y112.018 F10800
G0 X118.365 Y112.988
G0 X119.679 Y116.399
G1 X120.081 Y116.016 E21.7213 F600
G1 X120.081 Y115.480
G1 X119.118 Y116.399 E21.7656
G1 X118.557 Y116.399
G1 X120.081 Y114.944 E21.8357
G1 X119.726 Y114.747
G1 X117.995 Y116.399 E21.9153
G1 X117.434 Y116.399
G1 X119.278 Y114.640 E22.0001
G1 X118.892 Y114.472
G1 X116.999 Y116.278 E22.0871
G1 X116.999 Y115.743
G1 X118.575 Y114.239 E22.1595
G1 X118.325 Y113.942
G1 X116.999 Y115.207 E22.2205
G1 X116.999 Y114.672
G1 X118.111 Y113.610 E22.2717
G1 X117.999 Y113.182
G1 X116.999 Y114.136 E22.3176
G1 X116.999 Y113.600
G1 X117.988 Y112.657 E22.3631
G0 X116.999 Y113.065 F10800
G1 X118.241 Y111.879 E22.4202 F600
G0 X116.597 Y109.348 F10800
G0 X116.539 Y103.938
G0 X110.649 Y101.447
G1 X111.243 Y100.879 E22.4475 F600
G1 X111.025 Y100.551
G1 X110.649 Y100.911 E22.4649
G1 X110.649 Y100.375
G1 X110.863 Y100.171 E22.4747
G1 X110.767 Y99.726
G1 X110.649 Y99.840 E22.4802
G1 X110.649 Y99.304
G1 X110.779 Y99.179 E22.4862
G1 X111.076 Y98.361
G1 X110.649 Y98.768 E22.5058
G1 X110.649 Y98.233
G1 X113.512 Y95.501 E22.6374
G1 X112.950 Y95.501
G1 X110.649 Y97.697 E22.7432
G1 X110.649 Y97.161
G1 X112.389 Y95.501 E22.8232
G1 X111.827 Y95.501
G1 X110.649 Y96.626 E22.8774
G1 X110.649 Y96.090
G1 X111.266 Y95.501 E22.9058
G0 X116.999 Y87.353 F10800
G1 X117.471 Y86.903 E22.9275 F600
G1 X118.032 Y86.903
G1 X116.999 Y87.889 E22.9750
G1 X116.999 Y88.425
G1 X118.594 Y86.903 E23.0484
G0 X118.209 Y89.948 F10800
G1 X118.475 Y89.694 E23.0606 F600
G1 X118.239 Y89.384
G1 X117.648 Y89.948 E23.0878
G1 X117.086 Y89.948
G1 X118.056 Y89.023 E23.1324
G1 X117.979 Y88.561
G1 X116.999 Y89.496 E23.1775
G1 X116.999 Y88.960
G1 X118.032 Y87.975 E23.2250
G0 X111.929 Y97.547 F10800
G1 X114.073 Y95.501 E23.3235 F600
G1 X114.635 Y95.501
G1 X112.774 Y97.277 E23.4091
G1 X113.321 Y97.290
G1 X115.196 Y95.501 E23.4953
G1 X115.757 Y95.501
G1 X113.772 Y97.396 E23.5866
G1 X114.153 Y97.567
G1 X116.319 Y95.501 E23.6861
G1 X116.398 Y95.961
G1 X114.480 Y97.791 E23.7743
G1 X114.757 Y98.063
G1 X116.398 Y96.497 E23.8498
G1 X116.398 Y97.032
G1 X114.985 Y98.381 E23.9147
G1 X115.160 Y98.749
G1 X116.398 Y97.568 E23.9716
G1 X116.398 Y98.104
G1 X115.273 Y99.177 E24.0234
G1 X115.279 Y99.707
G1 X116.398 Y98.639 E24.0748
G1 X116.398 Y99.175
G1 X115.082 Y100.431 E24.1353
G0 X113.899 Y101.560 F10800
G1 X111.866 Y103.499 E24.2287 F600
G1 X112.427 Y103.499
G1 X116.398 Y99.711 E24.4113
G1 X116.398 Y100.246
G1 X112.989 Y103.499 E24.5680
G1 X113.550 Y103.499
G1 X116.398 Y100.782 E24.6989
G1 X116.398 Y101.318
G1 X114.112 Y103.499 E24.8040
G1 X114.673 Y103.499
G1 X116.398 Y101.853 E24.8833
G1 X116.398 Y102.389
G1 X115.235 Y103.499 E24.9368
G1 X115.796 Y103.499
G1 X116.398 Y102.925 E24.9645
; ------------------------------------
; Layer #1
; ------------------------------------
G21 ; mm
G90 ; abs
G92 E0 ; reset extr
M106 S255
G0 F4800 E-1.0000
G0 F300 Z1.900
G0 X116.577 Y95.250 F10800
G0 X119.262 Y95.250
G0 X143.423 Y95.250
G0 X144.008 Y103.499
G0 F4800 E0.0000
;segType:HShell
G1 X143.602 Y103.112 E0.0187 F3600
;segType:Loop
G0 X143.502 Y103.690 F10800
G1 X143.402 Y103.690 E0.0220 F3600
G1 X143.402 Y95.415 E0.2972
G1 X143.402 Y95.310 E0.3007
G1 X149.552 Y95.310 E0.5053
G1 X149.552 Y103.690 E0.7840
G1 X143.701 Y103.690 E0.9786
G0 F4800 E-0.0214
G0 X143.875 Y103.499 F10800
G0 F4800 E0.9786
;segType:Perimeter
G1 X143.602 Y104.128 E1.0014 F2159
G1 X143.602 Y116.972 E1.4286
G1 X116.399 Y116.972 E2.3334
G1 X116.399 Y104.072 E2.7624
G1 X110.049 Y104.072 E2.9736
G1 X110.049 Y94.929 E3.2777
G1 X116.399 Y94.929 E3.4889
G1 X116.399 Y83.028 E3.8847
G1 X116.998 Y83.028 E3.9047
G1 X116.998 Y86.330 E4.0145
G1 X121.570 Y86.330 E4.1666
G1 X121.570 Y90.521 E4.3059
G1 X116.998 Y90.521 E4.4580
G1 X116.998 Y95.033 E4.6081
G1 X143.002 Y95.033 E5.4730
G1 X143.002 Y90.521 E5.6231
G1 X138.430 Y90.521 E5.7751
G1 X138.430 Y86.330 E5.9145
G1 X143.002 Y86.330 E6.0666
G1 X143.002 Y83.028 E6.1764
G1 X143.602 Y83.028 E6.1963
G1 X143.602 Y94.929 E6.5921
G1 X149.952 Y94.929 E6.8033
G1 X149.952 Y104.072 E7.1074
G1 X143.661 Y104.072 E7.3167
G0 F4800 E6.3167
G0 X148.436 Y100.655 F10800
G0 X149.238 Y99.383
G0 F4800 E7.3167
;segType:HShell
G1 X149.351 Y99.491 E7.3219 F3600
G1 X149.351 Y100.027
G1 X149.211 Y99.893 E7.3283
G1 X149.088 Y100.311
G1 X149.351 Y100.562 E7.3404
G1 X149.351 Y101.098
G1 X148.904 Y100.671 E7.3610
G1 X148.668 Y100.982
G1 X149.351 Y101.634 E7.3924
G1 X149.351 Y102.169
G1 X148.383 Y101.246 E7.4369
G1 X148.049 Y101.462
G1 X149.351 Y102.705 E7.4968
G1 X149.351 Y103.241
G1 X147.657 Y101.624 E7.5747
;segType:Perimeter
G0 X147.537 Y101.594 F10800
G1 X146.989 Y101.157 E7.5980 F2159
G1 X146.764 Y101.147 E7.6055
G1 X146.486 Y101.087 E7.6150
G1 X146.222 Y100.981 E7.6244
G1 X145.980 Y100.833 E7.6338
G1 X145.768 Y100.646 E7.6432
G1 X145.591 Y100.427 E7.6526
G1 X145.454 Y100.181 E7.6620
G1 X145.360 Y99.917 E7.6713
G1 X145.313 Y99.641 E7.6806
G1 X145.312 Y99.360 E7.6899
G1 X145.360 Y99.084 E7.6993
G1 X145.453 Y98.819 E7.7086
G1 X145.591 Y98.574 E7.7180
G1 X145.767 Y98.355 E7.7273
G1 X145.980 Y98.167 E7.7367
G1 X146.221 Y98.019 E7.7462
G1 X146.485 Y97.913 E7.7556
G1 X146.763 Y97.853 E7.7651
G1 X147.047 Y97.841 E7.7745
G1 X147.330 Y97.877 E7.7840
G1 X147.602 Y97.960 E7.7935
G1 X147.855 Y98.088 E7.8029
G1 X148.083 Y98.256 E7.8123
G1 X148.278 Y98.460 E7.8217
G1 X148.436 Y98.693 E7.8311
G1 X148.552 Y98.949 E7.8404
G1 X148.623 Y99.220 E7.8498
G1 X148.646 Y99.500 E7.8591
G1 X148.623 Y99.779 E7.8684
G1 X148.552 Y100.050 E7.8777
G1 X148.437 Y100.306 E7.8871
G1 X148.279 Y100.539 E7.8964
G1 X148.084 Y100.743 E7.9058
G1 X147.856 Y100.912 E7.9152
G1 X147.603 Y101.040 E7.9247
G1 X147.331 Y101.123 E7.9341
G1 X147.107 Y101.152 E7.9416
G1 X146.602 Y101.634
;segType:Loop
G0 X145.807 Y101.180 F10800
G1 X145.735 Y101.136 E7.9445 F3600
G1 X145.472 Y100.905 E7.9561
G1 X145.254 Y100.634 E7.9677
G1 X145.086 Y100.333 E7.9791
G1 X144.971 Y100.010 E7.9905
G1 X144.913 Y99.672 E8.0019
G1 X144.913 Y99.329 E8.0133
G1 X144.971 Y98.991 E8.0247
G1 X145.085 Y98.668 E8.0362
G1 X145.253 Y98.366 E8.0476
G1 X145.471 Y98.096 E8.0592
G1 X145.734 Y97.865 E8.0708
G1 X146.034 Y97.680 E8.0825
G1 X146.362 Y97.548 E8.0943
G1 X146.710 Y97.473 E8.1061
G1 X147.065 Y97.458 E8.1180
G1 X147.418 Y97.503 E8.1298
G1 X147.757 Y97.607 E8.1416
G1 X148.073 Y97.766 E8.1533
G1 X148.355 Y97.974 E8.1650
G1 X148.596 Y98.226 E8.1766
G1 X148.790 Y98.513 E8.1881
G1 X148.932 Y98.826 E8.1996
G1 X149.019 Y99.158 E8.2110
G1 X149.048 Y99.499 E8.2224
G1 X149.019 Y99.841 E8.2338
G1 X148.932 Y100.172 E8.2452
G1 X148.791 Y100.486 E8.2566
G1 X148.597 Y100.773 E8.2681
G1 X148.356 Y101.025 E8.2797
G1 X148.074 Y101.233 E8.2914
G1 X147.759 Y101.393 E8.3031
G1 X147.419 Y101.497 E8.3149
G1 X147.066 Y101.542 E8.3268
G1 X146.710 Y101.527 E8.3386
G1 X146.363 Y101.452 E8.3505
G1 X146.035 Y101.320 E8.3622
G1 X145.974 Y101.283 E8.3646
G0 X143.142 Y95.518 F10800
G0 X143.142 Y90.387
G0 X139.095 Y89.805
G1 X139.133 Y89.841 E8.3663 F3600
G1 X139.673 Y90.082 E8.3860
G1 X140.268 Y90.130 E8.4059
G1 X140.843 Y89.977 E8.4257
G1 X141.328 Y89.645 E8.4452
G1 X141.670 Y89.179 E8.4644
G1 X141.828 Y88.654 E8.4827
G1 X141.840 Y88.322 E8.4937
G1 X141.722 Y87.788 E8.5119
G1 X141.417 Y87.299 E8.5311
G1 X140.959 Y86.933 E8.5505
G1 X140.399 Y86.738 E8.5703
G1 X139.802 Y86.741 E8.5902
G1 X139.243 Y86.942 E8.6099
G1 X138.830 Y87.279 E8.6276
G1 X138.830 Y86.712 E8.6465
G1 X143.202 Y86.712 E8.7919
G1 X143.202 Y90.139 E8.9059
G1 X138.830 Y90.139 E9.0513
G1 X138.830 Y89.554 E9.0708
G1 X138.954 Y89.672 E9.0765
;segType:Perimeter
G0 X140.760 Y90.125 F10800
G1 X140.171 Y89.739 E9.0999 F2159
G1 X139.778 Y89.708 E9.1130
G1 X139.365 Y89.524 E9.1280
G1 X139.039 Y89.215 E9.1430
G1 X138.837 Y88.817 E9.1578
G1 X138.778 Y88.377 E9.1726
G1 X138.869 Y87.941 E9.1874
G1 X139.101 Y87.560 E9.2023
G1 X139.450 Y87.275 E9.2172
G1 X139.876 Y87.122 E9.2323
G1 X140.329 Y87.120 E9.2474
G1 X140.757 Y87.269 E9.2624
G1 X141.108 Y87.549 E9.2774
G1 X141.344 Y87.928 E9.2922
G1 X141.439 Y88.355 E9.3068
G1 X141.430 Y88.594 E9.3147
G1 X141.304 Y89.012 E9.3292
G1 X141.040 Y89.373 E9.3441
G1 X140.668 Y89.627 E9.3591
G1 X140.287 Y89.729 E9.3722
G1 X139.785 Y90.213
G0 F4800 E8.3722
G0 X123.999 Y90.142 F10800
G0 X121.438 Y89.974
G0 X118.876 Y89.805
G0 F4800 E9.3722
;segType:Loop
G1 X118.915 Y89.841 E9.3739 F3600
G1 X119.455 Y90.082 E9.3936
G1 X120.050 Y90.130 E9.4135
G1 X120.625 Y89.977 E9.4332
G1 X121.110 Y89.646 E9.4528
G1 X121.170 Y89.563 E9.4562
G1 X121.170 Y90.139 E9.4754
G1 X116.799 Y90.139 E9.6208
G1 X116.799 Y86.712 E9.7348
G1 X121.170 Y86.712 E9.8802
G1 X121.170 Y87.276 E9.8989
G1 X120.741 Y86.933 E9.9172
G1 X120.180 Y86.738 E9.9369
G1 X119.583 Y86.741 E9.9568
G1 X119.025 Y86.942 E9.9765
G1 X118.571 Y87.312 E9.9960
G1 X118.271 Y87.804 E10.0152
G1 X118.154 Y88.363 E10.0342
G1 X118.230 Y88.928 E10.0531
G1 X118.491 Y89.440 E10.0723
G1 X118.736 Y89.672 E10.0835
;segType:Perimeter
G0 X120.541 Y90.125 F10800
G1 X119.952 Y89.739 E10.1069 F2159
G1 X119.560 Y89.708 E10.1200
G1 X119.147 Y89.524 E10.1350
G1 X118.821 Y89.215 E10.1499
G1 X118.618 Y88.817 E10.1648
G1 X118.559 Y88.377 E10.1796
G1 X118.651 Y87.941 E10.1944
G1 X118.883 Y87.560 E10.2092
G1 X119.231 Y87.275 E10.2242
G1 X119.657 Y87.122 E10.2392
G1 X120.111 Y87.120 E10.2543
G1 X120.538 Y87.269 E10.2694
G1 X120.889 Y87.549 E10.2843
G1 X121.126 Y87.929 E10.2992
G1 X121.220 Y88.355 E10.3137
G1 X121.211 Y88.593 E10.3217
G1 X121.085 Y89.012 E10.3362
G1 X120.821 Y89.373 E10.3511
G1 X120.449 Y89.627 E10.3661
G1 X120.069 Y89.729 E10.3792
G1 X119.566 Y90.213
G0 F4800 E9.3792
G0 X117.598 Y93.555 F10800
G0 X116.047 Y95.959
G0 X114.659 Y100.395
G0 X114.011 Y101.071
G0 X112.261 Y101.600
G0 F4800 E10.3792
;segType:HShell
G1 X114.252 Y103.499 E10.4707 F3600
G1 X114.814 Y103.499
G1 X112.956 Y101.727 E10.5561
G1 X113.477 Y101.688
G1 X115.375 Y103.499 E10.6433
G1 X115.937 Y103.499
G1 X113.903 Y101.559 E10.7368
;segType:Perimeter
G0 X113.584 Y101.594 F10800
G1 X113.036 Y101.157 E10.7601 F2159
G1 X112.811 Y101.147 E10.7676
G1 X112.532 Y101.087 E10.7771
G1 X112.269 Y100.981 E10.7865
G1 X112.027 Y100.833 E10.7960
G1 X111.815 Y100.646 E10.8054
G1 X111.638 Y100.427 E10.8147
G1 X111.500 Y100.181 E10.8241
G1 X111.407 Y99.917 E10.8334
G1 X111.359 Y99.641 E10.8428
G1 X111.359 Y99.360 E10.8521
G1 X111.407 Y99.084 E10.8614
G1 X111.500 Y98.819 E10.8707
G1 X111.637 Y98.574 E10.8801
G1 X111.814 Y98.354 E10.8895
G1 X112.027 Y98.167 E10.8989
G1 X112.268 Y98.019 E10.9083
G1 X112.531 Y97.913 E10.9177
G1 X112.810 Y97.853 E10.9272
G1 X113.094 Y97.841 E10.9367
G1 X113.377 Y97.877 E10.9462
G1 X113.649 Y97.960 E10.9556
G1 X113.902 Y98.088 E10.9651
G1 X114.130 Y98.256 E10.9745
G1 X114.325 Y98.460 E10.9839
G1 X114.483 Y98.693 E10.9932
G1 X114.598 Y98.949 E11.0026
G1 X114.669 Y99.220 E11.0119
G1 X114.693 Y99.500 E11.0212
G1 X114.669 Y99.779 E11.0305
G1 X114.599 Y100.050 E11.0399
G1 X114.483 Y100.306 E11.0492
G1 X114.326 Y100.539 E11.0586
G1 X114.130 Y100.743 E11.0680
G1 X113.903 Y100.912 E11.0774
G1 X113.650 Y101.040 E11.0868
G1 X113.377 Y101.123 E11.0963
G1 X113.154 Y101.152 E11.1038
G1 X112.649 Y101.634
;segType:Loop
G0 X111.854 Y101.180 F10800
G1 X111.781 Y101.136 E11.1066 F3600
G1 X111.519 Y100.905 E11.1182
G1 X111.301 Y100.635 E11.1298
G1 X111.132 Y100.333 E11.1413
G1 X111.018 Y100.009 E11.1527
G1 X110.959 Y99.672 E11.1641
G1 X110.959 Y99.329 E11.1755
G1 X111.018 Y98.992 E11.1869
G1 X111.131 Y98.668 E11.1983
G1 X111.300 Y98.366 E11.2098
G1 X111.518 Y98.096 E11.2213
G1 X111.781 Y97.864 E11.2330
G1 X112.081 Y97.680 E11.2447
G1 X112.408 Y97.548 E11.2564
G1 X112.756 Y97.473 E11.2683
G1 X113.112 Y97.458 E11.2801
G1 X113.465 Y97.503 E11.2919
G1 X113.804 Y97.607 E11.3037
G1 X114.120 Y97.766 E11.3155
G1 X114.402 Y97.974 E11.3272
G1 X114.643 Y98.226 E11.3387
G1 X114.837 Y98.513 E11.3503
G1 X114.979 Y98.827 E11.3617
G1 X115.066 Y99.158 E11.3731
G1 X115.094 Y99.500 E11.3845
G1 X115.066 Y99.841 E11.3959
G1 X114.979 Y100.173 E11.4073
G1 X114.838 Y100.486 E11.4188
G1 X114.644 Y100.773 E11.4303
G1 X114.403 Y101.025 E11.4419
G1 X114.121 Y101.233 E11.4535
G1 X113.806 Y101.393 E11.4653
G1 X113.466 Y101.497 E11.4771
G1 X113.113 Y101.542 E11.4889
G1 X112.758 Y101.527 E11.5008
G1 X112.410 Y101.452 E11.5126
G1 X112.081 Y101.320 E11.5244
G1 X112.021 Y101.283 E11.5267
G0 X116.539 Y103.938 F10800
G0 X116.858 Y109.375
G0 X120.081 Y110.132
;segType:HShell
G1 X119.748 Y109.814 E11.5421 F3600
G1 X119.187 Y109.814
G1 X120.081 Y110.667 E11.5832
G1 X119.842 Y110.974
G1 X118.625 Y109.814 E11.6391
G1 X118.064 Y109.814
G1 X119.345 Y111.036 E11.6980
G1 X118.970 Y111.214
G1 X117.502 Y109.814 E11.7654
;segType:Loop
G0 X117.097 Y109.623 F10800
G1 X120.281 Y109.623 E11.8713 F3600
G1 X120.281 Y111.218 E11.9244
G1 X119.974 Y111.150 E11.9349
G1 X119.380 Y111.224 E11.9548
G1 X118.850 Y111.489 E11.9745
G1 X118.445 Y111.910 E11.9939
G1 X118.207 Y112.434 E12.0131
G1 X118.159 Y113.004 E12.0321
G1 X118.303 Y113.558 E12.0511
G1 X118.629 Y114.038 E12.0704
G1 X119.102 Y114.386 E12.0900
G1 X119.673 Y114.559 E12.1098
G1 X120.281 Y114.527 E12.1301
G1 X120.281 Y116.590 E12.1987
G1 X116.799 Y116.590 E12.3145
G1 X116.799 Y109.623 E12.5463
G1 X116.899 Y109.623 E12.5496
;segType:Perimeter
G0 X117.272 Y109.814 F10800
G1 X116.998 Y109.185 E12.5724 F2159
G1 X116.998 Y95.652 E13.0225
G1 X143.002 Y95.652 E13.8874
G1 X143.002 Y109.241 E14.3394
G1 X139.319 Y109.241 E14.4619
G1 X139.319 Y111.812 E14.5474
G1 X139.400 Y111.739 E14.5511
G1 X139.820 Y111.568 E14.5661
G1 X140.274 Y111.547 E14.5813
G1 X140.709 Y111.678 E14.5964
G1 X141.073 Y111.946 E14.6114
G1 X141.325 Y112.317 E14.6263
G1 X141.437 Y112.749 E14.6412
G1 X141.400 Y113.193 E14.6560
G1 X141.215 Y113.600 E14.6709
G1 X140.903 Y113.924 E14.6858
G1 X140.498 Y114.127 E14.7009
G1 X140.047 Y114.183 E14.7160
G1 X139.603 Y114.085 E14.7311
G1 X139.319 Y113.908 E14.7423
G1 X139.319 Y116.353 E14.8236
G1 X120.681 Y116.353 E15.4435
G1 X120.681 Y113.909 E15.5248
G1 X120.600 Y113.982 E15.5284
G1 X120.180 Y114.153 E15.5435
G1 X119.726 Y114.175 E15.5586
G1 X119.291 Y114.043 E15.5737
G1 X118.927 Y113.775 E15.5887
G1 X118.675 Y113.404 E15.6036
G1 X118.563 Y112.972 E15.6185
G1 X118.601 Y112.528 E15.6333
G1 X118.785 Y112.121 E15.6482
G1 X119.097 Y111.796 E15.6632
G1 X119.502 Y111.594 E15.6782
G1 X119.954 Y111.538 E15.6934
G1 X120.397 Y111.636 E15.7085
G1 X120.681 Y111.813 E15.7196
G1 X120.681 Y109.241 E15.8051
G1 X117.058 Y109.241 E15.9257
G0 F4800 E14.9257
G0 X116.243 Y104.882 F10800
G0 X116.332 Y102.512
G0 X116.598 Y95.405
G0 F4800 E15.9257
;segType:Loop
G1 X116.598 Y95.415 E15.9260 F3600
G1 X116.598 Y103.690 E16.2012
G1 X110.448 Y103.690 E16.4058
G1 X110.448 Y95.310 E16.6845
G1 X116.499 Y95.310 E16.8857
G0 F4800 E15.8857
G0 X143.142 Y95.518 F10800
G0 X143.202 Y109.718
G0 F4800 E16.8857
G1 X143.202 Y116.590 E17.1143 F3600
G1 X139.719 Y116.590 E17.2301
G1 X139.719 Y114.503 E17.2996
G1 X140.027 Y114.570 E17.3101
G1 X140.620 Y114.497 E17.3300
G1 X141.150 Y114.232 E17.3497
G1 X141.555 Y113.811 E17.3691
G1 X141.793 Y113.286 E17.3882
G1 X141.841 Y112.717 E17.4072
G1 X141.697 Y112.163 E17.4263
G1 X141.371 Y111.684 E17.4456
G1 X140.898 Y111.335 E17.4651
G1 X140.327 Y111.162 E17.4850
G1 X139.719 Y111.194 E17.5052
G1 X139.719 Y109.623 E17.5575
G1 X143.102 Y109.623 E17.6700
G0 F4800 E16.6700
G0 X143.002 Y110.038 F10800
G0 F4800 E17.6700
;segType:HShell
G1 X142.767 Y109.814 E17.6808 F3600
G1 X142.205 Y109.814
G1 X143.002 Y110.574 E17.7174
G1 X143.002 Y111.109
G1 X141.644 Y109.814 E17.7799
G1 X141.082 Y109.814
G1 X143.002 Y111.645 E17.8681
G1 X143.002 Y112.181
G1 X140.521 Y109.814 E17.9821
G1 X139.959 Y109.814
G1 X143.002 Y112.716 E18.1220
G1 X143.002 Y113.252
G1 X141.917 Y112.217 E18.1718
G1 X142.030 Y112.860
G1 X143.002 Y113.788 E18.2165
G1 X143.002 Y114.323
G1 X141.982 Y113.350 E18.2634
G1 X141.812 Y113.724
G1 X143.002 Y114.859 E18.3180
G1 X143.002 Y115.395
G1 X141.595 Y114.052 E18.3827
G1 X141.326 Y114.331
G1 X143.002 Y115.930 E18.4598
G1 X142.932 Y116.399
G1 X140.977 Y114.534 E18.5496
G1 X140.583 Y114.694
G1 X142.370 Y116.399 E18.6318
G1 X141.809 Y116.399
G1 X140.086 Y114.755 E18.7110
G1 X139.919 Y115.131
G1 X141.247 Y116.399 E18.7721
G1 X140.686 Y116.399
G1 X139.919 Y115.667 E18.8073
G1 X139.919 Y116.203
G1 X140.124 Y116.399 E18.8168
G0 X141.592 Y113.239 F10800
G0 X141.507 Y112.241
G0 X140.729 Y111.083
G1 X139.919 Y110.311 E18.8540 F3600
G1 X139.919 Y110.846
G1 X140.064 Y110.985 E18.8607
G0 X141.219 Y111.817 F10800
G0 X141.635 Y112.733
G0 X141.381 Y113.704
G0 X140.558 Y114.308
G0 X123.244 Y116.487
G0 X120.541 Y116.487
G0 X119.859 Y114.740
G1 X120.081 Y114.953 E18.8709 F3600
G1 X120.081 Y115.488
G1 X119.152 Y114.601 E18.9137
G0 X117.106 Y116.399 F10800
G1 X116.999 Y116.297 E18.9186 F3600
G1 X116.999 Y115.761
G1 X117.667 Y116.399 E18.9493
G1 X118.229 Y116.399
G1 X116.999 Y115.225 E19.0059
G1 X116.999 Y114.690
G1 X118.790 Y116.399 E19.0882
G1 X119.352 Y116.399
G1 X116.999 Y114.154 E19.1964
G1 X116.999 Y113.619
G1 X119.913 Y116.399 E19.3304
G1 X120.081 Y116.024
G1 X116.999 Y113.083 E19.4721
G1 X116.999 Y112.547
G1 X118.110 Y113.608 E19.5232
G0 X116.999 Y109.869 F10800
G1 X118.635 Y111.430 E19.5984 F3600
G1 X118.366 Y111.710
G1 X116.999 Y110.405 E19.6613
G1 X116.999 Y110.940
G1 X118.163 Y112.051 E19.7148
G1 X118.006 Y112.437
G1 X116.999 Y111.476 E19.7611
G1 X116.999 Y112.012
G1 X117.964 Y112.933 E19.8055
G0 X116.578 Y108.557 F10800
G0 X116.539 Y103.938
G0 X110.649 Y103.275
G1 X110.884 Y103.499 E19.8163 F3600
G1 X111.445 Y103.499
G1 X110.649 Y102.739 E19.8529
G1 X110.649 Y102.203
G1 X112.007 Y103.499 E19.9154
G1 X112.568 Y103.499
G1 X110.649 Y101.668 E20.0036
G1 X110.649 Y101.132
G1 X113.129 Y103.499 E20.1176
G1 X113.691 Y103.499
G1 X110.649 Y100.596 E20.2575
G1 X110.649 Y100.061
G1 X110.914 Y100.314 E20.2697
G1 X110.759 Y99.631
G1 X110.649 Y99.525 E20.2748
G1 X110.649 Y98.990
G1 X110.792 Y99.126 E20.2814
G1 X110.909 Y98.702
G1 X110.649 Y98.454 E20.2933
G1 X110.649 Y97.918
G1 X111.089 Y98.338 E20.3136
G1 X111.323 Y98.026
G1 X110.649 Y97.383 E20.3446
G1 X110.649 Y96.847
G1 X111.605 Y97.760 E20.3885
G1 X111.938 Y97.541
G1 X110.649 Y96.311 E20.4478
G1 X110.649 Y95.776
G1 X112.325 Y97.375 E20.5248
G1 X112.787 Y97.281
G1 X110.922 Y95.501 E20.6106
G1 X111.484 Y95.501
G1 X113.367 Y97.298 E20.6972
G0 X114.658 Y98.604 F10800
G0 X114.892 Y99.500
G0 X114.265 Y101.368
G1 X116.398 Y103.404 E20.7952 F3600
G1 X116.398 Y102.868
G1 X114.574 Y101.128 E20.8791
G1 X114.836 Y100.842
G1 X116.398 Y102.333 E20.9509
G1 X116.398 Y101.797
G1 X115.046 Y100.507 E21.0131
G1 X115.199 Y100.118
G1 X116.398 Y101.261 E21.0682
G1 X116.398 Y100.726
G1 X115.282 Y99.660 E21.1195
G1 X115.257 Y99.101
G1 X116.398 Y100.190 E21.1720
G1 X116.398 Y99.654
G1 X114.845 Y98.172 E21.2434
G1 X114.324 Y97.675
G1 X112.045 Y95.501 E21.3481
G1 X112.606 Y95.501
G1 X116.398 Y99.119 E21.5224
G1 X116.398 Y98.583
G1 X113.168 Y95.501 E21.6709
G1 X113.729 Y95.501
G1 X116.398 Y98.047 E21.7936
G1 X116.398 Y97.512
G1 X114.291 Y95.501 E21.8905
G1 X114.852 Y95.501
G1 X116.398 Y96.976 E21.9615
G1 X116.398 Y96.440
G1 X115.414 Y95.501 E22.0068
G1 X115.975 Y95.501
G1 X116.398 Y95.905 E22.0263
G0 X116.858 Y90.387 F10800
G0 X118.022 Y88.884
G1 X116.999 Y87.907 E22.0733 F3600
G1 X116.999 Y87.372
G1 X117.965 Y88.293 E22.1177
G1 X118.058 Y87.847
G1 X117.069 Y86.903 E22.1632
G1 X117.630 Y86.903
G1 X118.237 Y87.481 E22.1911
G1 X118.456 Y87.155
G1 X118.192 Y86.903 E22.2032
G0 X118.576 Y89.948 F10800
G1 X116.999 Y88.443 E22.2757 F3600
G1 X116.999 Y88.979
G1 X118.015 Y89.948 E22.3225
G1 X117.454 Y89.948
G1 X116.999 Y89.514 E22.3434
G0 X119.144 Y90.387 F10800
G0 X116.858 Y90.387
G0 X116.858 Y95.167
G0 X143.142 Y95.167
G0 X143.142 Y90.387
G0 X138.570 Y90.387
G0 X138.628 Y87.446
G0 X139.840 Y86.936
G0 X143.002 Y87.005
G1 X142.895 Y86.903 E22.3483 F3600
G1 X142.333 Y86.903
G1 X143.002 Y87.541 E22.3790
G1 X143.002 Y88.076
G1 X141.772 Y86.903 E22.4356
G1 X141.685 Y87.356
G1 X143.002 Y88.612 E22.4961
G1 X143.002 Y89.148
G1 X142.020 Y88.211 E22.5412
G1 X142.011 Y88.738
G1 X143.002 Y89.683 E22.5867
G1 X142.718 Y89.948
G1 X141.885 Y89.154 E22.6250
G1 X141.682 Y89.495
G1 X142.156 Y89.948 E22.6468
G1 X141.595 Y89.948
G1 X141.442 Y89.802 E22.6539
G0 X143.142 Y90.387 F10800
G0 X143.200 Y94.384
G0 X145.223 Y100.909
G1 X143.602 Y99.362 E22.7284 F3600
G1 X143.602 Y98.826
G1 X144.754 Y99.925 E22.7813
G1 X144.712 Y99.350
G1 X143.602 Y98.291 E22.8324
G1 X143.602 Y97.755
G1 X144.794 Y98.893 E22.8872
G1 X144.949 Y98.505
G1 X143.602 Y97.220 E22.9491
G1 X143.602 Y96.684
G1 X145.159 Y98.170 E23.0207
G1 X145.419 Y97.882
G1 X143.602 Y96.148 E23.1043
G1 X143.602 Y95.613
G1 X145.728 Y97.641 E23.2020
G1 X146.090 Y97.451
G1 X144.046 Y95.501 E23.2959
G1 X144.608 Y95.501
G1 X146.514 Y97.320 E23.3836
G1 X147.022 Y97.269
G1 X145.169 Y95.501 E23.4687
G1 X145.731 Y95.501
G1 X147.714 Y97.393 E23.5599
G0 X149.100 Y98.715 F10800
G1 X149.351 Y98.956 E23.5715 F3600
G1 X149.351 Y98.420
G1 X146.292 Y95.501 E23.7121
G1 X146.854 Y95.501
G1 X149.351 Y97.884 E23.8269
G1 X149.351 Y97.349
G1 X147.415 Y95.501 E23.9159
G1 X147.976 Y95.501
G1 X149.351 Y96.813 E23.9792
G1 X149.351 Y96.277
G1 X148.538 Y95.501 E24.0166
G1 X149.099 Y95.501
G1 X149.351 Y95.742 E24.0282
G0 X148.740 Y100.111 F10800
G0 X148.218 Y100.882
G0 X144.569 Y103.499
G1 X143.602 Y102.576 E24.0726 F3600
G1 X143.602 Y102.040
G1 X145.131 Y103.499 E24.1429
G1 X145.692 Y103.499
G1 X143.602 Y101.505 E24.2390
G1 X143.602 Y100.969
G1 X146.254 Y103.499 E24.3609
G1 X146.815 Y103.499
G1 X143.602 Y100.433 E24.5086
G1 X143.602 Y99.898
G1 X147.377 Y103.499 E24.6821
G1 X147.938 Y103.499
G1 X145.634 Y101.301 E24.7880
G0 X147.194 Y101.718 F10800
G1 X149.061 Y103.499 E24.8738 F3600
G1 X148.499 Y103.499
G1 X146.616 Y101.702 E24.9604
; ------------------------------------
; Layer #2
; ------------------------------------
G21 ; mm
G90 ; abs
G92 E0 ; reset extr
M106 S255
;segType:HShell
G0 F4800 E-1.0000
G0 F300 Z2.100
G0 X144.763 Y99.966 F10800
G0 F4800 E0.0000
G1 X143.602 Y101.074 E0.0534 F3600
G1 X143.602 Y101.610
G1 X144.894 Y100.377 E0.1128
G1 X145.085 Y100.730
G1 X143.602 Y102.145 E0.1810
G1 X143.602 Y102.681
G1 X145.329 Y101.033 E0.2604
G1 X145.622 Y101.290
G1 X143.602 Y103.217 E0.3532
;segType:Perimeter
G0 X143.875 Y103.499 F10800
G1 X143.602 Y104.128 E0.3761 F2159
G1 X143.602 Y116.972 E0.8032
G1 X116.399 Y116.972 E1.7080
G1 X116.399 Y104.072 E2.1371
G1 X110.049 Y104.072 E2.3483
G1 X110.049 Y94.929 E2.6524
G1 X116.399 Y94.929 E2.8636
G1 X116.399 Y83.028 E3.2594
G1 X116.998 Y83.028 E3.2793
G1 X116.998 Y86.330 E3.3891
G1 X121.570 Y86.330 E3.5412
G1 X121.570 Y90.521 E3.6806
G1 X116.998 Y90.521 E3.8327
G1 X116.998 Y95.033 E3.9827
G1 X143.002 Y95.033 E4.8476
G1 X143.002 Y90.521 E4.9977
G1 X138.430 Y90.521 E5.1498
G1 X138.430 Y86.330 E5.2892
G1 X143.002 Y86.330 E5.4412
G1 X143.002 Y83.028 E5.5511
G1 X143.602 Y83.028 E5.5710
G1 X143.602 Y94.929 E5.9668
G1 X149.952 Y94.929 E6.1780
G1 X149.952 Y104.072 E6.4821
G1 X143.661 Y104.072 E6.6913
G0 F4800 E5.6913
G0 X143.502 Y103.690 F10800
G0 F4800 E6.6913
;segType:Loop
G1 X143.402 Y103.690 E6.6947 F3600
G1 X143.402 Y95.415 E6.9699
G1 X143.402 Y95.310 E6.9734
G1 X149.552 Y95.310 E7.1779
G1 X149.552 Y103.690 E7.4566
G1 X143.701 Y103.690 E7.6512
G0 F4800 E6.6512
G0 X146.675 Y103.499 F10800
G0 F4800 E7.6512
;segType:HShell
G1 X149.351 Y100.945 E7.7743 F3600
G1 X149.351 Y100.409
G1 X146.113 Y103.499 E7.9232
G1 X145.552 Y103.499
G1 X147.459 Y101.679 E8.0108
;segType:Perimeter
G0 X147.583 Y101.580 F10800
G1 X147.025 Y101.155 E8.0342 F2159
G1 X146.800 Y101.150 E8.0417
G1 X146.520 Y101.097 E8.0511
G1 X146.254 Y100.996 E8.0606
G1 X146.010 Y100.853 E8.0700
G1 X145.794 Y100.671 E8.0794
G1 X145.612 Y100.455 E8.0888
G1 X145.470 Y100.213 E8.0981
G1 X145.371 Y99.951 E8.1075
G1 X145.317 Y99.676 E8.1168
G1 X145.311 Y99.396 E8.1261
G1 X145.352 Y99.119 E8.1354
G1 X145.440 Y98.852 E8.1447
G1 X145.572 Y98.604 E8.1541
G1 X145.744 Y98.381 E8.1634
G1 X145.952 Y98.190 E8.1728
G1 X146.190 Y98.036 E8.1823
G1 X146.451 Y97.925 E8.1917
G1 X146.727 Y97.859 E8.2012
G1 X147.011 Y97.841 E8.2106
G1 X147.294 Y97.871 E8.2201
G1 X147.568 Y97.948 E8.2296
G1 X147.824 Y98.070 E8.2390
G1 X148.055 Y98.233 E8.2484
G1 X148.255 Y98.433 E8.2578
G1 X148.418 Y98.663 E8.2671
G1 X148.539 Y98.916 E8.2765
G1 X148.615 Y99.186 E8.2858
G1 X148.645 Y99.464 E8.2951
G1 X148.627 Y99.744 E8.3044
G1 X148.563 Y100.016 E8.3138
G1 X148.453 Y100.274 E8.3231
G1 X148.300 Y100.511 E8.3325
G1 X148.110 Y100.719 E8.3418
G1 X147.886 Y100.892 E8.3512
G1 X147.635 Y101.025 E8.3607
G1 X147.366 Y101.114 E8.3701
G1 X147.143 Y101.147 E8.3776
G1 X146.649 Y101.640
;segType:Loop
G0 X145.844 Y101.204 F10800
G1 X145.771 Y101.161 E8.3804 F3600
G1 X145.504 Y100.936 E8.3920
G1 X145.279 Y100.670 E8.4036
G1 X145.105 Y100.372 E8.4151
G1 X144.983 Y100.051 E8.4265
G1 X144.918 Y99.715 E8.4379
G1 X144.910 Y99.373 E8.4493
G1 X144.961 Y99.034 E8.4607
G1 X145.068 Y98.708 E8.4721
G1 X145.230 Y98.403 E8.4836
G1 X145.442 Y98.129 E8.4951
G1 X145.699 Y97.893 E8.5067
G1 X145.994 Y97.702 E8.5184
G1 X146.319 Y97.563 E8.5302
G1 X146.665 Y97.480 E8.5420
G1 X147.020 Y97.458 E8.5538
G1 X147.374 Y97.495 E8.5656
G1 X147.716 Y97.592 E8.5775
G1 X148.034 Y97.744 E8.5892
G1 X148.321 Y97.946 E8.6009
G1 X148.568 Y98.192 E8.6125
G1 X148.768 Y98.475 E8.6240
G1 X148.916 Y98.786 E8.6354
G1 X149.010 Y99.116 E8.6469
G1 X149.046 Y99.456 E8.6582
G1 X149.025 Y99.797 E8.6696
G1 X148.946 Y100.131 E8.6810
G1 X148.811 Y100.448 E8.6925
G1 X148.624 Y100.738 E8.7039
G1 X148.388 Y100.995 E8.7155
G1 X148.111 Y101.209 E8.7272
G1 X147.799 Y101.375 E8.7389
G1 X147.463 Y101.486 E8.7507
G1 X147.111 Y101.539 E8.7625
G1 X146.756 Y101.531 E8.7744
G1 X146.406 Y101.464 E8.7862
G1 X146.075 Y101.339 E8.7980
G1 X146.013 Y101.303 E8.8004
G0 X143.142 Y95.518 F10800
G0 X143.142 Y90.387
G0 X139.098 Y89.808
G1 X139.137 Y89.844 E8.8021 F3600
G1 X139.678 Y90.083 E8.8218
G1 X140.273 Y90.129 E8.8416
G1 X140.847 Y89.975 E8.8614
G1 X141.332 Y89.642 E8.8810
G1 X141.672 Y89.174 E8.9002
G1 X141.828 Y88.649 E8.9184
G1 X141.839 Y88.318 E8.9295
G1 X141.720 Y87.784 E8.9477
G1 X141.414 Y87.295 E8.9669
G1 X140.955 Y86.931 E8.9863
G1 X140.394 Y86.737 E9.0061
G1 X139.797 Y86.742 E9.0259
G1 X139.239 Y86.944 E9.0457
G1 X138.830 Y87.280 E9.0633
G1 X138.830 Y86.712 E9.0822
G1 X143.202 Y86.712 E9.2276
G1 X143.202 Y90.139 E9.3416
G1 X138.830 Y90.139 E9.4870
G1 X138.830 Y89.554 E9.5065
G1 X138.957 Y89.674 E9.5123
;segType:Perimeter
G0 X140.764 Y90.124 F10800
G1 X140.174 Y89.739 E9.5357 F2159
G1 X139.781 Y89.709 E9.5488
G1 X139.368 Y89.525 E9.5638
G1 X139.042 Y89.218 E9.5788
G1 X138.838 Y88.820 E9.5936
G1 X138.778 Y88.380 E9.6084
G1 X138.868 Y87.945 E9.6232
G1 X139.099 Y87.563 E9.6380
G1 X139.447 Y87.277 E9.6530
G1 X139.872 Y87.123 E9.6680
G1 X140.326 Y87.120 E9.6831
G1 X140.753 Y87.267 E9.6982
G1 X141.105 Y87.547 E9.7131
G1 X141.343 Y87.925 E9.7280
G1 X141.438 Y88.352 E9.7425
G1 X141.430 Y88.590 E9.7504
G1 X141.305 Y89.009 E9.7650
G1 X141.042 Y89.371 E9.7799
G1 X140.671 Y89.626 E9.7948
G1 X140.291 Y89.728 E9.8079
G1 X139.790 Y90.214
G0 F4800 E8.8079
G0 X124.004 Y90.144 F10800
G0 X121.442 Y89.976
G0 X118.880 Y89.808
G0 F4800 E9.8079
;segType:Loop
G1 X118.918 Y89.844 E9.8097 F3600
G1 X119.459 Y90.083 E9.8294
G1 X120.054 Y90.129 E9.8492
G1 X120.629 Y89.975 E9.8690
G1 X121.113 Y89.642 E9.8885
G1 X121.170 Y89.563 E9.8918
G1 X121.170 Y90.139 E9.9109
G1 X116.799 Y90.139 E10.0564
G1 X116.799 Y86.712 E10.1703
G1 X121.170 Y86.712 E10.3157
G1 X121.170 Y87.275 E10.3345
G1 X120.737 Y86.931 E10.3529
G1 X120.176 Y86.737 E10.3726
G1 X119.579 Y86.742 E10.3925
G1 X119.021 Y86.944 E10.4122
G1 X118.568 Y87.316 E10.4317
G1 X118.270 Y87.809 E10.4509
G1 X118.154 Y88.367 E10.4698
G1 X118.231 Y88.932 E10.4888
G1 X118.494 Y89.443 E10.5079
G1 X118.739 Y89.674 E10.5191
;segType:Perimeter
G0 X120.545 Y90.124 F10800
G1 X119.956 Y89.739 E10.5425 F2159
G1 X119.563 Y89.709 E10.5556
G1 X119.150 Y89.525 E10.5707
G1 X118.823 Y89.218 E10.5856
G1 X118.619 Y88.820 E10.6004
G1 X118.559 Y88.380 E10.6152
G1 X118.650 Y87.945 E10.6300
G1 X118.881 Y87.563 E10.6449
G1 X119.228 Y87.277 E10.6598
G1 X119.654 Y87.123 E10.6749
G1 X120.107 Y87.120 E10.6900
G1 X120.535 Y87.267 E10.7050
G1 X120.887 Y87.547 E10.7200
G1 X121.124 Y87.925 E10.7348
G1 X121.219 Y88.352 E10.7493
G1 X121.211 Y88.590 E10.7573
G1 X121.087 Y89.009 E10.7718
G1 X120.824 Y89.371 E10.7867
G1 X120.452 Y89.626 E10.8017
G1 X120.072 Y89.728 E10.8148
G1 X119.571 Y90.214
G0 F4800 E9.8148
G0 X114.951 Y99.478 F10800
G0 X113.899 Y101.559
G0 F4800 E10.8148
;segType:HShell
G1 X111.866 Y103.499 E10.9082 F3600
G1 X111.305 Y103.499
G1 X113.159 Y101.730 E10.9935
;segType:Loop
G0 X111.891 Y101.204 F10800
G1 X111.818 Y101.161 E10.9963 F3600
G1 X111.550 Y100.936 E11.0079
G1 X111.326 Y100.670 E11.0195
G1 X111.151 Y100.372 E11.0310
G1 X111.030 Y100.051 E11.0424
G1 X110.965 Y99.715 E11.0538
G1 X110.957 Y99.373 E11.0652
G1 X111.008 Y99.034 E11.0766
G1 X111.115 Y98.708 E11.0880
G1 X111.277 Y98.403 E11.0994
G1 X111.488 Y98.129 E11.1110
G1 X111.746 Y97.893 E11.1226
G1 X112.041 Y97.702 E11.1343
G1 X112.366 Y97.563 E11.1460
G1 X112.712 Y97.480 E11.1579
G1 X113.067 Y97.458 E11.1697
G1 X113.421 Y97.495 E11.1815
G1 X113.763 Y97.592 E11.1933
G1 X114.081 Y97.744 E11.2051
G1 X114.367 Y97.946 E11.2167
G1 X114.614 Y98.192 E11.2283
G1 X114.815 Y98.475 E11.2399
G1 X114.963 Y98.786 E11.2513
G1 X115.057 Y99.116 E11.2627
G1 X115.093 Y99.456 E11.2741
G1 X115.071 Y99.798 E11.2855
G1 X114.992 Y100.131 E11.2969
G1 X114.857 Y100.447 E11.3083
G1 X114.670 Y100.738 E11.3198
G1 X114.435 Y100.995 E11.3314
G1 X114.158 Y101.209 E11.3430
G1 X113.847 Y101.375 E11.3548
G1 X113.509 Y101.486 E11.3666
G1 X113.158 Y101.539 E11.3784
G1 X112.802 Y101.531 E11.3902
G1 X112.453 Y101.464 E11.4021
G1 X112.122 Y101.339 E11.4139
G1 X112.060 Y101.303 E11.4162
;segType:Perimeter
G0 X113.630 Y101.581 F10800
G1 X113.071 Y101.155 E11.4396 F2159
G1 X112.846 Y101.150 E11.4471
G1 X112.567 Y101.097 E11.4565
G1 X112.301 Y100.996 E11.4660
G1 X112.057 Y100.853 E11.4754
G1 X111.841 Y100.671 E11.4848
G1 X111.659 Y100.455 E11.4942
G1 X111.516 Y100.213 E11.5035
G1 X111.417 Y99.951 E11.5129
G1 X111.364 Y99.676 E11.5222
G1 X111.358 Y99.396 E11.5315
G1 X111.399 Y99.119 E11.5408
G1 X111.487 Y98.852 E11.5501
G1 X111.619 Y98.604 E11.5595
G1 X111.791 Y98.381 E11.5688
G1 X111.998 Y98.190 E11.5782
G1 X112.236 Y98.036 E11.5877
G1 X112.498 Y97.925 E11.5971
G1 X112.774 Y97.859 E11.6066
G1 X113.058 Y97.841 E11.6160
G1 X113.341 Y97.871 E11.6255
G1 X113.615 Y97.948 E11.6350
G1 X113.871 Y98.070 E11.6444
G1 X114.102 Y98.233 E11.6538
G1 X114.302 Y98.433 E11.6632
G1 X114.464 Y98.663 E11.6726
G1 X114.586 Y98.916 E11.6819
G1 X114.662 Y99.186 E11.6912
G1 X114.692 Y99.464 E11.7005
G1 X114.674 Y99.744 E11.7099
G1 X114.609 Y100.016 E11.7192
G1 X114.499 Y100.274 E11.7285
G1 X114.347 Y100.511 E11.7379
G1 X114.156 Y100.719 E11.7472
G1 X113.933 Y100.892 E11.7566
G1 X113.682 Y101.025 E11.7661
G1 X113.412 Y101.114 E11.7755
G1 X113.190 Y101.148 E11.7830
G1 X112.696 Y101.640
G0 X116.539 Y103.938 F10800
G0 X116.597 Y109.391
G0 X116.999 Y110.386
;segType:HShell
G1 X117.599 Y109.814 E11.8106 F3600
;segType:Loop
G0 X117.097 Y109.623 F10800
G1 X120.281 Y109.623 E11.9165 F3600
G1 X120.281 Y111.218 E11.9696
G1 X119.974 Y111.150 E11.9801
G1 X119.380 Y111.224 E12.0000
G1 X118.850 Y111.489 E12.0197
G1 X118.445 Y111.910 E12.0391
G1 X118.207 Y112.434 E12.0582
G1 X118.159 Y113.004 E12.0772
G1 X118.303 Y113.558 E12.0963
G1 X118.629 Y114.038 E12.1156
G1 X119.102 Y114.386 E12.1351
G1 X119.673 Y114.559 E12.1550
G1 X120.281 Y114.527 E12.1752
G1 X120.281 Y116.590 E12.2438
G1 X116.799 Y116.590 E12.3597
G1 X116.799 Y109.623 E12.5914
G1 X116.899 Y109.623 E12.5948
;segType:Perimeter
G0 X117.272 Y109.814 F10800
G1 X116.998 Y109.185 E12.6176 F2159
G1 X116.998 Y95.652 E13.0677
G1 X143.002 Y95.652 E13.9326
G1 X143.002 Y109.241 E14.3846
G1 X139.319 Y109.241 E14.5071
G1 X139.319 Y111.812 E14.5926
G1 X139.400 Y111.739 E14.5962
G1 X139.820 Y111.568 E14.6113
G1 X140.274 Y111.547 E14.6264
G1 X140.709 Y111.678 E14.6415
G1 X141.073 Y111.946 E14.6566
G1 X141.325 Y112.317 E14.6715
G1 X141.437 Y112.749 E14.6863
G1 X141.400 Y113.193 E14.7011
G1 X141.215 Y113.600 E14.7160
G1 X140.903 Y113.924 E14.7310
G1 X140.498 Y114.127 E14.7460
G1 X140.047 Y114.183 E14.7612
G1 X139.603 Y114.085 E14.7763
G1 X139.319 Y113.908 E14.7874
G1 X139.319 Y116.353 E14.8687
G1 X120.681 Y116.353 E15.4886
G1 X120.681 Y113.909 E15.5699
G1 X120.600 Y113.982 E15.5736
G1 X120.180 Y114.153 E15.5886
G1 X119.726 Y114.175 E15.6038
G1 X119.291 Y114.043 E15.6189
G1 X118.927 Y113.775 E15.6339
G1 X118.675 Y113.404 E15.6488
G1 X118.563 Y112.972 E15.6637
G1 X118.601 Y112.528 E15.6785
G1 X118.785 Y112.121 E15.6934
G1 X119.097 Y111.796 E15.7083
G1 X119.502 Y111.594 E15.7234
G1 X119.954 Y111.538 E15.7385
G1 X120.397 Y111.636 E15.7536
G1 X120.681 Y111.813 E15.7648
G1 X120.681 Y109.241 E15.8503
G1 X117.058 Y109.241 E15.9708
G0 F4800 E14.9708
G0 X116.243 Y104.882 F10800
G0 X116.332 Y102.512
G0 X116.598 Y95.405
G0 F4800 E15.9708
;segType:Loop
G1 X116.598 Y95.415 E15.9711 F3600
G1 X116.598 Y103.690 E16.2464
G1 X110.448 Y103.690 E16.4509
G1 X110.448 Y95.310 E16.7296
G1 X116.499 Y95.310 E16.9309
G0 F4800 E15.9309
G0 X143.142 Y95.518 F10800
G0 X143.202 Y109.718
G0 F4800 E16.9309
G1 X143.202 Y116.590 E17.1594 F3600
G1 X139.719 Y116.590 E17.2753
G1 X139.719 Y114.503 E17.3447
G1 X140.027 Y114.570 E17.3552
G1 X140.620 Y114.497 E17.3751
G1 X141.150 Y114.232 E17.3948
G1 X141.555 Y113.811 E17.4142
G1 X141.793 Y113.286 E17.4334
G1 X141.841 Y112.717 E17.4524
G1 X141.697 Y112.163 E17.4715
G1 X141.371 Y111.684 E17.4907
G1 X140.898 Y111.335 E17.5103
G1 X140.327 Y111.162 E17.5301
G1 X139.719 Y111.194 E17.5504
G1 X139.719 Y109.623 E17.6026
G1 X143.102 Y109.623 E17.7152
G0 F4800 E16.7152
G0 X143.043 Y111.284 F10800
G0 X141.990 Y113.325
G0 F4800 E17.7152
;segType:HShell
G1 X143.002 Y112.360 E17.7617 F3600
G1 X143.002 Y111.824
G1 X142.040 Y112.742 E17.8059
G1 X141.939 Y112.302
G1 X143.002 Y111.289 E17.8547
G1 X143.002 Y110.753
G1 X141.773 Y111.925 E17.9112
G1 X141.553 Y111.600
G1 X143.002 Y110.217 E17.9778
G1 X142.863 Y109.814
G1 X141.250 Y111.353 E18.0519
G1 X140.913 Y111.139
G1 X142.302 Y109.814 E18.1158
G1 X141.740 Y109.814
G1 X140.486 Y111.010 E18.1734
G1 X139.945 Y110.991
G1 X141.179 Y109.814 E18.2301
G1 X140.617 Y109.814
G1 X139.919 Y110.480 E18.2623
G1 X139.919 Y109.945
G1 X140.056 Y109.814 E18.2686
G0 X141.507 Y112.241 F10800
G0 X143.002 Y116.109
G1 X142.698 Y116.399 E18.2825 F3600
G1 X142.137 Y116.399
G1 X143.002 Y115.574 E18.3223
G1 X143.002 Y115.038
G1 X141.575 Y116.399 E18.3879
G1 X141.014 Y116.399
G1 X143.002 Y114.502 E18.4792
G1 X143.002 Y113.967
G1 X140.452 Y116.399 E18.5964
G1 X139.919 Y116.373
G1 X143.002 Y113.431 E18.7381
G1 X143.002 Y112.896
G1 X139.919 Y115.837 E18.8799
G1 X139.919 Y115.301
G1 X140.551 Y114.698 E18.9089
G0 X123.244 Y116.487 F10800
G0 X120.541 Y116.487
G0 X120.225 Y114.338
G0 X119.199 Y114.211
G0 X118.493 Y113.480
G0 X118.408 Y112.482
G0 X118.976 Y111.646
G0 X120.081 Y110.659
G1 X119.737 Y110.987 E18.9248 F3600
G0 X118.619 Y112.018 F10800
G0 X118.365 Y112.988
G0 X118.781 Y113.904
G0 X120.081 Y116.016
G1 X119.679 Y116.399 E18.9432 F3600
G1 X119.118 Y116.399
G1 X120.081 Y115.480 E18.9875
G1 X120.081 Y114.944
G1 X118.557 Y116.399 E19.0576
G1 X117.995 Y116.399
G1 X119.726 Y114.747 E19.1372
G1 X119.278 Y114.640
G1 X117.434 Y116.399 E19.2220
G1 X116.999 Y116.278
G1 X118.892 Y114.472 E19.3090
G1 X118.575 Y114.239
G1 X116.999 Y115.743 E19.3814
G1 X116.999 Y115.207
G1 X118.325 Y113.942 E19.4424
G1 X118.111 Y113.610
G1 X116.999 Y114.672 E19.4936
G1 X116.999 Y114.136
G1 X117.999 Y113.182 E19.5395
G1 X117.988 Y112.657
G1 X116.999 Y113.600 E19.5850
G1 X116.999 Y113.065
G1 X118.241 Y111.879 E19.6421
G1 X118.904 Y111.247
G1 X120.081 Y110.123 E19.6962
G1 X119.844 Y109.814
G1 X116.999 Y112.529 E19.8270
G1 X116.999 Y111.993
G1 X119.283 Y109.814 E19.9321
G1 X118.722 Y109.814
G1 X116.999 Y111.458 E20.0113
G1 X116.999 Y110.922
G1 X118.160 Y109.814 E20.0647
G0 X116.858 Y109.375 F10800
G0 X116.539 Y103.938
G0 X115.796 Y103.499
G1 X116.398 Y102.925 E20.0923 F3600
G1 X116.398 Y102.389
G1 X115.235 Y103.499 E20.1458
G1 X114.673 Y103.499
G1 X116.398 Y101.853 E20.2251
G1 X116.398 Y101.318
G1 X114.112 Y103.499 E20.3302
G1 X113.550 Y103.499
G1 X116.398 Y100.782 E20.4611
G1 X116.398 Y100.246
G1 X112.989 Y103.499 E20.6179
G1 X112.427 Y103.499
G1 X116.398 Y99.711 E20.8004
G1 X116.398 Y99.175
G1 X115.079 Y100.433 E20.8610
G0 X112.635 Y101.694 F10800
G1 X110.743 Y103.499 E20.9480 F3600
G1 X110.649 Y103.054
G1 X112.200 Y101.574 E21.0193
G1 X111.829 Y101.391
G1 X110.649 Y102.518 E21.0736
G1 X110.649 Y101.982
G1 X111.512 Y101.158 E21.1133
G1 X111.245 Y100.878
G1 X110.649 Y101.447 E21.1407
G1 X110.649 Y100.911
G1 X111.027 Y100.550 E21.1581
G1 X110.863 Y100.171
G1 X110.649 Y100.375 E21.1679
G1 X110.649 Y99.840
G1 X110.765 Y99.729 E21.1733
G1 X110.785 Y99.174
G1 X110.649 Y99.304 E21.1796
G1 X110.649 Y98.768
G1 X111.075 Y98.362 E21.1991
G0 X110.649 Y96.090 F10800
G1 X111.266 Y95.501 E21.2275 F3600
G1 X111.827 Y95.501
G1 X110.649 Y96.626 E21.2817
G1 X110.649 Y97.161
G1 X112.389 Y95.501 E21.3617
G1 X112.950 Y95.501
G1 X110.649 Y97.697 E21.4675
G1 X110.649 Y98.233
G1 X113.512 Y95.501 E21.5992
G1 X114.073 Y95.501
G1 X111.939 Y97.537 E21.6973
G1 X112.764 Y97.286
G1 X114.635 Y95.501 E21.7833
G1 X115.196 Y95.501
G1 X113.319 Y97.292 E21.8696
G1 X113.772 Y97.395
G1 X115.757 Y95.501 E21.9608
G1 X116.319 Y95.501
G1 X114.155 Y97.566 E22.0603
G1 X114.482 Y97.790
G1 X116.398 Y95.961 E22.1484
G1 X116.398 Y96.497
G1 X114.759 Y98.061 E22.2238
G1 X114.987 Y98.378
G1 X116.398 Y97.032 E22.2886
G1 X116.398 Y97.568
G1 X115.160 Y98.750 E22.3456
G1 X115.265 Y99.185
G1 X116.398 Y98.104 E22.3977
G1 X116.398 Y98.639
G1 X115.277 Y99.709 E22.4492
G0 X116.858 Y90.387 F10800
G0 X118.475 Y89.694
G1 X118.209 Y89.948 E22.4614 F3600
G1 X117.648 Y89.948
G1 X118.240 Y89.383 E22.4886
G1 X118.055 Y89.024
G1 X117.086 Y89.948 E22.5332
G1 X116.999 Y89.496
G1 X117.979 Y88.561 E22.5782
G1 X118.032 Y87.975
G1 X116.999 Y88.960 E22.6257
G1 X116.999 Y88.425
G1 X118.594 Y86.903 E22.6991
G1 X118.032 Y86.903
G1 X116.999 Y87.889 E22.7466
G1 X116.999 Y87.353
G1 X117.471 Y86.903 E22.7683
G0 X121.372 Y86.903 F10800
G0 X121.430 Y90.387
G0 X116.858 Y90.387
G0 X116.858 Y95.167
G0 X143.142 Y95.167
G0 X143.142 Y90.387
G0 X138.570 Y90.387
G0 X138.628 Y86.903
G0 X141.612 Y86.903
G1 X141.440 Y87.068 E22.7762 F3600
G1 X141.690 Y87.364
G1 X142.174 Y86.903 E22.7984
G1 X142.735 Y86.903
G1 X141.900 Y87.699 E22.8368
G1 X142.003 Y88.137
G1 X143.002 Y87.184 E22.8827
G1 X143.002 Y87.720
G1 X142.028 Y88.649 E22.9275
G0 X141.636 Y89.559 F10800
G1 X143.002 Y88.256 E22.9903 F3600
G1 X143.002 Y88.791
G1 X141.789 Y89.948 E23.0460
G1 X142.350 Y89.948
G1 X143.002 Y89.327 E23.0759
G1 X143.002 Y89.863
G1 X142.912 Y89.948 E23.0801
G0 X143.157 Y92.037 F10800
G0 X143.403 Y94.929
G0 X143.829 Y95.501
G1 X143.602 Y95.718 E23.0905 F3600
G1 X143.602 Y96.253
G1 X144.390 Y95.501 E23.1267
G1 X144.952 Y95.501
G1 X143.602 Y96.789 E23.1888
G1 X143.602 Y97.325
G1 X145.513 Y95.501 E23.2767
G1 X146.075 Y95.501
G1 X143.602 Y97.860 E23.3903
G1 X143.602 Y98.396
G1 X146.636 Y95.501 E23.5298
G1 X147.197 Y95.501
G1 X143.602 Y98.932 E23.6951
G1 X143.602 Y99.467
G1 X147.759 Y95.501 E23.8862
G1 X148.320 Y95.501
G1 X146.381 Y97.351 E23.9753
G1 X147.031 Y97.267
G1 X148.882 Y95.501 E24.0604
G1 X149.351 Y95.589
G1 X147.519 Y97.337 E24.1447
G1 X147.930 Y97.480
G1 X149.351 Y96.124 E24.2100
G1 X149.351 Y96.660
G1 X148.281 Y97.681 E24.2592
G1 X148.581 Y97.930
G1 X149.351 Y97.195 E24.2946
G1 X149.351 Y97.731
G1 X148.833 Y98.226 E24.3184
G1 X149.033 Y98.571
G1 X149.351 Y98.267 E24.3331
G1 X149.351 Y98.802
G1 X149.176 Y98.970 E24.3412
G1 X149.245 Y99.439
G1 X149.351 Y99.338 E24.3460
G1 X149.351 Y99.874
G1 X149.171 Y100.046 E24.3543
G0 X147.717 Y101.198 F10800
G0 X146.778 Y101.339
G0 X145.892 Y101.005
G0 X144.713 Y99.479
G1 X143.602 Y100.538 E24.4054 F3600
G1 X143.602 Y100.003
G1 X144.813 Y98.848 E24.4611
G0 X143.867 Y103.499 F10800
G1 X145.965 Y101.498 E24.5575 F3600
G1 X146.366 Y101.651
G1 X144.429 Y103.499 E24.6465
G1 X144.990 Y103.499
G1 X146.851 Y101.724 E24.7320
G0 X147.236 Y103.499 F10800
G1 X149.351 Y101.481 E24.8293 F3600
G1 X149.351 Y102.016
G1 X147.797 Y103.499 E24.9007
G1 X148.359 Y103.499
G1 X149.351 Y102.552 E24.9463
G1 X149.351 Y103.088
G1 X148.920 Y103.499 E24.9662
; ------------------------------------
; Layer #3
; ------------------------------------
G21 ; mm
G90 ; abs
G92 E0 ; reset extr
M106 S255
;segType:Loop
G0 F4800 E-1.0000
G0 F300 Z2.300
G0 X143.502 Y103.690 F10800
G0 F4800 E0.0000
G1 X143.402 Y103.690 E0.0033 F3600
G1 X143.402 Y95.415 E0.2786
G1 X143.402 Y95.310 E0.2821
G1 X149.552 Y95.310 E0.4866
G1 X149.552 Y103.690 E0.7653
G1 X143.701 Y103.690 E0.9599
G0 F4800 E-0.0401
G0 X143.875 Y103.499 F10800
G0 F4800 E0.9599
;segType:Perimeter
G1 X143.602 Y104.128 E0.9827 F2159
G1 X143.602 Y116.972 E1.4099
G1 X116.399 Y116.972 E2.3147
G1 X116.399 Y104.072 E2.7437
G1 X110.049 Y104.072 E2.9550
G1 X110.049 Y94.929 E3.2590
G1 X116.399 Y94.929 E3.4703
G1 X116.399 Y83.028 E3.8661
G1 X116.998 Y83.028 E3.8860
G1 X116.998 Y86.330 E3.9958
G1 X121.570 Y86.330 E4.1479
G1 X121.570 Y90.521 E4.2873
G1 X116.998 Y90.521 E4.4393
G1 X116.998 Y95.033 E4.5894
G1 X143.002 Y95.033 E5.4543
G1 X143.002 Y90.521 E5.6044
G1 X138.430 Y90.521 E5.7565
G1 X138.430 Y86.330 E5.8958
G1 X143.002 Y86.330 E6.0479
G1 X143.002 Y83.028 E6.1577
G1 X143.602 Y83.028 E6.1777
G1 X143.602 Y94.929 E6.5735
G1 X149.952 Y94.929 E6.7847
G1 X149.952 Y104.072 E7.0888
G1 X143.661 Y104.072 E7.2980
G0 F4800 E6.2980
G0 X145.881 Y101.227 F10800
G0 F4800 E7.2980
;segType:Loop
G1 X145.808 Y101.186 E7.3008 F3600
G1 X145.535 Y100.966 E7.3124
G1 X145.305 Y100.706 E7.3240
G1 X145.124 Y100.412 E7.3355
G1 X144.995 Y100.092 E7.3469
G1 X144.923 Y99.758 E7.3583
G1 X144.908 Y99.416 E7.3697
G1 X144.952 Y99.076 E7.3811
G1 X145.052 Y98.748 E7.3925
G1 X145.207 Y98.441 E7.4039
G1 X145.413 Y98.162 E7.4155
G1 X145.664 Y97.920 E7.4271
G1 X145.955 Y97.723 E7.4387
G1 X146.278 Y97.577 E7.4505
G1 X146.621 Y97.488 E7.4623
G1 X146.975 Y97.457 E7.4741
G1 X147.330 Y97.487 E7.4860
G1 X147.673 Y97.576 E7.4978
G1 X147.995 Y97.722 E7.5095
G1 X148.287 Y97.918 E7.5212
G1 X148.539 Y98.160 E7.5328
G1 X148.745 Y98.438 E7.5444
G1 X148.900 Y98.746 E7.5558
G1 X149.001 Y99.074 E7.5672
G1 X149.044 Y99.413 E7.5786
G1 X149.030 Y99.755 E7.5900
G1 X148.958 Y100.090 E7.6014
G1 X148.830 Y100.409 E7.6128
G1 X148.649 Y100.703 E7.6243
G1 X148.420 Y100.964 E7.6358
G1 X148.148 Y101.184 E7.6475
G1 X147.840 Y101.356 E7.6592
G1 X147.507 Y101.475 E7.6710
G1 X147.156 Y101.535 E7.6828
G1 X146.800 Y101.535 E7.6947
G1 X146.450 Y101.475 E7.7065
G1 X146.116 Y101.358 E7.7183
G1 X146.052 Y101.322 E7.7207
;segType:Perimeter
G0 X147.629 Y101.567 F10800
G1 X147.060 Y101.153 E7.7440 F2159
G1 X146.836 Y101.154 E7.7515
G1 X146.555 Y101.106 E7.7610
G1 X146.287 Y101.011 E7.7704
G1 X146.040 Y100.873 E7.7799
G1 X145.820 Y100.696 E7.7893
G1 X145.633 Y100.484 E7.7986
G1 X145.486 Y100.245 E7.8080
G1 X145.381 Y99.985 E7.8173
G1 X145.322 Y99.711 E7.8266
G1 X145.309 Y99.431 E7.8359
G1 X145.345 Y99.153 E7.8453
G1 X145.427 Y98.885 E7.8546
G1 X145.553 Y98.635 E7.8639
G1 X145.720 Y98.408 E7.8733
G1 X145.924 Y98.213 E7.8827
G1 X146.158 Y98.054 E7.8921
G1 X146.417 Y97.937 E7.9015
G1 X146.692 Y97.865 E7.9110
G1 X146.976 Y97.841 E7.9205
G1 X147.259 Y97.864 E7.9299
G1 X147.534 Y97.936 E7.9394
G1 X147.793 Y98.053 E7.9488
G1 X148.028 Y98.211 E7.9582
G1 X148.231 Y98.406 E7.9676
G1 X148.399 Y98.633 E7.9770
G1 X148.525 Y98.883 E7.9863
G1 X148.608 Y99.151 E7.9956
G1 X148.643 Y99.429 E8.0050
G1 X148.632 Y99.709 E8.0143
G1 X148.573 Y99.983 E8.0236
G1 X148.469 Y100.243 E8.0329
G1 X148.321 Y100.482 E8.0423
G1 X148.135 Y100.694 E8.0516
G1 X147.916 Y100.872 E8.0610
G1 X147.668 Y101.010 E8.0705
G1 X147.401 Y101.105 E8.0799
G1 X147.178 Y101.143 E8.0874
G1 X146.697 Y101.647
G0 X143.142 Y95.518 F10800
G0 X143.142 Y90.387
G0 X139.102 Y89.810
;segType:Loop
G1 X139.140 Y89.846 E8.0892 F3600
G1 X139.682 Y90.084 E8.1089
G1 X140.277 Y90.129 E8.1287
G1 X140.851 Y89.973 E8.1485
G1 X141.334 Y89.639 E8.1680
G1 X141.674 Y89.170 E8.1873
G1 X141.828 Y88.645 E8.2055
G1 X141.839 Y88.313 E8.2165
G1 X141.718 Y87.780 E8.2347
