; GCode generated by CraftWare

G28 X0 Y0
G28 Z0

M190 S70 ;set bed temp (wait)
M109 S220 ;set head temp (wait)

; ------------------------------------
; Raft Layer #0
; ------------------------------------
G21 ; mm
G90 ; abs
G92 E0 ; reset extr
M106 S0
;segType:Raft
G0 F4800 E-1.0000
G0 F300 Z0.300
G0 X0.000 Y0.000 F10800
G0 F4800 E0.0000
G1 X126.127 Y115.858 E8.5444 F600
G1 X126.127 Y84.406 E10.1135
G1 X129.811 Y82.556 E10.3192
G1 X129.811 Y99.868 E11.1829
G1 X129.811 Y100.396 E11.2093
G1 X129.811 Y117.708 E12.0730
G1 X133.495 Y115.726 E12.2817
G1 X133.495 Y84.538 E13.8377
G1 X137.179 Y91.542 E14.2325
G1 X137.179 Y108.722 E15.0896
G1 X122.443 Y109.119 E15.8250
G1 X122.443 Y91.146 E16.7217
G1 X118.759 Y96.300 E17.0378
G1 X118.759 Y103.965 E17.4202



; ------------------------------------
; Raft Layer #1
; ------------------------------------
G21 ; mm
G90 ; abs
G92 E0 ; reset extr
M106 S255
;segType:Raft
G0 F4800 E-1.0000
G0 F300 Z0.600
G0 X118.709 Y104.167 F10800
G0 F4800 E0.0000
G1 X140.300 Y104.167 E1.0772 F3600
G1 X139.687 Y105.490 E1.1499
G1 X119.322 Y105.490 E2.1659
G1 X120.304 Y106.812 E2.2481
G1 X138.828 Y106.812 E3.1722
G1 X137.601 Y108.135 E3.2623
G1 X121.531 Y108.135 E4.0640
G1 X122.757 Y109.458 E4.1540
G1 X136.252 Y109.458 E4.8273
G1 X134.412 Y110.781 E4.9403
G1 X124.720 Y110.781 E5.4238
G1 X125.824 Y112.104 E5.5098
G1 X133.553 Y112.104 E5.8954
G1 X133.553 Y113.427 E5.9614
G1 X125.824 Y113.427 E6.3470
G1 X125.824 Y114.750 E6.4130
G1 X133.553 Y114.750 E6.7985
G1 X133.062 Y116.072 E6.8689
G1 X126.315 Y116.072 E7.2056
G1 X127.542 Y117.395 E7.2956
G1 X131.835 Y117.395 E7.5098
G0 F4800 E6.5098
G0 X118.464 Y102.844 F10800
G0 F4800 E7.5098
G1 X140.668 Y102.844 E8.6176 F3600
G1 X140.668 Y101.521 E8.6835
G1 X118.341 Y101.521 E9.7974
G1 X118.341 Y100.198 E9.8634
G1 X128.891 Y100.198 E10.3898
G1 X130.118 Y100.198 E10.4510
G1 X140.668 Y100.198 E10.9773
G1 X140.668 Y98.875 E11.0433
G1 X118.341 Y98.875 E12.1572
G1 X118.464 Y97.553 E12.2235
G1 X140.668 Y97.553 E13.3313
G1 X140.423 Y96.230 E13.3984
G1 X118.709 Y96.230 E14.4817
G1 X119.200 Y94.907 E14.5521
G1 X139.932 Y94.907 E15.5865
G1 X139.073 Y93.584 E15.6651
G1 X120.059 Y93.584 E16.6138
G1 X121.285 Y92.261 E16.7038
G1 X137.847 Y92.261 E17.5300
G1 X136.620 Y90.938 E17.6201
G1 X122.512 Y90.938 E18.3239
G1 X124.107 Y89.615 E18.4273
G1 X135.025 Y89.615 E18.9720
G1 X133.553 Y85.647 E19.1831
G1 X125.824 Y85.647 E19.5687
G1 X125.702 Y86.970 E19.6350
G1 X133.553 Y86.970 E20.0267
G1 X133.553 Y88.293 E20.0927
G1 X125.702 Y88.293 E20.4844
G1 X126.070 Y84.324 E20.6832
G1 X133.308 Y84.324 E21.0443
G1 X132.081 Y83.001 E21.1344
G1 X127.296 Y83.001 E21.3730



; ------------------------------------
; Raft Layer #2
; ------------------------------------
G21 ; mm
G90 ; abs
G92 E0 ; reset extr
M106 S255
;segType:Raft
G0 F4800 E-1.0000
G0 F300 Z0.900
G0 X125.759 Y88.899 F10800
G0 F4800 E0.0000
G1 X125.759 Y111.233 E1.1142 F3600
G1 X125.391 Y111.101 E1.1338
G1 X125.391 Y89.031 E2.2348
G1 X125.022 Y89.296 E2.2574
G1 X125.022 Y110.969 E3.3387
G1 X124.654 Y110.837 E3.3582
G1 X124.654 Y89.428 E4.4263
G1 X124.285 Y89.560 E4.4458
G1 X124.285 Y110.572 E5.4941
G1 X123.917 Y110.440 E5.5137
G1 X123.917 Y89.824 E6.5422
G1 X123.549 Y90.089 E6.5648
G1 X123.549 Y110.176 E7.5670
G1 X123.180 Y109.779 E7.5940
G1 X123.180 Y90.353 E8.5632
G1 X122.812 Y90.749 E8.5902
G1 X122.812 Y109.515 E9.5264
G1 X122.443 Y109.119 E9.5534
G1 X122.443 Y91.146 E10.4501
G1 X122.075 Y91.542 E10.4771
G1 X122.075 Y108.722 E11.3342
G1 X121.707 Y108.326 E11.3612
G1 X121.707 Y91.939 E12.1787
G1 X121.338 Y92.335 E12.2057
G1 X121.338 Y107.929 E12.9837
G1 X120.970 Y107.533 E13.0107
G1 X120.970 Y92.732 E13.7491
G1 X120.601 Y93.128 E13.7761
G1 X120.601 Y107.136 E14.4750
G1 X120.233 Y106.740 E14.5020
G1 X120.233 Y93.525 E15.1613
G1 X119.865 Y93.921 E15.1883
G1 X119.865 Y106.211 E15.8015
G1 X119.496 Y105.683 E15.8336
G1 X119.496 Y94.582 E16.3874
G1 X119.128 Y95.243 E16.4252
G1 X119.128 Y105.022 E16.9131
G1 X118.759 Y103.965 E16.9689
G1 X118.759 Y96.300 E17.3513
G0 F4800 E16.3513
G0 X133.495 Y84.538 F10800
G0 F4800 E17.3513
G1 X133.495 Y115.726 E18.9073 F3600
G1 X133.127 Y116.123 E18.9343
G1 X133.127 Y84.142 E20.5298
G1 X132.758 Y83.745 E20.5568
G1 X132.758 Y116.519 E22.1919
G1 X132.390 Y116.916 E22.2189
G1 X132.390 Y83.349 E23.8936
G1 X132.022 Y82.952 E23.9206
G1 X132.022 Y117.312 E25.6348
G1 X131.653 Y117.708 E25.6618
G1 X131.653 Y82.556 E27.4156
G1 X131.285 Y82.556 E27.4339
G1 X131.285 Y117.708 E29.1877
G1 X130.916 Y117.708 E29.2061
G1 X130.916 Y82.556 E30.9599
G1 X130.548 Y82.556 E30.9782
G1 X130.548 Y117.708 E32.7320
G1 X129.443 Y117.708 E32.7871
G1 X129.443 Y100.396 E33.6508
G1 X129.811 Y100.396 E33.6692
G1 X129.811 Y117.708 E34.5329
G1 X130.180 Y117.708 E34.5513
G1 X130.180 Y82.556 E36.3051
G1 X129.811 Y82.556 E36.3234
G1 X129.811 Y99.868 E37.1871
G1 X129.443 Y99.868 E37.2055
G1 X129.443 Y82.556 E38.0692
G1 X129.074 Y82.556 E38.0876
G1 X129.074 Y100.000 E38.9579
G1 X129.074 Y100.264 E38.9711
G1 X129.074 Y117.708 E39.8414
G1 X128.706 Y117.708 E39.8598
G1 X128.706 Y82.556 E41.6135
G1 X128.338 Y82.556 E41.6319
G1 X128.338 Y117.708 E43.3857
G1 X127.969 Y117.708 E43.4040
G1 X127.969 Y82.556 E45.1578
G1 X127.601 Y82.820 E45.1804
G1 X127.601 Y117.444 E46.9078
G1 X127.233 Y117.048 E46.9348
G1 X127.233 Y83.217 E48.6227
G1 X126.864 Y83.613 E48.6497
G1 X126.864 Y116.651 E50.2980
G1 X126.496 Y116.255 E50.3250
G1 X126.496 Y84.010 E51.9337
G1 X126.127 Y84.406 E51.9607
G1 X126.127 Y115.858 E53.5298
G0 F4800 E52.5298
G0 X133.864 Y111.101 F10800
G0 F4800 E53.5298
G1 X133.864 Y89.163 E54.6243 F3600
G1 X134.232 Y89.296 E54.6438
G1 X134.232 Y110.969 E55.7251
G1 X134.600 Y110.837 E55.7446
G1 X134.600 Y89.428 E56.8127
G1 X134.969 Y89.560 E56.8322
G1 X134.969 Y110.572 E57.8805
G1 X135.337 Y110.308 E57.9032
G1 X135.337 Y89.824 E58.9251
G1 X135.706 Y90.089 E58.9477
G1 X135.706 Y110.044 E59.9433
G1 X136.074 Y109.779 E59.9659
G1 X136.074 Y90.485 E60.9285
G1 X136.442 Y90.749 E60.9511
G1 X136.442 Y109.383 E61.8808
G1 X136.811 Y109.119 E61.9034
G1 X136.811 Y91.146 E62.8000
G1 X137.179 Y91.542 E62.8270
G1 X137.179 Y108.722 E63.6841
G1 X137.548 Y108.326 E63.7111
G1 X137.548 Y91.939 E64.5287
G1 X137.916 Y92.335 E64.5557
G1 X137.916 Y107.929 E65.3337
G1 X138.284 Y107.533 E65.3607
G1 X138.284 Y92.732 E66.0991
G1 X138.653 Y93.128 E66.1261
G1 X138.653 Y107.136 E66.8250
G1 X139.021 Y106.608 E66.8571
G1 X139.021 Y93.525 E67.5098
G1 X139.390 Y94.053 E67.5420
G1 X139.390 Y106.211 E68.1485
G1 X139.758 Y105.550 E68.1863
G1 X139.758 Y94.582 E68.7335
G1 X140.126 Y95.375 E68.7771
G1 X140.126 Y104.890 E69.2518
G1 X140.495 Y103.700 E69.3139
G1 X140.495 Y96.432 E69.6766



; ------------------------------------
; Raft Layer #3
; ------------------------------------
G21 ; mm
G90 ; abs
G92 E0 ; reset extr
M106 S255
;segType:Raft
G0 F4800 E-1.0000
G0 F300 Z1.200
G0 X131.835 Y82.737 F10800
G0 F4800 E0.0000
G1 X127.542 Y82.737 E0.2142 F3600
G1 X127.174 Y83.133 E0.2412
G1 X132.203 Y83.133 E0.4921
G1 X132.571 Y83.530 E0.5191
G1 X126.806 Y83.530 E0.8068
G1 X126.438 Y83.927 E0.8338
G1 X132.939 Y83.927 E1.1582
G1 X133.308 Y84.324 E1.1852
G1 X126.070 Y84.324 E1.5463
G1 X125.824 Y84.721 E1.5696
G1 X133.553 Y84.721 E1.9551
G1 X133.553 Y85.118 E1.9749
G1 X125.824 Y85.118 E2.3605
G1 X125.824 Y85.515 E2.3803
G1 X133.553 Y85.515 E2.7659
G1 X133.553 Y85.911 E2.7857
G1 X125.702 Y85.911 E3.1774
G1 X125.702 Y86.308 E3.1972
G1 X133.553 Y86.308 E3.5889
G1 X133.553 Y86.705 E3.6087
G1 X125.702 Y86.705 E4.0004
G1 X125.702 Y87.102 E4.0202
G1 X133.553 Y87.102 E4.4119
G1 X133.553 Y87.499 E4.4317
G1 X125.702 Y87.499 E4.8234
G1 X125.702 Y87.896 E4.8432
G1 X133.553 Y87.896 E5.2349
G1 X133.553 Y88.293 E5.2547
G1 X125.702 Y88.293 E5.6464
G1 X125.702 Y88.689 E5.6662
G1 X133.553 Y88.689 E6.0579
G1 X133.798 Y89.086 E6.0812
G1 X125.211 Y89.086 E6.5096
G1 X124.352 Y89.483 E6.5568
G1 X134.780 Y89.483 E7.0770
G1 X135.393 Y89.880 E7.1135
G1 X123.739 Y89.880 E7.6949
G1 X123.248 Y90.277 E7.7264
G1 X135.884 Y90.277 E8.3568
G1 X136.374 Y90.674 E8.3883
G1 X122.757 Y90.674 E9.0676
G1 X122.389 Y91.071 E9.0946
G1 X136.742 Y91.071 E9.8107
G1 X137.110 Y91.467 E9.8377
G1 X122.021 Y91.467 E10.5905
G1 X121.653 Y91.864 E10.6175
G1 X137.479 Y91.864 E11.4070
G1 X137.847 Y92.261 E11.4341
G1 X121.285 Y92.261 E12.2603
G1 X120.917 Y92.658 E12.2873
G1 X138.215 Y92.658 E13.1503
G1 X138.583 Y93.055 E13.1773
G1 X120.549 Y93.055 E14.0770
G1 X120.181 Y93.452 E14.1040
G1 X138.951 Y93.452 E15.0404
G1 X139.196 Y93.849 E15.0636
G1 X119.813 Y93.849 E16.0307
G1 X119.568 Y94.245 E16.0539
G1 X139.564 Y94.245 E17.0516
G1 X139.809 Y94.642 E17.0748
G1 X119.322 Y94.642 E18.0969
G1 X119.077 Y95.039 E18.1202
G1 X139.932 Y95.039 E19.1607
G1 X140.177 Y95.436 E19.1839
G1 X118.954 Y95.436 E20.2428
G1 X118.832 Y95.833 E20.2635
G1 X140.300 Y95.833 E21.3345
G1 X140.423 Y96.230 E21.3553
G1 X118.709 Y96.230 E22.4386
G1 X118.586 Y96.627 E22.4593
G1 X140.545 Y96.627 E23.5548
G1 X140.668 Y97.023 E23.5755
G1 X118.464 Y97.023 E24.6833
G1 X118.464 Y97.420 E24.7031
G1 X140.668 Y97.420 E25.8109
G1 X140.668 Y97.817 E25.8307
G1 X118.341 Y97.817 E26.9446
G1 X118.341 Y98.214 E26.9644
G1 X140.668 Y98.214 E28.0783
G1 X140.668 Y98.611 E28.0981
G1 X118.341 Y98.611 E29.2120
G1 X118.341 Y99.008 E29.2318
G1 X140.668 Y99.008 E30.3457
G1 X140.668 Y100.198 E30.4051
G1 X130.118 Y100.198 E30.9315
G1 X129.627 Y99.801 E30.9629
G1 X140.668 Y99.801 E31.5138
G1 X140.668 Y99.405 E31.5336
G1 X118.341 Y99.405 E32.6475
G1 X118.341 Y99.801 E32.6673
G1 X129.382 Y99.801 E33.2181
G1 X128.891 Y100.198 E33.2496
G1 X118.341 Y100.198 E33.7759
G1 X118.341 Y100.595 E33.7957
G1 X140.668 Y100.595 E34.9096
G1 X140.668 Y100.992 E34.9294
G1 X118.341 Y100.992 E36.0433
G1 X118.341 Y101.389 E36.0631
G1 X140.668 Y101.389 E37.1770
G1 X140.668 Y101.786 E37.1968
G1 X118.341 Y101.786 E38.3107
G1 X118.341 Y102.182 E38.3305
G1 X140.668 Y102.182 E39.4444
G1 X140.668 Y102.579 E39.4642
G1 X118.464 Y102.579 E40.5720
G1 X118.464 Y102.976 E40.5918
G1 X140.668 Y102.976 E41.6996
G1 X140.545 Y103.373 E41.7203
G1 X118.586 Y103.373 E42.8158
G1 X118.586 Y103.770 E42.8356
G1 X140.423 Y103.770 E43.9251
G1 X140.300 Y104.167 E43.9458
G1 X118.709 Y104.167 E45.0230
G1 X118.832 Y104.564 E45.0437
G1 X140.177 Y104.564 E46.1086
G1 X140.055 Y104.960 E46.1294
G1 X119.077 Y104.960 E47.1759
G1 X119.200 Y105.357 E47.1967
G1 X139.809 Y105.357 E48.2249
G1 X139.564 Y105.754 E48.2482
G1 X119.445 Y105.754 E49.2519
G1 X119.813 Y106.151 E49.2789
G1 X139.319 Y106.151 E50.2520
G1 X138.951 Y106.548 E50.2790
G1 X120.059 Y106.548 E51.2216
G1 X120.427 Y106.945 E51.2486
G1 X138.705 Y106.945 E52.1605
G1 X138.337 Y107.342 E52.1875
G1 X120.795 Y107.342 E53.0627
G1 X121.163 Y107.738 E53.0897
G1 X137.969 Y107.738 E53.9282
G1 X137.601 Y108.135 E53.9552
G1 X121.531 Y108.135 E54.7570
G1 X121.899 Y108.532 E54.7840
G1 X137.233 Y108.532 E55.5490
G1 X136.865 Y108.929 E55.5760
G1 X122.267 Y108.929 E56.3043
G1 X122.635 Y109.326 E56.3313
G1 X136.374 Y109.326 E57.0168
G1 X136.006 Y109.723 E57.0438
G1 X123.125 Y109.723 E57.6865
G1 X123.616 Y110.120 E57.7179
G1 X135.516 Y110.120 E58.3116
G1 X134.902 Y110.516 E58.3481
G1 X124.229 Y110.516 E58.8805
G1 X125.088 Y110.913 E58.9277
G1 X134.166 Y110.913 E59.3806
G1 X133.676 Y111.310 E59.4121
G1 X125.824 Y111.310 E59.8038
G1 X125.824 Y111.707 E59.8236
G1 X133.553 Y111.707 E60.2092
G1 X133.553 Y112.104 E60.2290
G1 X125.824 Y112.104 E60.6146
G1 X125.824 Y112.501 E60.6344
G1 X133.553 Y112.501 E61.0200
G1 X133.553 Y112.898 E61.0398
G1 X125.824 Y112.898 E61.4253
G1 X125.824 Y113.294 E61.4451
G1 X133.553 Y113.294 E61.8307
G1 X133.553 Y113.691 E61.8505
G1 X125.824 Y113.691 E62.2361
G1 X125.824 Y114.088 E62.2559
G1 X133.553 Y114.088 E62.6415
G1 X133.553 Y114.485 E62.6613
G1 X125.824 Y114.485 E63.0469
G1 X125.824 Y114.882 E63.0667
G1 X133.553 Y114.882 E63.4522
G1 X133.553 Y115.279 E63.4720
G1 X125.824 Y115.279 E63.8576
G1 X125.947 Y115.676 E63.8783
G1 X133.430 Y115.676 E64.2517
G1 X133.062 Y116.072 E64.2787
G1 X126.315 Y116.072 E64.6153
G1 X126.683 Y116.469 E64.6423
G1 X132.694 Y116.469 E64.9422
G1 X132.326 Y116.866 E64.9692
G1 X127.051 Y116.866 E65.2324
G1 X127.419 Y117.263 E65.2594
G1 X131.958 Y117.263 E65.4858



; ------------------------------------
; Raft Layer #4
; ------------------------------------
G21 ; mm
G90 ; abs
G92 E0 ; reset extr
M106 S255
;segType:Raft
G0 F4800 E-1.0000
G0 F300 Z1.500
G0 X126.127 Y115.858 F10800
G0 F4800 E0.0000
G1 X126.127 Y84.406 E1.5692 F3600
G1 X126.496 Y84.010 E1.5962
G1 X126.496 Y116.255 E3.2049
G1 X126.864 Y116.651 E3.2319
G1 X126.864 Y83.613 E4.8802
G1 X127.233 Y83.217 E4.9072
G1 X127.233 Y117.048 E6.5950
G1 X127.601 Y117.444 E6.6220
G1 X127.601 Y82.820 E8.3494
G1 X127.969 Y82.556 E8.3720
G1 X127.969 Y117.708 E10.1258
G1 X128.338 Y117.708 E10.1442
G1 X128.338 Y82.556 E11.8979
G1 X128.706 Y82.556 E11.9163
G1 X128.706 Y117.708 E13.6701
G1 X129.074 Y117.708 E13.6885
G1 X129.074 Y100.264 E14.5588
G1 X129.074 Y100.000 E14.5719
G1 X129.074 Y82.556 E15.4422
G1 X129.443 Y82.556 E15.4606
G1 X129.443 Y99.868 E16.3243
G1 X129.811 Y99.868 E16.3427
G1 X129.811 Y82.556 E17.2064
G1 X130.180 Y82.556 E17.2248
G1 X130.180 Y117.708 E18.9785
G1 X129.811 Y117.708 E18.9969
G1 X129.811 Y100.396 E19.8606
G1 X129.443 Y100.396 E19.8790
G1 X129.443 Y117.708 E20.7427
G1 X130.548 Y117.708 E20.7978
G1 X130.548 Y82.556 E22.5516
G1 X130.916 Y82.556 E22.5700
G1 X130.916 Y117.708 E24.3238
G1 X131.285 Y117.708 E24.3421
G1 X131.285 Y82.556 E26.0959
G1 X131.653 Y82.556 E26.1143
G1 X131.653 Y117.708 E27.8681
G1 X132.022 Y117.312 E27.8951
G1 X132.022 Y82.952 E29.6093
G1 X132.390 Y83.349 E29.6363
G1 X132.390 Y116.916 E31.3109
G1 X132.758 Y116.519 E31.3379
G1 X132.758 Y83.745 E32.9730
G1 X133.127 Y84.142 E33.0000
G1 X133.127 Y116.123 E34.5955
G1 X133.495 Y115.726 E34.6225
G1 X133.495 Y84.538 E36.1785
G0 F4800 E35.1785
G0 X125.759 Y88.899 F10800
G0 F4800 E36.1785
G1 X125.759 Y111.233 E37.2928 F3600
G1 X125.391 Y111.101 E37.3123
G1 X125.391 Y89.031 E38.4133
G1 X125.022 Y89.296 E38.4360
G1 X125.022 Y110.969 E39.5172
G1 X124.654 Y110.837 E39.5368
G1 X124.654 Y89.428 E40.6048
G1 X124.285 Y89.560 E40.6244
G1 X124.285 Y110.572 E41.6727
G1 X123.917 Y110.440 E41.6922
G1 X123.917 Y89.824 E42.7207
G1 X123.549 Y90.089 E42.7434
G1 X123.549 Y110.176 E43.7455
G1 X123.180 Y109.779 E43.7725
G1 X123.180 Y90.353 E44.7417
G1 X122.812 Y90.749 E44.7687
G1 X122.812 Y109.515 E45.7049
G1 X122.443 Y109.119 E45.7319
G1 X122.443 Y91.146 E46.6286
G1 X122.075 Y91.542 E46.6556
G1 X122.075 Y108.722 E47.5127
G1 X121.707 Y108.326 E47.5397
G1 X121.707 Y91.939 E48.3572
G1 X121.338 Y92.335 E48.3842
G1 X121.338 Y107.929 E49.1622
G1 X120.970 Y107.533 E49.1892
G1 X120.970 Y92.732 E49.9277
G1 X120.601 Y93.128 E49.9547
G1 X120.601 Y107.136 E50.6535
G1 X120.233 Y106.740 E50.6805
G1 X120.233 Y93.525 E51.3398
G1 X119.865 Y93.921 E51.3668
G1 X119.865 Y106.211 E51.9800
G1 X119.496 Y105.683 E52.0122
G1 X119.496 Y94.582 E52.5660
G1 X119.128 Y95.243 E52.6037
G1 X119.128 Y105.022 E53.0916
G1 X118.759 Y103.965 E53.1475
G1 X118.759 Y96.300 E53.5299
G0 F4800 E52.5299
G0 X133.864 Y111.101 F10800
G0 F4800 E53.5299
G1 X133.864 Y89.163 E54.6243 F3600
G1 X134.232 Y89.296 E54.6439
G1 X134.232 Y110.969 E55.7251
G1 X134.600 Y110.837 E55.7447
G1 X134.600 Y89.428 E56.8127
G1 X134.969 Y89.560 E56.8323
G1 X134.969 Y110.572 E57.8806
G1 X135.337 Y110.308 E57.9032
G1 X135.337 Y89.824 E58.9251
G1 X135.706 Y90.089 E58.9477
G1 X135.706 Y110.044 E59.9433
G1 X136.074 Y109.779 E59.9659
G1 X136.074 Y90.485 E60.9285
G1 X136.442 Y90.749 E60.9511
G1 X136.442 Y109.383 E61.8808
G1 X136.811 Y109.119 E61.9034
G1 X136.811 Y91.146 E62.8001
G1 X137.179 Y91.542 E62.8271
G1 X137.179 Y108.722 E63.6842
G1 X137.548 Y108.326 E63.7112
G1 X137.548 Y91.939 E64.5287
G1 X137.916 Y92.335 E64.5557
G1 X137.916 Y107.929 E65.3337
G1 X138.284 Y107.533 E65.3607
G1 X138.284 Y92.732 E66.0991
G1 X138.653 Y93.128 E66.1261
G1 X138.653 Y107.136 E66.8250
G1 X139.021 Y106.608 E66.8571
G1 X139.021 Y93.525 E67.5099
G1 X139.390 Y94.053 E67.5420
G1 X139.390 Y106.211 E68.1486
G1 X139.758 Y105.550 E68.1863
G1 X139.758 Y94.582 E68.7335
G1 X140.126 Y95.375 E68.7771
G1 X140.126 Y104.890 E69.2518
G1 X140.495 Y103.700 E69.3140
G1 X140.495 Y96.432 E69.6766


; ------------------------------------
; Layer #0
; ------------------------------------
G21 ; mm
G90 ; abs
G92 E0 ; reset extr
M106 S255
;segType:Support
G0 F4800 E-1.0000
G0 F300 Z1.950
G0 X129.892 Y91.075 F10800
G0 F4800 E0.0000
G1 X129.492 Y91.075 E0.0113 F900
G0 F4800 E-0.9887
G0 X129.497 Y89.928 F10800
G0 F4800 E0.0113
G1 X129.897 Y89.928 E0.0226 F900
G0 F4800 E-0.9774
G0 X129.864 Y88.600 F10800
G0 F4800 E0.0226
G1 X129.464 Y88.600 E0.0339 F900
G1 X129.464 Y88.200 E0.0452
G1 X129.864 Y88.200 E0.0565
G0 X129.433 Y87.518 F10800
G1 X129.833 Y87.518 E0.0679 F900
G1 X129.468 Y87.429 E0.0785
G1 X129.868 Y87.429 E0.0898
G1 X129.857 Y86.801 E0.1076
G1 X129.457 Y86.801 E0.1189
G1 X129.457 Y86.401 E0.1302
G1 X129.857 Y86.401 E0.1415
G1 X129.868 Y87.029 E0.1592
G1 X129.468 Y87.029 E0.1706
G0 X129.833 Y87.918 F10800
G1 X129.433 Y87.918 E0.1819 F900
G0 F4800 E-0.8181
G0 X129.475 Y89.092 F10800
G0 F4800 E0.1819
G1 X129.875 Y89.092 E0.1932 F900
G1 X129.875 Y89.492 E0.2045
G1 X129.475 Y89.492 E0.2158
G0 X129.897 Y90.328 F10800
G1 X129.497 Y90.328 E0.2271 F900
G0 F4800 E-0.7729
G0 X129.492 Y91.475 F10800
G0 F4800 E0.2271
G1 X129.892 Y91.475 E0.2384 F900
G1 X129.919 Y91.756 E0.2464
G1 X129.519 Y91.756 E0.2577
G1 X129.919 Y92.156 E0.2737
G1 X129.519 Y92.156 E0.2850
;segType:HShell
G0 F4800 E-0.7150
G0 X128.356 Y94.208 F10800
G0 F4800 E0.2850
G1 X128.689 Y93.850 E0.3012 F600
G1 X129.268 Y93.787
G1 X128.992 Y94.085 E0.3148
G1 X129.537 Y94.059
G1 X129.795 Y93.781 E0.3274
G1 X130.299 Y93.799
G1 X130.054 Y94.064 E0.3394
G1 X130.522 Y94.120
G1 X130.751 Y93.873 E0.3506
G1 X131.196 Y93.955
G1 X130.973 Y94.195 E0.3615
G1 X131.381 Y94.317
G1 X131.599 Y94.082 E0.3721
G1 X131.995 Y94.217
G1 X131.789 Y94.439 E0.3822
G1 X132.149 Y94.613
G1 X132.362 Y94.383 E0.3927
G1 X132.716 Y94.563
G1 X132.505 Y94.790 E0.4030
G1 X132.842 Y94.989
G1 X133.056 Y94.759 E0.4134
G1 X133.370 Y94.981
G1 X133.152 Y95.216 E0.4241
G1 X133.463 Y95.442
G1 X133.685 Y95.203 E0.4349
G1 X133.962 Y95.466
G1 X133.736 Y95.709 E0.4459
G1 X134.003 Y95.983
G1 X134.238 Y95.730 E0.4574
G1 X134.492 Y96.018
G1 X134.260 Y96.267 E0.4687
G1 X134.481 Y96.590
G1 X134.730 Y96.322 E0.4809
G1 X134.958 Y96.637
G1 X134.703 Y96.913 E0.4934
G1 X134.893 Y97.269
G1 X135.156 Y96.985 E0.5063
G1 X135.355 Y97.333
G1 X135.066 Y97.644 E0.5204
G1 X135.229 Y98.029
G1 X135.510 Y97.727 E0.5341
G1 X135.664 Y98.123
G1 X135.346 Y98.465 E0.5496
G1 X135.462 Y98.901
G1 X135.775 Y98.564 E0.5649
G1 X135.878 Y99.014
G1 X135.516 Y99.405 E0.5826
G1 X135.563 Y99.915
G1 X135.926 Y99.523 E0.6004
;segType:Perimeter
G0 X136.069 Y99.538 F10800
G1 X136.559 Y100.019 E0.6233 F359
G1 X136.495 Y100.960 E0.6546
G1 X136.283 Y101.940 E0.6880
G1 X135.930 Y102.879 E0.7213
G1 X135.444 Y103.757 E0.7547
G1 X134.835 Y104.556 E0.7882
G1 X134.115 Y105.258 E0.8216
G1 X133.299 Y105.849 E0.8551
G1 X132.406 Y106.315 E0.8886
G1 X131.399 Y106.663 E0.9240
G1 X130.423 Y106.843 E0.9570
G1 X129.391 Y106.878 E0.9914
G1 X128.411 Y106.769 E1.0242
G1 X127.469 Y106.523 E1.0566
G1 X126.544 Y106.135 E1.0899
G1 X125.681 Y105.615 E1.1234
G1 X124.903 Y104.976 E1.1569
G1 X124.228 Y104.231 E1.1904
G1 X123.669 Y103.397 E1.2238
G1 X123.238 Y102.491 E1.2571
G1 X122.943 Y101.532 E1.2905
G1 X122.791 Y100.541 E1.3238
G1 X122.785 Y99.539 E1.3572
G1 X122.926 Y98.546 E1.3905
G1 X123.209 Y97.584 E1.4239
G1 X123.630 Y96.673 E1.4572
G1 X124.179 Y95.832 E1.4907
G1 X124.846 Y95.080 E1.5241
G1 X125.615 Y94.431 E1.5576
G1 X126.472 Y93.902 E1.5911
G1 X127.470 Y93.477 E1.6271
G1 X128.411 Y93.231 E1.6595
G1 X129.428 Y93.120 E1.6935
G1 X130.423 Y93.157 E1.7266
G1 X131.400 Y93.337 E1.7597
G1 X132.331 Y93.653 E1.7924
G1 X133.230 Y94.109 E1.8259
G1 X134.053 Y94.690 E1.8594
G1 X134.781 Y95.384 E1.8929
G1 X135.400 Y96.176 E1.9263
G1 X135.896 Y97.049 E1.9597
G1 X136.260 Y97.984 E1.9931
G1 X136.484 Y98.961 E2.0264
G1 X136.558 Y99.901 E2.0578
G1 X136.074 Y100.389
;segType:Loop
G0 X136.078 Y100.991 F10800
G1 X135.901 Y101.809 E2.0856 F600
G1 X135.571 Y102.687 E2.1168
G1 X135.116 Y103.509 E2.1480
G1 X134.544 Y104.258 E2.1794
G1 X133.867 Y104.918 E2.2108
G1 X133.099 Y105.475 E2.2424
G1 X132.257 Y105.914 E2.2740
G1 X131.304 Y106.243 E2.3075
G1 X130.383 Y106.413 E2.3386
G1 X129.405 Y106.446 E2.3712
G1 X128.479 Y106.343 E2.4022
G1 X127.589 Y106.111 E2.4327
G1 X126.715 Y105.745 E2.4643
G1 X125.901 Y105.254 E2.4959
G1 X125.169 Y104.653 E2.5274
G1 X124.535 Y103.953 E2.5588
G1 X124.011 Y103.171 E2.5901
G1 X123.607 Y102.324 E2.6213
G1 X123.333 Y101.428 E2.6525
G1 X123.191 Y100.504 E2.6836
G1 X123.186 Y99.570 E2.7146
G1 X123.316 Y98.644 E2.7457
G1 X123.581 Y97.746 E2.7769
G1 X123.974 Y96.894 E2.8081
G1 X124.489 Y96.106 E2.8394
G1 X125.115 Y95.400 E2.8708
G1 X125.839 Y94.790 E2.9023
G1 X126.646 Y94.291 E2.9338
G1 X127.591 Y93.888 E2.9680
G1 X128.478 Y93.657 E2.9985
G1 X129.442 Y93.552 E3.0307
G1 X130.382 Y93.587 E3.0620
G1 X131.306 Y93.757 E3.0933
G1 X132.185 Y94.055 E3.1242
G1 X133.034 Y94.486 E3.1558
G1 X133.809 Y95.033 E3.1874
G1 X134.494 Y95.686 E3.2188
G1 X135.074 Y96.429 E3.2502
G1 X135.539 Y97.246 E3.2815
G1 X135.879 Y98.119 E3.3126
G1 X136.088 Y99.031 E3.3437
G1 X136.162 Y99.963 E3.3748
G1 X136.105 Y100.796 E3.4026
G0 F4800 E2.4026
G0 X135.234 Y101.159 F10800
G0 F4800 E3.4026
G1 X135.049 Y101.892 E3.4277 F600
G1 X134.651 Y102.786 E3.4603
G1 X134.111 Y103.597 E3.4927
G1 X133.444 Y104.303 E3.5250
G1 X132.671 Y104.883 E3.5572
G1 X131.813 Y105.323 E3.5892
G1 X130.896 Y105.610 E3.6212
G1 X129.945 Y105.739 E3.6531
G1 X128.986 Y105.705 E3.6850
G1 X128.046 Y105.509 E3.7170
G1 X127.151 Y105.156 E3.7490
G1 X126.326 Y104.656 E3.7811
G1 X125.594 Y104.021 E3.8133
G1 X124.978 Y103.268 E3.8456
G1 X124.496 Y102.419 E3.8781
G1 X124.164 Y101.497 E3.9107
G1 X123.991 Y100.530 E3.9433
G1 X123.985 Y99.548 E3.9760
G1 X124.144 Y98.578 E4.0087
G1 X124.464 Y97.652 E4.0413
G1 X124.935 Y96.797 E4.0738
G1 X125.541 Y96.035 E4.1061
G1 X126.263 Y95.390 E4.1384
G1 X127.082 Y94.879 E4.1705
G1 X127.973 Y94.514 E4.2025
G1 X128.910 Y94.305 E4.2344
G1 X129.869 Y94.258 E4.2663
G1 X130.821 Y94.373 E4.2982
G1 X131.742 Y94.649 E4.3302
G1 X132.605 Y95.077 E4.3622
G1 X133.386 Y95.646 E4.3944
G1 X134.062 Y96.342 E4.4267
G1 X134.613 Y97.146 E4.4591
G1 X135.023 Y98.034 E4.4916
G1 X135.276 Y98.982 E4.5243
G1 X135.366 Y99.961 E4.5569
G1 X135.289 Y100.941 E4.5896
G1 X135.283 Y100.967 E4.5905
;segType:Perimeter
G0 X135.403 Y99.492 F10800
G1 X134.960 Y100.023 E4.6136 F359
G1 X134.894 Y100.865 E4.6416
G1 X134.672 Y101.741 E4.6717
G1 X134.306 Y102.566 E4.7017
G1 X133.806 Y103.316 E4.7317
G1 X133.188 Y103.970 E4.7616
G1 X132.469 Y104.509 E4.7915
G1 X131.670 Y104.919 E4.8214
G1 X130.815 Y105.187 E4.8512
G1 X129.926 Y105.307 E4.8810
G1 X129.031 Y105.275 E4.9108
G1 X128.153 Y105.092 E4.9406
G1 X127.319 Y104.763 E4.9705
G1 X126.551 Y104.298 E5.0003
G1 X125.872 Y103.708 E5.0302
G1 X125.301 Y103.011 E5.0602
G1 X124.856 Y102.227 E5.0902
G1 X124.550 Y101.378 E5.1202
G1 X124.391 Y100.488 E5.1503
G1 X124.385 Y99.584 E5.1803
G1 X124.531 Y98.692 E5.2104
G1 X124.827 Y97.839 E5.2404
G1 X125.261 Y97.049 E5.2704
G1 X125.822 Y96.344 E5.3004
G1 X126.493 Y95.745 E5.3303
G1 X127.255 Y95.269 E5.3602
G1 X128.085 Y94.929 E5.3900
G1 X128.960 Y94.734 E5.4198
G1 X129.855 Y94.690 E5.4496
G1 X130.745 Y94.798 E5.4794
G1 X131.604 Y95.055 E5.5093
G1 X132.408 Y95.453 E5.5391
G1 X133.134 Y95.983 E5.5690
G1 X133.761 Y96.628 E5.5989
G1 X134.271 Y97.371 E5.6289
G1 X134.648 Y98.191 E5.6589
G1 X134.881 Y99.064 E5.6890
G1 X134.959 Y99.905 E5.7171
G1 X135.409 Y100.429
;segType:HShell
G0 X135.955 Y100.054 F10800
G1 X135.523 Y100.519 E5.7382 F600
G1 X135.438 Y101.172
G1 X135.914 Y100.659 E5.7615
G1 X135.795 Y101.348
G1 X135.243 Y101.943 E5.7884
G1 X135.547 Y102.177
G1 X134.685 Y103.106 E5.8306
G1 X134.958 Y103.372
G1 X133.553 Y104.887 E5.8993
G1 X133.068 Y104.848
G1 X132.341 Y105.630 E5.9348
G1 X131.949 Y105.492
G1 X131.536 Y105.937 E5.9550
G1 X131.197 Y105.740
G1 X130.857 Y106.107 E5.9716
G1 X130.247 Y106.202
G1 X130.552 Y105.874 E5.9865
G1 X129.957 Y105.954
G1 X129.710 Y106.220 E5.9986
G1 X129.201 Y106.207
G1 X129.452 Y105.937 E6.0109
G1 X128.950 Y105.916
G1 X128.729 Y106.154 E6.0217
G1 X128.285 Y106.071
G1 X128.513 Y105.825 E6.0328
G1 X128.077 Y105.734
G1 X127.866 Y105.962 E6.0432
G1 X127.468 Y105.829
G1 X127.685 Y105.596 E6.0537
G1 X127.303 Y105.445
G1 X127.093 Y105.672 E6.0640
G1 X126.727 Y105.505
G1 X126.940 Y105.275 E6.0744
G1 X126.607 Y105.073
G1 X126.393 Y105.303 E6.0849
G1 X126.059 Y105.102
G1 X126.273 Y104.871 E6.0954
G1 X125.977 Y104.629
G1 X125.758 Y104.865 E6.1061
G1 X125.462 Y104.622
G1 X125.688 Y104.379 E6.1172
G1 X125.408 Y104.119
G1 X125.184 Y104.361 E6.1281
G1 X124.927 Y104.077
G1 X125.164 Y103.821 E6.1397
G1 X124.920 Y103.523
G1 X124.672 Y103.789 E6.1518
G1 X124.454 Y103.464
G1 X124.703 Y103.196 E6.1640
G1 X124.505 Y102.847
G1 X124.235 Y103.138 E6.1772
G1 X124.048 Y102.778
G1 X124.310 Y102.497 E6.1899
G1 X124.164 Y102.092
G1 X123.872 Y102.407 E6.2042
G1 X123.721 Y102.008
G1 X124.018 Y101.688 E6.2187
G1 X123.914 Y101.239
G1 X123.592 Y101.586 E6.2345
G1 X123.490 Y101.134
G1 X123.830 Y100.768 E6.2511
G1 X123.789 Y100.251
G1 X123.416 Y100.652 E6.2693
G1 X123.389 Y100.121
G1 X123.786 Y99.693 E6.2887
G1 X123.864 Y99.048
G1 X123.389 Y99.559 E6.3119
G1 X123.483 Y98.897
G1 X124.021 Y98.318 E6.3382
G1 X123.679 Y98.124
G1 X124.398 Y97.350 E6.3733
G1 X124.096 Y97.114
G1 X126.271 Y94.771 E6.4797
G1 X126.704 Y94.866
G1 X127.269 Y94.257 E6.5073
G1 X127.639 Y94.420
G1 X128.034 Y93.995 E6.5266
G0 F4800 E5.5266
G0 X124.812 Y96.702 F10800
G0 X123.834 Y99.534
G0 X124.361 Y102.491
G0 X126.241 Y104.790
G0 X129.873 Y107.986
G0 F4800 E6.5266
;segType:Support
G1 X129.473 Y107.986 E6.5379 F900
G1 X129.497 Y108.275 E6.5461
G1 X129.897 Y108.275 E6.5574
G1 X129.897 Y108.675 E6.5687
G1 X129.497 Y108.675 E6.5800
G1 X129.547 Y109.057 E6.5909
G1 X129.947 Y109.057 E6.6022
G1 X129.947 Y109.457 E6.6136
G1 X129.547 Y109.457 E6.6249
G1 X129.885 Y109.628 E6.6356
G1 X129.485 Y109.628 E6.6469
G1 X129.885 Y110.028 E6.6629
G1 X129.485 Y110.028 E6.6742
G1 X129.844 Y110.243 E6.6860
G1 X129.444 Y110.243 E6.6973
G0 X129.484 Y111.236 F10800
G1 X129.884 Y111.236 E6.7086 F900
G1 X129.870 Y111.749 E6.7231
G1 X129.470 Y111.749 E6.7344
G0 F4800 E5.7344
G0 X129.507 Y112.831 F10800
G0 F4800 E6.7344
G1 X129.907 Y112.831 E6.7457 F900
G1 X129.525 Y112.663 E6.7575
G1 X129.925 Y112.663 E6.7688
G0 F4800 E5.7688
G0 X129.518 Y113.658 F10800
G0 F4800 E6.7688
G1 X129.918 Y113.658 E6.7802 F900
G1 X129.918 Y113.258 E6.7915
G1 X129.507 Y113.231 E6.8031
G0 F4800 E5.8031
G0 X129.925 Y112.263 F10800
G0 F4800 E6.8031
G1 X129.525 Y112.263 E6.8144 F900
G1 X129.870 Y112.149 E6.8247
G1 X129.470 Y112.149 E6.8360
G0 F4800 E5.8360
G0 X129.444 Y110.643 F10800
G0 F4800 E6.8360
G1 X129.844 Y110.643 E6.8473 F900
G1 X129.484 Y110.836 E6.8589
G1 X129.884 Y110.836 E6.8702
; ------------------------------------
; Layer #1
; ------------------------------------
G21 ; mm
G90 ; abs
G92 E0 ; reset extr
M106 S255
;segType:Support
G0 F4800 E-1.0000
G0 F300 Z1.900
G0 X129.884 Y110.836 F10800
G0 F4800 E0.0000
G1 X129.484 Y110.836 E0.0113 F5053
G1 X129.844 Y110.643 E0.0229
G1 X129.444 Y110.643 E0.0342
G0 F4800 E-0.9658
G0 X129.547 Y109.057 F10800
G0 F4800 E0.0342
G1 X129.947 Y109.057 E0.0455 F5053
G1 X129.897 Y108.675 E0.0564
G1 X129.497 Y108.675 E0.0677
G1 X129.497 Y108.275 E0.0790
G1 X129.897 Y108.275 E0.0903
G1 X129.873 Y107.986 E0.0985
G1 X129.473 Y107.986 E0.1098
G0 F4800 E-0.8902
G0 X125.544 Y105.760 F10800
G0 X124.060 Y104.328
G0 X123.050 Y102.530
G0 X122.602 Y100.517
G0 X122.752 Y98.460
G0 X124.060 Y95.672
G0 X126.427 Y93.701
G0 X129.519 Y92.156
G0 F4800 E0.1098
G1 X129.919 Y92.156 E0.1211 F5053
G1 X129.919 Y91.756 E0.1324
G1 X129.519 Y91.756 E0.1437
G0 X129.492 Y91.075 F10800
G1 X129.892 Y91.075 E0.1550 F5053
G0 X129.897 Y90.328 F10800
G1 X129.497 Y90.328 E0.1663 F5053
G0 X129.875 Y89.492 F10800
G1 X129.475 Y89.492 E0.1776 F5053
G0 X129.464 Y88.600 F10800
G1 X129.864 Y88.600 E0.1890 F5053
G0 X129.833 Y87.918 F10800
G1 X129.433 Y87.918 E0.2003 F5053
G0 F4800 E-0.7997
G0 X129.857 Y86.401 F10800
G0 F4800 E0.2003
G1 X129.457 Y86.401 E0.2116 F5053
G1 X129.457 Y86.801 E0.2229
G1 X129.857 Y86.801 E0.2342
G1 X129.868 Y87.029 E0.2407
G1 X129.468 Y87.029 E0.2520
G1 X129.433 Y87.518 E0.2658
G1 X129.833 Y87.518 E0.2771
G1 X129.468 Y87.429 E0.2877
G1 X129.868 Y87.429 E0.2990
G0 X129.864 Y88.200 F10800
G1 X129.464 Y88.200 E0.3103 F5053
G0 X129.875 Y89.092 F10800
G1 X129.475 Y89.092 E0.3217 F5053
G0 X129.497 Y89.928 F10800
G1 X129.897 Y89.928 E0.3330 F5053
G0 F4800 E-0.6670
G0 X129.492 Y91.475 F10800
G0 F4800 E0.3330
G1 X129.892 Y91.475 E0.3443 F5053
G0 F4800 E-0.6557
G0 X131.377 Y93.113 F10800
G0 X134.347 Y96.387
G0 F4800 E0.3443
;segType:HShell
G1 X135.459 Y97.585 E0.3986 F3369
G1 X135.139 Y97.801
G1 X135.757 Y98.467 E0.4288
G1 X135.393 Y98.637
G1 X135.904 Y99.187 E0.4538
G1 X135.512 Y99.326
G1 X135.949 Y99.796 E0.4751
;segType:Loop
G0 X135.229 Y101.197 F10800
G1 X135.038 Y101.930 E0.5003 F3369
G1 X134.635 Y102.822 E0.5329
G1 X134.089 Y103.629 E0.5653
G1 X133.417 Y104.331 E0.5976
G1 X132.640 Y104.906 E0.6298
G1 X131.779 Y105.340 E0.6618
G1 X130.859 Y105.621 E0.6938
G1 X129.907 Y105.743 E0.7257
G1 X128.947 Y105.702 E0.7577
G1 X128.008 Y105.500 E0.7896
G1 X127.115 Y105.141 E0.8216
G1 X126.293 Y104.635 E0.8538
G1 X125.566 Y103.995 E0.8860
G1 X124.954 Y103.238 E0.9184
G1 X124.477 Y102.385 E0.9509
G1 X124.151 Y101.460 E0.9835
G1 X123.985 Y100.492 E1.0161
G1 X123.985 Y99.508 E1.0489
G1 X124.151 Y98.540 E1.0815
G1 X124.477 Y97.615 E1.1141
G1 X124.954 Y96.762 E1.1466
G1 X125.566 Y96.005 E1.1790
G1 X126.293 Y95.365 E1.2112
G1 X127.115 Y94.859 E1.2433
G1 X128.008 Y94.500 E1.2754
G1 X128.947 Y94.298 E1.3073
G1 X129.907 Y94.257 E1.3393
G1 X130.859 Y94.379 E1.3712
G1 X131.779 Y94.660 E1.4032
G1 X132.640 Y95.094 E1.4352
G1 X133.417 Y95.669 E1.4674
G1 X134.089 Y96.371 E1.4997
G1 X134.635 Y97.178 E1.5321
G1 X135.038 Y98.070 E1.5647
G1 X135.286 Y99.020 E1.5974
G1 X135.369 Y100.000 E1.6300
G1 X135.286 Y100.980 E1.6627
G1 X135.279 Y101.006 E1.6637
;segType:Perimeter
G0 X136.074 Y99.575 F10800
G1 X136.562 Y100.059 E1.6865 F2021
G1 X136.493 Y101.000 E1.7179
G1 X136.275 Y101.979 E1.7512
G1 X135.916 Y102.916 E1.7846
G1 X135.424 Y103.792 E1.8180
G1 X134.810 Y104.588 E1.8515
G1 X134.086 Y105.287 E1.8849
G1 X133.266 Y105.873 E1.9184
G1 X132.370 Y106.334 E1.9520
G1 X131.415 Y106.659 E1.9855
G1 X130.423 Y106.843 E2.0191
G1 X129.367 Y106.876 E2.0542
G1 X128.411 Y106.769 E2.0862
G1 X127.435 Y106.514 E2.1198
G1 X126.506 Y106.120 E2.1533
G1 X125.646 Y105.595 E2.1868
G1 X124.872 Y104.951 E2.2203
G1 X124.201 Y104.201 E2.2538
G1 X123.647 Y103.363 E2.2872
G1 X123.220 Y102.454 E2.3206
G1 X122.931 Y101.493 E2.3540
G1 X122.785 Y100.501 E2.3873
G1 X122.785 Y99.499 E2.4207
G1 X122.931 Y98.507 E2.4540
G1 X123.220 Y97.546 E2.4874
G1 X123.647 Y96.637 E2.5208
G1 X124.201 Y95.799 E2.5542
G1 X124.872 Y95.049 E2.5877
G1 X125.646 Y94.405 E2.6211
G1 X126.506 Y93.880 E2.6547
G1 X127.434 Y93.486 E2.6882
G1 X128.457 Y93.224 E2.7233
G1 X129.414 Y93.122 E2.7553
G1 X130.473 Y93.165 E2.7906
G1 X131.415 Y93.341 E2.8224
G1 X132.370 Y93.666 E2.8560
G1 X133.266 Y94.127 E2.8895
G1 X134.086 Y94.713 E2.9230
G1 X134.810 Y95.412 E2.9565
G1 X135.424 Y96.208 E2.9899
G1 X135.916 Y97.084 E3.0233
G1 X136.275 Y98.021 E3.0567
G1 X136.493 Y99.000 E3.0901
G1 X136.562 Y99.941 E3.1215
G1 X136.074 Y100.425
G0 X133.279 Y104.149 F10800
G0 X131.703 Y105.121
G0 X128.526 Y105.831
;segType:HShell
G1 X128.838 Y106.167 E3.1367 F3369
G1 X129.415 Y106.228
G1 X129.135 Y105.926 E3.1504
G1 X129.678 Y105.949
G1 X129.922 Y106.212 E3.1623
G1 X130.420 Y106.187
G1 X130.177 Y105.926 E3.1742
G1 X130.642 Y105.866
G1 X130.865 Y106.105 E3.1851
G1 X131.305 Y106.019
G1 X131.081 Y105.777 E3.1960
G1 X131.487 Y105.653
G1 X131.701 Y105.884 E3.2065
G1 X132.097 Y105.749
G1 X131.887 Y105.523 E3.2167
G1 X132.242 Y105.344
G1 X132.455 Y105.574 E3.2271
G1 X132.808 Y105.392
G1 X132.597 Y105.165 E3.2374
G1 X132.924 Y104.956
G1 X133.139 Y105.188 E3.2479
G1 X133.452 Y104.964
G1 X133.233 Y104.728 E3.2586
G1 X133.542 Y104.499
G1 X133.759 Y104.734 E3.2693
G1 X134.034 Y104.469
G1 X133.807 Y104.224 E3.2804
G1 X134.071 Y103.947
G1 X134.309 Y104.203 E3.2920
G1 X134.555 Y103.907
G1 X134.320 Y103.654 E3.3035
G1 X134.539 Y103.329
G1 X134.792 Y103.601 E3.3159
G1 X135.012 Y103.277
G1 X134.759 Y103.004 E3.3282
G1 X134.940 Y102.638
G1 X135.209 Y102.928 E3.3414
G1 X135.399 Y102.571
G1 X135.111 Y102.261 E3.3555
G1 X135.263 Y101.864
G1 X135.551 Y102.174 E3.3695
G1 X135.703 Y101.776
G1 X135.377 Y101.425 E3.3854
G1 X135.486 Y100.982
G1 X135.803 Y101.323 E3.4010
G1 X135.900 Y100.867
G1 X135.530 Y100.467 E3.4191
G1 X135.565 Y99.944
G1 X135.939 Y100.346 E3.4373
;segType:Perimeter
G0 X135.409 Y99.532 F10800
G1 X134.962 Y100.059 E3.4603 F2021
G1 X134.891 Y100.901 E3.4884
G1 X134.663 Y101.776 E3.5185
G1 X134.291 Y102.599 E3.5485
G1 X133.786 Y103.346 E3.5785
G1 X133.163 Y103.996 E3.6085
G1 X132.440 Y104.530 E3.6384
G1 X131.638 Y104.935 E3.6683
G1 X130.780 Y105.197 E3.6981
G1 X129.891 Y105.311 E3.7279
G1 X128.995 Y105.273 E3.7577
G1 X128.118 Y105.084 E3.7876
G1 X127.285 Y104.749 E3.8174
G1 X126.520 Y104.278 E3.8473
G1 X125.845 Y103.684 E3.8772
G1 X125.279 Y102.983 E3.9072
G1 X124.839 Y102.195 E3.9372
G1 X124.538 Y101.343 E3.9673
G1 X124.385 Y100.452 E3.9973
G1 X124.385 Y99.548 E4.0274
G1 X124.538 Y98.657 E4.0575
G1 X124.839 Y97.805 E4.0876
G1 X125.279 Y97.017 E4.1176
G1 X125.845 Y96.316 E4.1475
G1 X126.520 Y95.722 E4.1775
G1 X127.285 Y95.251 E4.2073
G1 X128.118 Y94.916 E4.2372
G1 X128.995 Y94.727 E4.2670
G1 X129.891 Y94.689 E4.2968
G1 X130.780 Y94.803 E4.3267
G1 X131.638 Y95.065 E4.3565
G1 X132.440 Y95.470 E4.3864
G1 X133.163 Y96.004 E4.4163
G1 X133.786 Y96.654 E4.4462
G1 X134.291 Y97.401 E4.4762
G1 X134.663 Y98.224 E4.5062
G1 X134.891 Y99.099 E4.5363
G1 X134.962 Y99.941 E4.5644
G1 X135.409 Y100.468
;segType:Loop
G0 X136.075 Y101.029 F10800
G1 X135.893 Y101.846 E4.5923 F3369
G1 X135.558 Y102.722 E4.6235
G1 X135.098 Y103.542 E4.6547
G1 X134.521 Y104.288 E4.6861
G1 X133.840 Y104.945 E4.7176
G1 X133.068 Y105.497 E4.7491
G1 X132.222 Y105.932 E4.7808
G1 X131.321 Y106.240 E4.8125
G1 X130.383 Y106.413 E4.8442
G1 X129.382 Y106.445 E4.8775
G1 X128.479 Y106.343 E4.9077
G1 X127.556 Y106.102 E4.9394
G1 X126.679 Y105.730 E4.9711
G1 X125.868 Y105.235 E5.0027
G1 X125.140 Y104.629 E5.0342
G1 X124.510 Y103.925 E5.0656
G1 X123.990 Y103.140 E5.0970
G1 X123.591 Y102.290 E5.1282
G1 X123.321 Y101.393 E5.1593
G1 X123.185 Y100.467 E5.1905
G1 X123.185 Y99.533 E5.2215
G1 X123.321 Y98.607 E5.2527
G1 X123.591 Y97.710 E5.2838
G1 X123.990 Y96.860 E5.3150
G1 X124.510 Y96.075 E5.3464
G1 X125.140 Y95.371 E5.3778
G1 X125.868 Y94.765 E5.4093
G1 X126.679 Y94.270 E5.4409
G1 X127.554 Y93.899 E5.4725
G1 X128.524 Y93.650 E5.5058
G1 X129.426 Y93.553 E5.5360
G1 X130.431 Y93.595 E5.5694
G1 X131.320 Y93.760 E5.5995
G1 X132.222 Y94.068 E5.6312
G1 X133.068 Y94.503 E5.6629
G1 X133.840 Y95.055 E5.6944
G1 X134.521 Y95.712 E5.7259
G1 X135.098 Y96.458 E5.7573
G1 X135.558 Y97.278 E5.7885
G1 X135.893 Y98.154 E5.8197
G1 X136.096 Y99.068 E5.8508
G1 X136.165 Y100.000 E5.8819
G1 X136.103 Y100.833 E5.9097
G0 F4800 E4.9097
G0 X135.427 Y99.722 F10800
G0 X134.456 Y97.590
G0 X133.485 Y95.459
G0 F4800 E5.9097
;segType:HShell
G1 X132.593 Y94.497 E5.9534 F3369
G1 X132.199 Y94.634
G1 X131.726 Y94.125 E5.9765
G1 X131.381 Y94.315
G1 X131.017 Y93.923 E5.9943
G1 X130.391 Y93.809
G1 X130.700 Y94.141 E6.0094
G1 X130.108 Y94.066
G1 X129.849 Y93.786 E6.0220
G1 X129.323 Y93.781
G1 X129.577 Y94.055 E6.0345
G1 X129.076 Y94.077
G1 X128.849 Y93.832 E6.0456
G1 X128.395 Y93.904
G1 X128.622 Y94.148 E6.0567
G1 X128.188 Y94.242
G1 X127.975 Y94.012 E6.0671
G1 X127.561 Y94.127
G1 X127.779 Y94.362 E6.0777
G1 X127.399 Y94.515
G1 X127.187 Y94.286 E6.0881
G1 X126.813 Y94.445
G1 X127.021 Y94.669 E6.0983
G1 X126.690 Y94.873
G1 X126.475 Y94.642 E6.1088
G1 X126.143 Y94.845
G1 X126.358 Y95.077 E6.1193
G1 X126.047 Y95.303
G1 X125.830 Y95.069 E6.1299
G1 X125.536 Y95.314
G1 X125.760 Y95.556 E6.1409
G1 X125.474 Y95.808
G1 X125.246 Y95.563 E6.1520
G1 X124.990 Y95.849
G1 X125.224 Y96.100 E6.1634
G1 X124.981 Y96.400
G1 X124.734 Y96.134 E6.1755
G1 X124.507 Y96.450
G1 X124.749 Y96.711 E6.1873
G1 X124.553 Y97.061
G1 X124.290 Y96.778 E6.2002
G1 X124.090 Y97.124
G1 X124.358 Y97.412 E6.2133
G1 X124.198 Y97.801
G1 X123.915 Y97.497 E6.2271
G1 X123.750 Y97.880
G1 X124.054 Y98.208 E6.2419
G1 X123.931 Y98.636
G1 X123.623 Y98.304 E6.2570
G1 X123.505 Y98.738
G1 X123.850 Y99.110 E6.2739
G1 X123.785 Y99.601
G1 X123.433 Y99.223 E6.2910
G1 X123.385 Y99.732
G1 X123.785 Y100.162 E6.3106
G1 X123.829 Y100.772
G1 X123.385 Y100.293 E6.3323
G1 X123.456 Y100.930
G1 X123.948 Y101.460 E6.3563
G1 X123.612 Y101.660
G1 X124.250 Y102.347 E6.3875
G1 X123.958 Y102.593
G1 X126.587 Y105.426 E6.5161
G1 X127.019 Y105.330
G1 X127.498 Y105.846 E6.5395
G1 X127.853 Y105.668
G1 X128.209 Y106.051 E6.5569
;segType:Support
G0 F4800 E5.5569
G0 X129.485 Y109.628 F10800
G0 F4800 E6.5569
G1 X129.885 Y109.628 E6.5682 F5053
G1 X129.547 Y109.457 E6.5789
G1 X129.947 Y109.457 E6.5902
G1 X129.885 Y110.028 E6.6065
G1 X129.485 Y110.028 E6.6178
G1 X129.844 Y110.243 E6.6296
G1 X129.444 Y110.243 E6.6409
G0 F4800 E5.6409
G0 X129.470 Y111.749 F10800
G0 F4800 E6.6409
G1 X129.870 Y111.749 E6.6522 F5053
G0 F4800 E5.6522
G0 X129.518 Y113.658 F10800
G0 F4800 E6.6522
G1 X129.918 Y113.658 E6.6635 F5053
G1 X129.918 Y113.258 E6.6748
G1 X129.507 Y113.231 E6.6865
G1 X129.507 Y112.831 E6.6978
G1 X129.907 Y112.831 E6.7091
G1 X129.525 Y112.663 E6.7209
G1 X129.925 Y112.663 E6.7322
G1 X129.925 Y112.263 E6.7435
G1 X129.525 Y112.263 E6.7548
G1 X129.870 Y112.149 E6.7651
G1 X129.470 Y112.149 E6.7764
G0 X129.484 Y111.236 F10800
G1 X129.884 Y111.236 E6.7877 F5053
; ------------------------------------
; Layer #2
; ------------------------------------
G21 ; mm
G90 ; abs
G92 E0 ; reset extr
M106 S255
;segType:Support
G0 F4800 E-1.0000
G0 F300 Z2.100
G0 X129.884 Y111.236 F10800
G0 F4800 E0.0000
G1 X129.484 Y111.236 E0.0113 F5094
G1 X129.444 Y110.643 E0.0281
G1 X129.844 Y110.643 E0.0394
G1 X129.484 Y110.836 E0.0510
G1 X129.884 Y110.836 E0.0623
G0 X129.885 Y110.028 F10800
G1 X129.485 Y110.028 E0.0736 F5094
G1 X129.844 Y110.243 E0.0854
G1 X129.444 Y110.243 E0.0967
G1 X129.485 Y109.628 E0.1141
G1 X129.885 Y109.628 E0.1255
G1 X129.547 Y109.457 E0.1362
G1 X129.947 Y109.457 E0.1475
G0 F4800 E-0.8525
G0 X129.492 Y105.890 F10800
G0 X126.207 Y104.769
G0 X124.342 Y102.456
G0 X123.834 Y99.493
G0 X124.832 Y96.666
G0 X127.051 Y94.711
G0 X128.360 Y94.205
G0 F4800 E0.1475
;segType:HShell
G1 X128.691 Y93.848 E0.1637 F3396
G1 X129.269 Y93.787
G1 X128.997 Y94.080 E0.1770
G1 X129.539 Y94.057
G1 X129.794 Y93.782 E0.1895
G1 X130.299 Y93.800
G1 X130.058 Y94.059 E0.2013
G1 X130.523 Y94.119
G1 X130.752 Y93.873 E0.2124
G1 X131.197 Y93.954
G1 X130.977 Y94.191 E0.2232
G1 X131.383 Y94.315
G1 X131.598 Y94.084 E0.2336
G1 X131.995 Y94.218
G1 X131.789 Y94.439 E0.2437
G1 X132.151 Y94.610
G1 X132.365 Y94.380 E0.2541
G1 X132.717 Y94.562
G1 X132.506 Y94.789 E0.2645
G1 X132.845 Y94.985
G1 X133.059 Y94.755 E0.2749
G1 X133.372 Y94.979
G1 X133.154 Y95.214 E0.2856
G1 X133.463 Y95.442
G1 X133.685 Y95.203 E0.2964
G1 X133.964 Y95.464
G1 X133.739 Y95.706 E0.3074
G1 X134.004 Y95.982
G1 X134.239 Y95.729 E0.3189
G1 X134.495 Y96.015
G1 X134.264 Y96.263 E0.3302
G1 X134.483 Y96.588
G1 X134.731 Y96.321 E0.3423
G1 X134.962 Y96.633
G1 X134.703 Y96.913 E0.3550
G1 X134.897 Y97.265
G1 X135.158 Y96.983 E0.3678
G1 X135.355 Y97.333
G1 X135.067 Y97.643 E0.3819
G1 X135.234 Y98.024
G1 X135.512 Y97.725 E0.3955
G1 X135.664 Y98.122
G1 X135.348 Y98.463 E0.4109
G1 X135.462 Y98.901
G1 X135.778 Y98.561 E0.4264
G1 X135.879 Y99.014
G1 X135.519 Y99.401 E0.4439
G1 X135.562 Y99.915
G1 X135.929 Y99.521 E0.4619
;segType:Perimeter
G0 X136.074 Y99.575 F10800
G1 X136.562 Y100.059 E0.4847 F2037
G1 X136.493 Y101.000 E0.5161
G1 X136.275 Y101.979 E0.5494
G1 X135.916 Y102.916 E0.5828
G1 X135.424 Y103.792 E0.6162
G1 X134.810 Y104.588 E0.6497
G1 X134.086 Y105.287 E0.6831
G1 X133.266 Y105.873 E0.7166
G1 X132.370 Y106.334 E0.7502
G1 X131.415 Y106.659 E0.7837
G1 X130.422 Y106.843 E0.8173
G1 X129.457 Y106.880 E0.8494
G1 X128.411 Y106.768 E0.8844
G1 X127.435 Y106.514 E0.9180
G1 X126.506 Y106.120 E0.9515
G1 X125.646 Y105.595 E0.9850
G1 X124.872 Y104.951 E1.0185
G1 X124.201 Y104.201 E1.0520
G1 X123.647 Y103.363 E1.0854
G1 X123.220 Y102.454 E1.1188
G1 X122.931 Y101.493 E1.1522
G1 X122.785 Y100.501 E1.1855
G1 X122.785 Y99.499 E1.2189
G1 X122.931 Y98.507 E1.2522
G1 X123.220 Y97.546 E1.2856
G1 X123.647 Y96.637 E1.3190
G1 X124.201 Y95.799 E1.3524
G1 X124.872 Y95.049 E1.3859
G1 X125.646 Y94.405 E1.4194
G1 X126.506 Y93.880 E1.4529
G1 X127.434 Y93.487 E1.4864
G1 X128.480 Y93.221 E1.5223
G1 X129.414 Y93.122 E1.5535
G1 X130.423 Y93.157 E1.5871
G1 X131.370 Y93.330 E1.6191
G1 X132.370 Y93.666 E1.6542
G1 X133.266 Y94.127 E1.6877
G1 X134.086 Y94.713 E1.7212
G1 X134.810 Y95.412 E1.7547
G1 X135.424 Y96.208 E1.7881
G1 X135.916 Y97.084 E1.8216
G1 X136.275 Y98.021 E1.8549
G1 X136.493 Y99.000 E1.8883
G1 X136.562 Y99.941 E1.9197
G1 X136.074 Y100.425
;segType:Loop
G0 X136.075 Y101.029 F10800
G1 X135.893 Y101.846 E1.9475 F3396
G1 X135.558 Y102.722 E1.9787
G1 X135.098 Y103.542 E2.0100
G1 X134.521 Y104.288 E2.0413
G1 X133.840 Y104.945 E2.0728
G1 X133.068 Y105.497 E2.1044
G1 X132.222 Y105.932 E2.1360
G1 X131.321 Y106.240 E2.1677
G1 X130.381 Y106.413 E2.1995
G1 X129.470 Y106.449 E2.2298
G1 X128.478 Y106.343 E2.2630
G1 X127.556 Y106.102 E2.2947
G1 X126.679 Y105.730 E2.3264
G1 X125.868 Y105.235 E2.3580
G1 X125.140 Y104.629 E2.3895
G1 X124.510 Y103.925 E2.4209
G1 X123.990 Y103.140 E2.4522
G1 X123.591 Y102.290 E2.4834
G1 X123.321 Y101.393 E2.5146
G1 X123.185 Y100.467 E2.5457
G1 X123.185 Y99.533 E2.5768
G1 X123.321 Y98.607 E2.6079
G1 X123.591 Y97.710 E2.6390
G1 X123.990 Y96.860 E2.6703
G1 X124.510 Y96.075 E2.7016
G1 X125.140 Y95.371 E2.7330
G1 X125.868 Y94.765 E2.7645
G1 X126.679 Y94.270 E2.7961
G1 X127.554 Y93.899 E2.8277
G1 X128.546 Y93.647 E2.8618
G1 X129.427 Y93.553 E2.8913
G1 X130.383 Y93.587 E2.9231
G1 X131.276 Y93.750 E2.9533
G1 X132.224 Y94.069 E2.9865
G1 X133.068 Y94.503 E3.0181
G1 X133.840 Y95.055 E3.0497
G1 X134.521 Y95.712 E3.0811
G1 X135.098 Y96.458 E3.1125
G1 X135.558 Y97.278 E3.1438
G1 X135.893 Y98.154 E3.1750
G1 X136.096 Y99.068 E3.2061
G1 X136.165 Y100.000 E3.2372
G1 X136.103 Y100.833 E3.2650
G0 F4800 E2.2650
G0 X135.229 Y101.197 F10800
G0 F4800 E3.2650
G1 X135.038 Y101.930 E3.2902 F3396
G1 X134.635 Y102.822 E3.3227
G1 X134.089 Y103.629 E3.3551
G1 X133.417 Y104.331 E3.3874
G1 X132.640 Y104.906 E3.4196
G1 X131.779 Y105.340 E3.4517
G1 X130.859 Y105.621 E3.4837
G1 X129.907 Y105.743 E3.5156
G1 X128.947 Y105.702 E3.5475
G1 X128.008 Y105.500 E3.5795
G1 X127.115 Y105.141 E3.6115
G1 X126.293 Y104.635 E3.6436
G1 X125.566 Y103.995 E3.6758
G1 X124.954 Y103.238 E3.7082
G1 X124.477 Y102.385 E3.7407
G1 X124.151 Y101.460 E3.7733
G1 X123.985 Y100.492 E3.8060
G1 X123.985 Y99.508 E3.8387
G1 X124.151 Y98.540 E3.8714
G1 X124.477 Y97.615 E3.9040
G1 X124.954 Y96.762 E3.9365
G1 X125.566 Y96.005 E3.9689
G1 X126.293 Y95.365 E4.0011
G1 X127.115 Y94.859 E4.0332
G1 X128.008 Y94.500 E4.0652
G1 X128.947 Y94.298 E4.0972
G1 X129.907 Y94.257 E4.1291
G1 X130.859 Y94.379 E4.1610
G1 X131.779 Y94.660 E4.1930
G1 X132.640 Y95.094 E4.2251
G1 X133.417 Y95.669 E4.2573
G1 X134.089 Y96.371 E4.2896
G1 X134.635 Y97.178 E4.3220
G1 X135.038 Y98.070 E4.3545
G1 X135.286 Y99.020 E4.3872
G1 X135.369 Y100.000 E4.4199
G1 X135.286 Y100.980 E4.4526
G1 X135.279 Y101.006 E4.4535
;segType:Perimeter
G0 X135.409 Y99.532 F10800
G1 X134.962 Y100.059 E4.4765 F2037
G1 X134.891 Y100.901 E4.5046
G1 X134.663 Y101.776 E4.5347
G1 X134.291 Y102.599 E4.5647
G1 X133.786 Y103.346 E4.5947
G1 X133.163 Y103.996 E4.6247
G1 X132.440 Y104.530 E4.6545
G1 X131.638 Y104.935 E4.6844
G1 X130.780 Y105.197 E4.7143
G1 X129.891 Y105.311 E4.7441
G1 X128.995 Y105.273 E4.7739
G1 X128.118 Y105.084 E4.8037
G1 X127.285 Y104.749 E4.8336
G1 X126.520 Y104.278 E4.8635
G1 X125.845 Y103.684 E4.8934
G1 X125.279 Y102.983 E4.9234
G1 X124.839 Y102.195 E4.9534
G1 X124.538 Y101.343 E4.9834
G1 X124.385 Y100.452 E5.0135
G1 X124.385 Y99.548 E5.0436
G1 X124.538 Y98.657 E5.0737
G1 X124.839 Y97.805 E5.1037
G1 X125.279 Y97.017 E5.1337
G1 X125.845 Y96.316 E5.1637
G1 X126.520 Y95.722 E5.1936
G1 X127.285 Y95.251 E5.2235
G1 X128.118 Y94.916 E5.2534
G1 X128.995 Y94.727 E5.2832
G1 X129.891 Y94.689 E5.3130
G1 X130.780 Y94.803 E5.3428
G1 X131.638 Y95.065 E5.3727
G1 X132.440 Y95.470 E5.4026
G1 X133.163 Y96.004 E5.4325
G1 X133.786 Y96.654 E5.4624
G1 X134.291 Y97.401 E5.4924
G1 X134.663 Y98.224 E5.5224
G1 X134.891 Y99.099 E5.5525
G1 X134.962 Y99.941 E5.5806
G1 X135.409 Y100.468
;segType:HShell
G0 X135.916 Y100.657 F10800
G1 X135.445 Y101.164 E5.6036 F3396
G1 X135.526 Y100.516
G1 X135.960 Y100.048 E5.6248
G0 X133.925 Y96.524 F10800
G0 X132.532 Y95.297
G0 X130.816 Y94.608
G0 X128.030 Y93.999
G1 X127.641 Y94.418 E5.6438 F3396
G1 X127.278 Y94.247
G1 X126.708 Y94.861 E5.6717
G1 X126.280 Y94.762
G1 X124.094 Y97.117 E5.7786
G1 X124.383 Y97.366
G1 X123.676 Y98.128 E5.8132
G1 X124.012 Y98.327
G1 X123.481 Y98.899 E5.8391
G1 X123.385 Y99.563
G1 X123.860 Y99.053 E5.8623
G1 X123.785 Y99.694
G1 X123.385 Y100.125 E5.8818
G1 X123.415 Y100.654
G1 X123.785 Y100.256 E5.8999
G1 X123.829 Y100.769
G1 X123.486 Y101.138 E5.9167
G1 X123.590 Y101.588
G1 X123.910 Y101.243 E5.9323
G1 X124.018 Y101.689
G1 X123.718 Y102.012 E5.9470
G1 X123.871 Y102.408
G1 X124.161 Y102.095 E5.9612
G1 X124.308 Y102.499
G1 X124.046 Y102.781 E5.9740
G1 X124.235 Y103.138
G1 X124.503 Y102.849 E5.9871
G1 X124.699 Y103.199
G1 X124.451 Y103.466 E5.9992
G1 X124.669 Y103.793
G1 X124.919 Y103.523 E6.0114
G1 X125.162 Y103.823
G1 X124.925 Y104.079 E6.0230
G1 X125.181 Y104.364
G1 X125.404 Y104.123 E6.0340
G1 X125.687 Y104.380
G1 X125.461 Y104.624 E6.0450
G1 X125.755 Y104.868
G1 X125.974 Y104.632 E6.0557
G1 X126.273 Y104.871
G1 X126.058 Y105.103 E6.0663
G1 X126.390 Y105.306
G1 X126.605 Y105.075 E6.0768
G1 X126.936 Y105.279
G1 X126.723 Y105.509 E6.0872
G1 X127.092 Y105.673
G1 X127.302 Y105.446 E6.0975
G1 X127.682 Y105.599
G1 X127.465 Y105.832 E6.1081
G1 X127.866 Y105.961
G1 X128.077 Y105.734 E6.1184
G1 X128.511 Y105.828
G1 X128.286 Y106.071 E6.1294
G1 X128.730 Y106.153
G1 X128.948 Y105.918 E6.1401
G1 X129.449 Y105.939
G1 X129.204 Y106.204 E6.1521
G1 X129.706 Y106.224
G1 X129.957 Y105.954 E6.1643
G1 X130.548 Y105.878
G1 X130.247 Y106.203 E6.1791
G1 X130.857 Y106.107
G1 X131.195 Y105.742 E6.1956
G1 X131.531 Y105.942
G1 X131.949 Y105.492 E6.2160
G1 X132.338 Y105.634
G1 X133.060 Y104.856 E6.2513
G1 X133.538 Y104.902
G1 X134.959 Y103.371 E6.3208
G1 X134.705 Y103.084
G1 X135.552 Y102.172 E6.3622
G1 X135.242 Y101.944
G1 X135.799 Y101.345 E6.3894
G0 F4800 E5.3894
G0 X134.764 Y97.095 F10800
G0 X129.492 Y91.475
G0 F4800 E6.3894
;segType:Support
G1 X129.892 Y91.475 E6.4007 F5094
G1 X129.892 Y91.075 E6.4120
G1 X129.492 Y91.075 E6.4234
G0 X129.497 Y90.328 F10800
G1 X129.897 Y90.328 E6.4347 F5094
G0 X129.875 Y89.492 F10800
G1 X129.475 Y89.492 E6.4460 F5094
G0 X129.864 Y88.600 F10800
G1 X129.464 Y88.600 E6.4573 F5094
G1 X129.464 Y88.200 E6.4686
G1 X129.864 Y88.200 E6.4799
G1 X129.833 Y87.918 E6.4879
G1 X129.433 Y87.918 E6.4992
G0 X129.468 Y87.029 F10800
G1 X129.868 Y87.029 E6.5105 F5094
G0 X129.457 Y86.401 F10800
G1 X129.857 Y86.401 E6.5218 F5094
G1 X129.857 Y86.801 E6.5332
G1 X129.457 Y86.801 E6.5445
G0 X129.433 Y87.518 F10800
G1 X129.833 Y87.518 E6.5558 F5094
G1 X129.468 Y87.429 E6.5664
G1 X129.868 Y87.429 E6.5777
G0 F4800 E5.5777
G0 X129.475 Y89.092 F10800
G0 F4800 E6.5777
G1 X129.875 Y89.092 E6.5890 F5094
G0 X129.897 Y89.928 F10800
G1 X129.497 Y89.928 E6.6003 F5094
G0 F4800 E5.6003
G0 X129.919 Y91.756 F10800
G0 F4800 E6.6003
G1 X129.519 Y91.756 E6.6116 F5094
G1 X129.519 Y92.156 E6.6229
G1 X129.919 Y92.156 E6.6342
G0 F4800 E5.6342
G0 X133.357 Y93.955 F10800
G0 X134.943 Y95.274
G0 X136.081 Y96.994
G0 X136.674 Y98.969
G0 X136.674 Y101.031
G0 X136.081 Y103.006
G0 X134.943 Y104.726
G0 X133.357 Y106.045
G0 X129.473 Y107.986
G0 F4800 E6.6342
G1 X129.873 Y107.986 E6.6456 F5094
G1 X129.897 Y108.275 E6.6538
G1 X129.497 Y108.275 E6.6651
G1 X129.497 Y108.675 E6.6764
G1 X129.897 Y108.675 E6.6877
G1 X129.547 Y109.057 E6.7023
G1 X129.947 Y109.057 E6.7136
G0 F4800 E5.7136
G0 X129.470 Y111.749 F10800
G0 F4800 E6.7136
G1 X129.870 Y111.749 E6.7249 F5094
G0 F4800 E5.7249
G0 X129.918 Y113.658 F10800
G0 F4800 E6.7249
G1 X129.518 Y113.658 E6.7362 F5094
G1 X129.507 Y113.231 E6.7483
G1 X129.918 Y113.258 E6.7600
G1 X129.925 Y112.663 E6.7768
G1 X129.525 Y112.663 E6.7881
G1 X129.907 Y112.831 E6.7999
G1 X129.507 Y112.831 E6.8112
G0 X129.470 Y112.149 F10800
G1 X129.870 Y112.149 E6.8225 F5094
G1 X129.525 Y112.263 E6.8328
G1 X129.925 Y112.263 E6.8441
; ------------------------------------
; Layer #3
; ------------------------------------
G21 ; mm
G90 ; abs
G92 E0 ; reset extr
M106 S255
;segType:Support
G0 F4800 E-1.0000
G0 F300 Z2.300
G0 X129.925 Y112.263 F10800
G0 F4800 E0.0000
G1 X129.525 Y112.263 E0.0113 F4058
G1 X129.870 Y112.149 E0.0216
G1 X129.470 Y112.149 E0.0329
G0 F4800 E-0.9671
G0 X129.444 Y110.243 F10800
G0 F4800 E0.0329
G1 X129.844 Y110.243 E0.0442 F4058
G1 X129.485 Y110.028 E0.0560
G1 X129.885 Y110.028 E0.0674
G1 X129.947 Y109.457 E0.0836
G1 X129.547 Y109.457 E0.0949
G1 X129.885 Y109.628 E0.1056
G1 X129.485 Y109.628 E0.1169
G0 X129.497 Y108.675 F10800
G1 X129.897 Y108.675 E0.1282 F4058
G1 X129.497 Y108.275 E0.1442
G1 X129.897 Y108.275 E0.1555
G1 X129.873 Y107.986 E0.1637
G1 X129.473 Y107.986 E0.1750
G0 F4800 E-0.8250
G0 X125.544 Y105.760 F10800
G0 X124.060 Y104.328
G0 X123.050 Y102.530
G0 X122.602 Y100.517
G0 X122.752 Y98.460
G0 X124.060 Y95.672
G0 X126.427 Y93.701
G0 X129.519 Y92.156
G0 F4800 E0.1750
G1 X129.919 Y92.156 E0.1864 F4058
G1 X129.919 Y91.756 E0.1977
G1 X129.519 Y91.756 E0.2090
G0 X129.492 Y91.075 F10800
G1 X129.892 Y91.075 E0.2203 F4058
G0 F4800 E-0.7797
G0 X129.497 Y89.928 F10800
G0 F4800 E0.2203
G1 X129.897 Y89.928 E0.2316 F4058
G0 F4800 E-0.7684
G0 X129.864 Y88.200 F10800
G0 F4800 E0.2316
G1 X129.464 Y88.200 E0.2429 F4058
G0 X129.433 Y87.518 F10800
G1 X129.833 Y87.518 E0.2542 F4058
G1 X129.468 Y87.429 E0.2648
G1 X129.868 Y87.429 E0.2761
G1 X129.868 Y87.029 E0.2874
G1 X129.468 Y87.029 E0.2988
G1 X129.457 Y86.801 E0.3052
G1 X129.857 Y86.801 E0.3165
G1 X129.457 Y86.401 E0.3325
G1 X129.857 Y86.401 E0.3438
G0 F4800 E-0.6562
G0 X129.833 Y87.918 F10800
G0 F4800 E0.3438
G1 X129.433 Y87.918 E0.3551 F4058
G0 X129.464 Y88.600 F10800
G1 X129.864 Y88.600 E0.3664 F4058
G1 X129.875 Y89.092 E0.3804
G1 X129.475 Y89.092 E0.3917
G1 X129.475 Y89.492 E0.4030
G1 X129.875 Y89.492 E0.4143
G0 X129.897 Y90.328 F10800
G1 X129.497 Y90.328 E0.4256 F4058
G0 F4800 E-0.5744
G0 X129.492 Y91.475 F10800
G0 F4800 E0.4256
G1 X129.892 Y91.475 E0.4369 F4058
G0 F4800 E-0.5631
G0 X131.358 Y93.253 F10800
G0 X134.764 Y97.095
G0 X136.075 Y101.029
G0 F4800 E0.4369
;segType:Loop
G1 X135.893 Y101.846 E0.4647 F2705
G1 X135.558 Y102.722 E0.4959
G1 X135.098 Y103.542 E0.5272
G1 X134.521 Y104.288 E0.5586
G1 X133.840 Y104.945 E0.5900
G1 X133.068 Y105.497 E0.6216
G1 X132.222 Y105.932 E0.6532
G1 X131.321 Y106.240 E0.6849
G1 X130.381 Y106.413 E0.7167
G1 X129.469 Y106.449 E0.7471
G1 X128.480 Y106.343 E0.7802
G1 X127.555 Y106.102 E0.8119
G1 X126.679 Y105.730 E0.8436
G1 X125.868 Y105.235 E0.8752
G1 X125.140 Y104.629 E0.9067
G1 X124.510 Y103.925 E0.9381
G1 X123.990 Y103.140 E0.9695
G1 X123.591 Y102.290 E1.0007
G1 X123.321 Y101.393 E1.0318
G1 X123.185 Y100.467 E1.0629
G1 X123.185 Y99.533 E1.0940
G1 X123.321 Y98.607 E1.1251
G1 X123.591 Y97.710 E1.1563
G1 X123.990 Y96.860 E1.1875
G1 X124.510 Y96.075 E1.2188
G1 X125.140 Y95.371 E1.2503
G1 X125.868 Y94.765 E1.2818
G1 X126.679 Y94.270 E1.3134
G1 X127.556 Y93.898 E1.3451
G1 X128.477 Y93.657 E1.3767
G1 X129.483 Y93.551 E1.4104
G1 X130.382 Y93.587 E1.4403
G1 X131.262 Y93.747 E1.4700
G1 X132.224 Y94.069 E1.5038
G1 X133.068 Y94.503 E1.5354
G1 X133.840 Y95.055 E1.5669
G1 X134.521 Y95.712 E1.5984
G1 X135.098 Y96.458 E1.6298
G1 X135.558 Y97.278 E1.6610
G1 X135.893 Y98.154 E1.6922
G1 X136.096 Y99.068 E1.7234
G1 X136.165 Y100.000 E1.7544
G1 X136.103 Y100.833 E1.7822
G0 F4800 E0.7822
G0 X136.074 Y99.575 F10800
G0 F4800 E1.7822
;segType:Perimeter
G1 X136.562 Y100.059 E1.8051 F1623
G1 X136.493 Y101.000 E1.8365
G1 X136.275 Y101.979 E1.8698
G1 X135.916 Y102.916 E1.9032
G1 X135.424 Y103.792 E1.9366
G1 X134.810 Y104.588 E1.9700
G1 X134.086 Y105.287 E2.0035
G1 X133.266 Y105.873 E2.0370
G1 X132.370 Y106.334 E2.0706
G1 X131.415 Y106.659 E2.1041
G1 X130.422 Y106.843 E2.1377
G1 X129.466 Y106.881 E2.1695
G1 X129.328 Y106.873 E2.1741
G1 X128.411 Y106.768 E2.2048
G1 X127.434 Y106.514 E2.2384
G1 X126.506 Y106.120 E2.2719
G1 X125.646 Y105.595 E2.3054
G1 X124.872 Y104.951 E2.3389
G1 X124.201 Y104.201 E2.3724
G1 X123.647 Y103.363 E2.4058
G1 X123.220 Y102.454 E2.4392
G1 X122.931 Y101.493 E2.4726
G1 X122.785 Y100.501 E2.5059
G1 X122.785 Y99.499 E2.5393
G1 X122.931 Y98.507 E2.5726
G1 X123.220 Y97.546 E2.6060
G1 X123.647 Y96.637 E2.6394
G1 X124.201 Y95.799 E2.6728
G1 X124.872 Y95.049 E2.7063
G1 X125.646 Y94.405 E2.7397
G1 X126.506 Y93.880 E2.7733
G1 X127.435 Y93.486 E2.8068
G1 X128.410 Y93.231 E2.8403
G1 X129.471 Y93.120 E2.8758
G1 X130.423 Y93.157 E2.9075
G1 X131.355 Y93.327 E2.9390
G1 X132.370 Y93.666 E2.9746
G1 X133.266 Y94.127 E3.0081
G1 X134.086 Y94.713 E3.0416
G1 X134.810 Y95.412 E3.0751
G1 X135.424 Y96.208 E3.1085
G1 X135.916 Y97.084 E3.1420
G1 X136.275 Y98.021 E3.1753
G1 X136.493 Y99.000 E3.2087
G1 X136.562 Y99.941 E3.2401
G1 X136.074 Y100.425
;segType:Loop
G0 X135.229 Y101.197 F10800
G1 X135.038 Y101.930 E3.2652 F2705
G1 X134.635 Y102.822 E3.2978
G1 X134.089 Y103.629 E3.3302
G1 X133.417 Y104.331 E3.3625
G1 X132.640 Y104.906 E3.3947
G1 X131.779 Y105.340 E3.4268
G1 X130.859 Y105.621 E3.4587
G1 X129.907 Y105.743 E3.4907
G1 X128.947 Y105.702 E3.5226
G1 X128.008 Y105.500 E3.5546
G1 X127.115 Y105.141 E3.5866
G1 X126.293 Y104.635 E3.6187
G1 X125.566 Y103.995 E3.6509
G1 X124.954 Y103.238 E3.6833
G1 X124.477 Y102.385 E3.7158
G1 X124.151 Y101.460 E3.7484
G1 X123.985 Y100.492 E3.7811
G1 X123.985 Y99.508 E3.8138
G1 X124.151 Y98.540 E3.8465
G1 X124.477 Y97.615 E3.8791
G1 X124.954 Y96.762 E3.9116
G1 X125.566 Y96.005 E3.9439
G1 X126.293 Y95.365 E3.9762
G1 X127.115 Y94.859 E4.0083
G1 X128.008 Y94.500 E4.0403
G1 X128.947 Y94.298 E4.0723
G1 X129.907 Y94.257 E4.1042
G1 X130.859 Y94.379 E4.1361
G1 X131.779 Y94.660 E4.1681
G1 X132.640 Y95.094 E4.2002
G1 X133.417 Y95.669 E4.2323
G1 X134.089 Y96.371 E4.2646
G1 X134.635 Y97.178 E4.2971
G1 X135.038 Y98.070 E4.3296
G1 X135.286 Y99.020 E4.3623
G1 X135.369 Y100.000 E4.3950
G1 X135.286 Y100.980 E4.4277
G1 X135.279 Y101.006 E4.4286
;segType:Perimeter
G0 X135.409 Y99.532 F10800
G1 X134.962 Y100.059 E4.4516 F1623
G1 X134.891 Y100.901 E4.4797
G1 X134.663 Y101.776 E4.5098
G1 X134.291 Y102.599 E4.5398
G1 X133.786 Y103.346 E4.5698
G1 X133.163 Y103.996 E4.5997
G1 X132.440 Y104.530 E4.6296
G1 X131.638 Y104.935 E4.6595
G1 X130.780 Y105.197 E4.6893
G1 X129.891 Y105.311 E4.7192
G1 X128.995 Y105.273 E4.7490
G1 X128.118 Y105.084 E4.7788
G1 X127.285 Y104.749 E4.8087
G1 X126.520 Y104.278 E4.8386
G1 X125.845 Y103.684 E4.8685
G1 X125.279 Y102.983 E4.8984
G1 X124.839 Y102.195 E4.9285
G1 X124.538 Y101.343 E4.9585
G1 X124.385 Y100.452 E4.9886
G1 X124.385 Y99.548 E5.0187
G1 X124.538 Y98.657 E5.0488
G1 X124.839 Y97.805 E5.0788
G1 X125.279 Y97.017 E5.1088
G1 X125.845 Y96.316 E5.1388
G1 X126.520 Y95.722 E5.1687
G1 X127.285 Y95.251 E5.1986
G1 X128.118 Y94.916 E5.2284
G1 X128.995 Y94.727 E5.2583
G1 X129.891 Y94.689 E5.2881
G1 X130.780 Y94.803 E5.3179
G1 X131.638 Y95.065 E5.3478
G1 X132.440 Y95.470 E5.3776
G1 X133.163 Y96.004 E5.4075
G1 X133.786 Y96.654 E5.4375
G1 X134.291 Y97.401 E5.4675
G1 X134.663 Y98.224 E5.4975
G1 X134.891 Y99.099 E5.5276
G1 X134.962 Y99.941 E5.5557
G1 X135.409 Y100.468
;segType:Infill
G0 X135.859 Y98.927 F10800
G1 X135.469 Y98.927 E5.5686 F4058
G0 X134.917 Y96.562 F10800
G1 X134.917 Y97.310 E5.5935 F4058
G0 X132.532 Y95.297 F10800
G0 X130.816 Y94.608
G0 X127.549 Y94.138
G1 X127.549 Y94.457 E5.6042 F4058
G0 X125.130 Y96.900 F10800
G0 X123.884 Y98.927
G1 X123.479 Y98.927 E5.6176 F4058
G0 X124.673 Y102.282 F10800
G0 X125.717 Y103.826
G0 X127.549 Y105.542
G1 X127.549 Y105.863 E5.6283 F4058
G0 X130.816 Y105.392 F10800
G0 X132.532 Y104.703
G0 X134.917 Y103.438
G1 X134.917 Y102.691 E5.6532 F4058
;segType:Support
G0 F4800 E4.6532
G0 X129.947 Y109.057 F10800
G0 F4800 E5.6532
G1 X129.547 Y109.057 E5.6645 F4058
G0 F4800 E4.6645
G0 X129.444 Y110.643 F10800
G0 F4800 E5.6645
G1 X129.844 Y110.643 E5.6758 F4058
G1 X129.484 Y110.836 E5.6873
G1 X129.884 Y110.836 E5.6986
G1 X129.884 Y111.236 E5.7099
G1 X129.484 Y111.236 E5.7213
G1 X129.470 Y111.749 E5.7357
G1 X129.870 Y111.749 E5.7471
G0 F4800 E4.7471
G0 X129.918 Y113.658 F10800
G0 F4800 E5.7471
G1 X129.518 Y113.658 E5.7584 F4058
G1 X129.918 Y113.258 E5.7744
G1 X129.507 Y113.231 E5.7860
G1 X129.507 Y112.831 E5.7973
G1 X129.907 Y112.831 E5.8086
G1 X129.525 Y112.663 E5.8204
G1 X129.925 Y112.663 E5.8317
; ------------------------------------
; Layer #4
; ------------------------------------
G21 ; mm
G90 ; abs
G92 E0 ; reset extr
M106 S255
;segType:Support
G0 F4800 E-1.0000
G0 F300 Z2.500
G0 X129.925 Y112.663 F10800
G0 F4800 E0.0000
G1 X129.525 Y112.663 E0.0113 F4084
G1 X129.907 Y112.831 E0.0231
G1 X129.507 Y112.831 E0.0344
G0 X129.470 Y112.149 F10800
G1 X129.870 Y112.149 E0.0457 F4084
G1 X129.525 Y112.263 E0.0560
G1 X129.925 Y112.263 E0.0673
G1 X129.870 Y111.749 E0.0820
G1 X129.470 Y111.749 E0.0933
G0 F4800 E-0.9067
G0 X129.485 Y109.628 F10800
G0 F4800 E0.0933
G1 X129.885 Y109.628 E0.1046 F4084
G1 X129.547 Y109.457 E0.1153
G1 X129.947 Y109.457 E0.1266
G0 F4800 E-0.8734
G0 X131.479 Y107.350 F10800
G0 X133.011 Y105.243
G0 X136.075 Y101.029
G0 F4800 E0.1266
;segType:Loop
G1 X135.893 Y101.846 E0.1544 F2722
G1 X135.558 Y102.722 E0.1856
G1 X135.098 Y103.542 E0.2169
G1 X134.521 Y104.288 E0.2483
G1 X133.840 Y104.945 E0.2797
G1 X133.068 Y105.497 E0.3113
G1 X132.222 Y105.932 E0.3429
G1 X131.321 Y106.240 E0.3746
G1 X130.381 Y106.413 E0.4064
G1 X129.483 Y106.450 E0.4363
G1 X129.335 Y106.442 E0.4412
G1 X128.480 Y106.343 E0.4699
G1 X127.555 Y106.102 E0.5016
G1 X126.679 Y105.730 E0.5333
G1 X125.868 Y105.235 E0.5649
G1 X125.140 Y104.629 E0.5964
G1 X124.510 Y103.925 E0.6278
G1 X123.990 Y103.140 E0.6592
G1 X123.591 Y102.290 E0.6904
G1 X123.321 Y101.393 E0.7215
G1 X123.185 Y100.467 E0.7526
G1 X123.185 Y99.533 E0.7837
G1 X123.321 Y98.607 E0.8148
G1 X123.591 Y97.710 E0.8460
G1 X123.990 Y96.860 E0.8772
G1 X124.510 Y96.075 E0.9086
G1 X125.140 Y95.371 E0.9400
G1 X125.868 Y94.765 E0.9715
G1 X126.679 Y94.270 E1.0031
G1 X127.556 Y93.898 E1.0348
G1 X128.477 Y93.657 E1.0664
G1 X129.497 Y93.551 E1.1005
G1 X130.382 Y93.587 E1.1300
G1 X131.247 Y93.743 E1.1592
G1 X132.224 Y94.069 E1.1935
G1 X133.068 Y94.503 E1.2251
G1 X133.840 Y95.055 E1.2566
G1 X134.521 Y95.712 E1.2881
G1 X135.098 Y96.458 E1.3195
G1 X135.558 Y97.278 E1.3507
G1 X135.893 Y98.154 E1.3819
G1 X136.096 Y99.068 E1.4131
G1 X136.165 Y100.000 E1.4441
G1 X136.103 Y100.833 E1.4719
G0 F4800 E0.4719
G0 X136.074 Y99.575 F10800
G0 F4800 E1.4719
;segType:Perimeter
G1 X136.562 Y100.059 E1.4948 F1633
G1 X136.493 Y101.000 E1.5262
G1 X136.275 Y101.979 E1.5595
G1 X135.916 Y102.916 E1.5929
G1 X135.424 Y103.792 E1.6263
G1 X134.810 Y104.588 E1.6597
G1 X134.086 Y105.287 E1.6932
G1 X133.266 Y105.873 E1.7267
G1 X132.370 Y106.334 E1.7603
G1 X131.415 Y106.659 E1.7938
G1 X130.422 Y106.843 E1.8274
G1 X129.480 Y106.881 E1.8587
G1 X129.304 Y106.872 E1.8646
G1 X128.411 Y106.768 E1.8945
G1 X127.434 Y106.514 E1.9281
G1 X126.506 Y106.120 E1.9616
G1 X125.646 Y105.595 E1.9951
G1 X124.872 Y104.951 E2.0286
G1 X124.201 Y104.201 E2.0621
G1 X123.647 Y103.363 E2.0955
G1 X123.220 Y102.454 E2.1289
G1 X122.931 Y101.493 E2.1623
G1 X122.785 Y100.501 E2.1956
G1 X122.785 Y99.499 E2.2290
G1 X122.931 Y98.507 E2.2623
G1 X123.220 Y97.546 E2.2957
G1 X123.647 Y96.637 E2.3291
G1 X124.201 Y95.799 E2.3625
G1 X124.872 Y95.049 E2.3960
G1 X125.646 Y94.405 E2.4294
G1 X126.506 Y93.880 E2.4630
G1 X127.435 Y93.486 E2.4965
G1 X128.410 Y93.231 E2.5300
G1 X129.485 Y93.119 E2.5660
G1 X130.423 Y93.157 E2.5972
G1 X131.340 Y93.323 E2.6282
G1 X132.370 Y93.666 E2.6643
G1 X133.266 Y94.127 E2.6978
G1 X134.086 Y94.713 E2.7313
G1 X134.810 Y95.412 E2.7648
G1 X135.424 Y96.208 E2.7983
G1 X135.916 Y97.084 E2.8317
G1 X136.275 Y98.021 E2.8650
G1 X136.493 Y99.000 E2.8984
G1 X136.562 Y99.941 E2.9298
G1 X136.074 Y100.425
;segType:Loop
G0 X135.229 Y101.197 F10800
G1 X135.038 Y101.930 E2.9550 F2722
G1 X134.635 Y102.822 E2.9875
G1 X134.089 Y103.629 E3.0199
G1 X133.417 Y104.331 E3.0522
G1 X132.640 Y104.906 E3.0844
G1 X131.779 Y105.340 E3.1165
G1 X130.859 Y105.621 E3.1484
G1 X129.907 Y105.743 E3.1804
G1 X128.947 Y105.702 E3.2123
G1 X128.008 Y105.500 E3.2443
G1 X127.115 Y105.141 E3.2763
G1 X126.293 Y104.635 E3.3084
G1 X125.566 Y103.995 E3.3406
G1 X124.954 Y103.238 E3.3730
G1 X124.477 Y102.385 E3.4055
G1 X124.151 Y101.460 E3.4381
G1 X123.985 Y100.492 E3.4708
G1 X123.985 Y99.508 E3.5035
G1 X124.151 Y98.540 E3.5362
G1 X124.477 Y97.615 E3.5688
G1 X124.954 Y96.762 E3.6013
G1 X125.566 Y96.005 E3.6336
G1 X126.293 Y95.365 E3.6659
G1 X127.115 Y94.859 E3.6980
G1 X128.008 Y94.500 E3.7300
G1 X128.947 Y94.298 E3.7620
G1 X129.907 Y94.257 E3.7939
G1 X130.859 Y94.379 E3.8258
G1 X131.779 Y94.660 E3.8578
G1 X132.640 Y95.094 E3.8899
G1 X133.417 Y95.669 E3.9220
G1 X134.089 Y96.371 E3.9543
G1 X134.635 Y97.178 E3.9868
G1 X135.038 Y98.070 E4.0193
G1 X135.286 Y99.020 E4.0520
G1 X135.369 Y100.000 E4.0847
G1 X135.286 Y100.980 E4.1174
G1 X135.279 Y101.006 E4.1183
;segType:Perimeter
G0 X135.409 Y99.532 F10800
G1 X134.962 Y100.059 E4.1413 F1633
G1 X134.891 Y100.901 E4.1694
G1 X134.663 Y101.776 E4.1995
G1 X134.291 Y102.599 E4.2295
G1 X133.786 Y103.346 E4.2595
G1 X133.163 Y103.996 E4.2894
G1 X132.440 Y104.530 E4.3193
G1 X131.638 Y104.935 E4.3492
G1 X130.780 Y105.197 E4.3790
G1 X129.891 Y105.311 E4.4089
G1 X128.995 Y105.273 E4.4387
G1 X128.118 Y105.084 E4.4685
G1 X127.285 Y104.749 E4.4984
G1 X126.520 Y104.278 E4.5283
G1 X125.845 Y103.684 E4.5582
G1 X125.279 Y102.983 E4.5882
G1 X124.839 Y102.195 E4.6182
G1 X124.538 Y101.343 E4.6482
G1 X124.385 Y100.452 E4.6783
G1 X124.385 Y99.548 E4.7084
G1 X124.538 Y98.657 E4.7385
G1 X124.839 Y97.805 E4.7685
G1 X125.279 Y97.017 E4.7985
G1 X125.845 Y96.316 E4.8285
G1 X126.520 Y95.722 E4.8584
G1 X127.285 Y95.251 E4.8883
G1 X128.118 Y94.916 E4.9181
G1 X128.995 Y94.727 E4.9480
G1 X129.891 Y94.689 E4.9778
G1 X130.780 Y94.803 E5.0076
G1 X131.638 Y95.065 E5.0375
G1 X132.440 Y95.470 E5.0673
G1 X133.163 Y96.004 E5.0972
G1 X133.786 Y96.654 E5.1272
G1 X134.291 Y97.401 E5.1572
G1 X134.663 Y98.224 E5.1872
G1 X134.891 Y99.099 E5.2173
G1 X134.962 Y99.941 E5.2454
G1 X135.409 Y100.468
;segType:Infill
G0 X135.859 Y98.927 F10800
G1 X135.469 Y98.927 E5.2584 F4084
G0 X134.917 Y96.562 F10800
G1 X134.917 Y97.310 E5.2833 F4084
G0 X132.532 Y95.297 F10800
G0 X130.816 Y94.608
G0 X127.549 Y94.133
G1 X127.549 Y94.455 E5.2940 F4084
G0 X125.130 Y96.900 F10800
G0 X123.881 Y98.927
G1 X123.477 Y98.927 E5.3074 F4084
G0 X124.673 Y102.282 F10800
G0 X125.717 Y103.826
G0 X127.549 Y105.545
G1 X127.549 Y105.867 E5.3181 F4084
G0 X130.816 Y105.392 F10800
G0 X132.532 Y104.703
G0 X134.917 Y103.438
G1 X134.917 Y102.690 E5.3430 F4084
G0 F4800 E4.3430
G0 X135.520 Y100.000 F10800
G0 X134.764 Y97.095
G0 X129.892 Y91.075
G0 F4800 E5.3430
;segType:Support
G1 X129.492 Y91.075 E5.3543 F4084
G0 F4800 E4.3543
G0 X129.457 Y86.801 F10800
G0 F4800 E5.3543
G1 X129.857 Y86.801 E5.3656 F4084
G1 X129.857 Y86.401 E5.3770
G1 X129.457 Y86.401 E5.3883
G1 X129.468 Y87.029 E5.4060
G1 X129.868 Y87.029 E5.4173
G1 X129.868 Y87.429 E5.4286
G1 X129.468 Y87.429 E5.4400
G1 X129.833 Y87.518 E5.4506
G1 X129.433 Y87.518 E5.4619
G1 X129.433 Y87.918 E5.4732
G1 X129.833 Y87.918 E5.4845
G1 X129.864 Y88.200 E5.4925
G1 X129.464 Y88.200 E5.5038
G1 X129.464 Y88.600 E5.5151
G1 X129.864 Y88.600 E5.5265
G1 X129.875 Y89.092 E5.5404
G1 X129.475 Y89.092 E5.5517
G1 X129.475 Y89.492 E5.5630
G1 X129.875 Y89.492 E5.5743
G1 X129.897 Y89.928 E5.5866
G1 X129.497 Y89.928 E5.5980
G1 X129.497 Y90.328 E5.6093
G1 X129.897 Y90.328 E5.6206
G0 F4800 E4.6206
G0 X129.492 Y91.475 F10800
G0 F4800 E5.6206
G1 X129.892 Y91.475 E5.6319 F4084
G1 X129.919 Y91.756 E5.6398
G1 X129.519 Y91.756 E5.6512
G1 X129.519 Y92.156 E5.6625
G1 X129.919 Y92.156 E5.6738
G0 F4800 E4.6738
G0 X133.357 Y93.955 F10800
G0 X134.943 Y95.274
G0 X136.081 Y96.994
G0 X136.674 Y98.969
G0 X136.674 Y101.031
G0 X136.081 Y103.006
G0 X134.943 Y104.726
G0 X133.357 Y106.045
G0 X129.873 Y107.986
G0 F4800 E5.6738
G1 X129.473 Y107.986 E5.6851 F4084
G1 X129.897 Y108.275 E5.6996
G1 X129.497 Y108.275 E5.7109
G1 X129.497 Y108.675 E5.7222
G1 X129.897 Y108.675 E5.7335
G1 X129.947 Y109.057 E5.7444
G1 X129.547 Y109.057 E5.7557
G0 F4800 E4.7557
G0 X129.885 Y110.028 F10800
G0 F4800 E5.7557
G1 X129.485 Y110.028 E5.7670 F4084
G1 X129.844 Y110.243 E5.7788
G1 X129.444 Y110.243 E5.7901
G1 X129.444 Y110.643 E5.8015
G1 X129.844 Y110.643 E5.8128
G1 X129.484 Y110.836 E5.8243
G1 X129.884 Y110.836 E5.8356
G1 X129.884 Y111.236 E5.8469
G1 X129.484 Y111.236 E5.8582
G0 F4800 E4.8582
G0 X129.918 Y113.658 F10800
G0 F4800 E5.8582
G1 X129.518 Y113.658 E5.8695 F4084
G1 X129.507 Y113.231 E5.8816
G1 X129.918 Y113.258 E5.8933
; ------------------------------------
; Layer #5
; ------------------------------------
G21 ; mm
G90 ; abs
G92 E0 ; reset extr
M106 S255
;segType:Support
G0 F4800 E-1.0000
G0 F300 Z2.700
G0 X129.918 Y113.258 F10800
G0 F4800 E0.0000
G1 X129.507 Y113.231 E0.0117 F4066
G1 X129.507 Y112.831 E0.0230
G1 X129.907 Y112.831 E0.0343
G1 X129.525 Y112.663 E0.0461
G1 X129.925 Y112.663 E0.0574
G1 X129.925 Y112.263 E0.0687
G1 X129.525 Y112.263 E0.0800
G1 X129.870 Y112.149 E0.0903
G1 X129.470 Y112.149 E0.1016
G1 X129.470 Y111.749 E0.1129
G1 X129.870 Y111.749 E0.1242
G1 X129.884 Y111.236 E0.1387
G1 X129.484 Y111.236 E0.1500
G0 F4800 E-0.8500
G0 X129.897 Y108.675 F10800
G0 F4800 E0.1500
G1 X129.497 Y108.675 E0.1613 F4066
G1 X129.497 Y108.275 E0.1726
G1 X129.897 Y108.275 E0.1839
G1 X129.873 Y107.986 E0.1921
G1 X129.473 Y107.986 E0.2034
G0 F4800 E-0.7966
G0 X125.544 Y105.760 F10800
G0 X124.060 Y104.328
G0 X123.050 Y102.530
G0 X122.602 Y100.517
G0 X122.752 Y98.460
G0 X124.060 Y95.672
G0 X126.427 Y93.701
G0 X129.519 Y92.156
G0 F4800 E0.2034
G1 X129.919 Y92.156 E0.2148 F4066
G1 X129.919 Y91.756 E0.2261
G1 X129.519 Y91.756 E0.2374
G0 X129.492 Y91.075 F10800
G1 X129.892 Y91.075 E0.2487 F4066
G0 X129.897 Y90.328 F10800
G1 X129.497 Y90.328 E0.2600 F4066
G0 X129.875 Y89.492 F10800
G1 X129.475 Y89.492 E0.2713 F4066
G0 F4800 E-0.7287
G0 X129.433 Y87.918 F10800
G0 F4800 E0.2713
G1 X129.833 Y87.918 E0.2826 F4066
G0 X129.468 Y87.029 F10800
G1 X129.868 Y87.029 E0.2939 F4066
G1 X129.857 Y86.401 E0.3117
G1 X129.457 Y86.401 E0.3230
G1 X129.857 Y86.801 E0.3390
G1 X129.457 Y86.801 E0.3503
G0 X129.868 Y87.429 F10800
G1 X129.468 Y87.429 E0.3616 F4066
G1 X129.833 Y87.518 E0.3722
G1 X129.433 Y87.518 E0.3835
G0 X129.864 Y88.200 F10800
G1 X129.464 Y88.200 E0.3948 F4066
G1 X129.464 Y88.600 E0.4061
G1 X129.864 Y88.600 E0.4175
G1 X129.875 Y89.092 E0.4314
G1 X129.475 Y89.092 E0.4427
G0 X129.497 Y89.928 F10800
G1 X129.897 Y89.928 E0.4540 F4066
G0 F4800 E-0.5460
G0 X129.492 Y91.475 F10800
G0 F4800 E0.4540
G1 X129.892 Y91.475 E0.4653 F4066
G0 F4800 E-0.5347
G0 X131.358 Y93.253 F10800
G0 X134.764 Y97.095
G0 X136.075 Y101.029
G0 F4800 E0.4653
;segType:Loop
G1 X135.893 Y101.846 E0.4931 F2710
G1 X135.558 Y102.722 E0.5243
G1 X135.098 Y103.542 E0.5556
G1 X134.521 Y104.288 E0.5870
G1 X133.840 Y104.945 E0.6184
G1 X133.068 Y105.497 E0.6500
G1 X132.222 Y105.932 E0.6816
G1 X131.321 Y106.240 E0.7133
G1 X130.381 Y106.413 E0.7451
G1 X129.497 Y106.450 E0.7745
G1 X129.312 Y106.440 E0.7807
G1 X128.481 Y106.343 E0.8085
G1 X127.555 Y106.102 E0.8403
G1 X126.679 Y105.730 E0.8720
G1 X125.868 Y105.235 E0.9036
G1 X125.140 Y104.629 E0.9351
G1 X124.510 Y103.925 E0.9665
G1 X123.990 Y103.140 E0.9979
G1 X123.591 Y102.290 E1.0291
G1 X123.321 Y101.393 E1.0602
G1 X123.185 Y100.467 E1.0913
G1 X123.185 Y99.533 E1.1224
G1 X123.321 Y98.607 E1.1535
G1 X123.591 Y97.710 E1.1847
G1 X123.990 Y96.860 E1.2159
G1 X124.510 Y96.075 E1.2472
G1 X125.140 Y95.371 E1.2787
G1 X125.868 Y94.765 E1.3102
G1 X126.679 Y94.270 E1.3418
G1 X127.556 Y93.898 E1.3735
G1 X128.477 Y93.657 E1.4051
G1 X129.511 Y93.551 E1.4397
G1 X130.381 Y93.587 E1.4686
G1 X131.321 Y93.760 E1.5004
G1 X132.222 Y94.068 E1.5321
G1 X133.068 Y94.503 E1.5638
G1 X133.840 Y95.055 E1.5953
G1 X134.521 Y95.712 E1.6268
G1 X135.098 Y96.458 E1.6582
G1 X135.558 Y97.278 E1.6894
G1 X135.893 Y98.154 E1.7206
G1 X136.096 Y99.068 E1.7518
G1 X136.165 Y100.000 E1.7828
G1 X136.103 Y100.833 E1.8106
G0 F4800 E0.8106
G0 X136.074 Y99.575 F10800
G0 F4800 E1.8106
;segType:Perimeter
G1 X136.562 Y100.059 E1.8335 F1626
G1 X136.493 Y101.000 E1.8649
G1 X136.275 Y101.979 E1.8982
G1 X135.916 Y102.916 E1.9316
G1 X135.424 Y103.792 E1.9650
G1 X134.810 Y104.588 E1.9984
G1 X134.086 Y105.287 E2.0319
G1 X133.266 Y105.873 E2.0654
G1 X132.370 Y106.334 E2.0990
G1 X131.415 Y106.659 E2.1325
G1 X130.422 Y106.843 E2.1661
G1 X129.495 Y106.881 E2.1970
G1 X129.281 Y106.870 E2.2041
G1 X128.412 Y106.768 E2.2332
G1 X127.434 Y106.514 E2.2668
G1 X126.506 Y106.120 E2.3003
G1 X125.646 Y105.595 E2.3338
G1 X124.872 Y104.951 E2.3673
G1 X124.201 Y104.201 E2.4008
G1 X123.647 Y103.363 E2.4342
G1 X123.220 Y102.454 E2.4676
G1 X122.931 Y101.493 E2.5010
G1 X122.785 Y100.501 E2.5343
G1 X122.785 Y99.499 E2.5677
G1 X122.931 Y98.507 E2.6010
G1 X123.220 Y97.546 E2.6344
G1 X123.647 Y96.637 E2.6678
G1 X124.201 Y95.799 E2.7012
G1 X124.872 Y95.049 E2.7347
G1 X125.646 Y94.405 E2.7681
G1 X126.506 Y93.880 E2.8017
G1 X127.435 Y93.486 E2.8352
G1 X128.410 Y93.231 E2.8687
G1 X129.500 Y93.119 E2.9052
G1 X130.422 Y93.157 E2.9359
G1 X131.415 Y93.341 E2.9695
G1 X132.370 Y93.666 E3.0030
G1 X133.266 Y94.127 E3.0365
G1 X134.086 Y94.713 E3.0700
G1 X134.810 Y95.412 E3.1035
G1 X135.424 Y96.208 E3.1370
G1 X135.916 Y97.084 E3.1704
G1 X136.275 Y98.021 E3.2037
G1 X136.493 Y99.000 E3.2371
G1 X136.562 Y99.941 E3.2685
G1 X136.074 Y100.425
;segType:Loop
G0 X135.229 Y101.197 F10800
G1 X135.038 Y101.930 E3.2937 F2710
G1 X134.635 Y102.822 E3.3262
G1 X134.089 Y103.629 E3.3586
G1 X133.417 Y104.331 E3.3909
G1 X132.640 Y104.906 E3.4231
G1 X131.779 Y105.340 E3.4552
G1 X130.859 Y105.621 E3.4872
G1 X129.907 Y105.743 E3.5191
G1 X128.947 Y105.702 E3.5510
G1 X128.008 Y105.500 E3.5830
G1 X127.115 Y105.141 E3.6150
G1 X126.293 Y104.635 E3.6471
G1 X125.566 Y103.995 E3.6793
G1 X124.954 Y103.238 E3.7117
G1 X124.477 Y102.385 E3.7442
G1 X124.151 Y101.460 E3.7768
G1 X123.985 Y100.492 E3.8095
G1 X123.985 Y99.508 E3.8422
G1 X124.151 Y98.540 E3.8749
G1 X124.477 Y97.615 E3.9075
G1 X124.954 Y96.762 E3.9400
G1 X125.566 Y96.005 E3.9724
G1 X126.293 Y95.365 E4.0046
G1 X127.115 Y94.859 E4.0367
G1 X128.008 Y94.500 E4.0687
G1 X128.947 Y94.298 E4.1007
G1 X129.907 Y94.257 E4.1326
G1 X130.859 Y94.379 E4.1645
G1 X131.779 Y94.660 E4.1965
G1 X132.640 Y95.094 E4.2286
G1 X133.417 Y95.669 E4.2608
G1 X134.089 Y96.371 E4.2931
G1 X134.635 Y97.178 E4.3255
G1 X135.038 Y98.070 E4.3580
G1 X135.286 Y99.020 E4.3907
G1 X135.369 Y100.000 E4.4234
G1 X135.286 Y100.980 E4.4561
G1 X135.279 Y101.006 E4.4570
;segType:Perimeter
G0 X135.409 Y99.532 F10800
G1 X134.962 Y100.059 E4.4800 F1626
G1 X134.891 Y100.901 E4.5081
G1 X134.663 Y101.776 E4.5382
G1 X134.291 Y102.599 E4.5682
G1 X133.786 Y103.346 E4.5982
G1 X133.163 Y103.996 E4.6281
G1 X132.440 Y104.530 E4.6580
G1 X131.638 Y104.935 E4.6879
G1 X130.780 Y105.197 E4.7178
G1 X129.891 Y105.311 E4.7476
G1 X128.995 Y105.273 E4.7774
G1 X128.118 Y105.084 E4.8072
G1 X127.285 Y104.749 E4.8371
G1 X126.520 Y104.278 E4.8670
G1 X125.845 Y103.684 E4.8969
G1 X125.279 Y102.983 E4.9269
G1 X124.839 Y102.195 E4.9569
G1 X124.538 Y101.343 E4.9869
G1 X124.385 Y100.452 E5.0170
G1 X124.385 Y99.548 E5.0471
G1 X124.538 Y98.657 E5.0772
G1 X124.839 Y97.805 E5.1072
G1 X125.279 Y97.017 E5.1372
G1 X125.845 Y96.316 E5.1672
G1 X126.520 Y95.722 E5.1971
G1 X127.285 Y95.251 E5.2270
G1 X128.118 Y94.916 E5.2569
G1 X128.995 Y94.727 E5.2867
G1 X129.891 Y94.689 E5.3165
G1 X130.780 Y94.803 E5.3463
G1 X131.638 Y95.065 E5.3762
G1 X132.440 Y95.470 E5.4060
G1 X133.163 Y96.004 E5.4359
G1 X133.786 Y96.654 E5.4659
G1 X134.291 Y97.401 E5.4959
G1 X134.663 Y98.224 E5.5259
G1 X134.891 Y99.099 E5.5560
G1 X134.962 Y99.941 E5.5841
G1 X135.409 Y100.468
;segType:Infill
G0 X135.859 Y98.927 F10800
G1 X135.469 Y98.927 E5.5971 F4066
G0 X134.917 Y96.562 F10800
G1 X134.917 Y97.310 E5.6220 F4066
G0 X132.532 Y95.297 F10800
G0 X130.816 Y94.608
G0 X127.549 Y94.133
G1 X127.549 Y94.455 E5.6327 F4066
G0 X125.130 Y96.900 F10800
G0 X123.881 Y98.927
G1 X123.477 Y98.927 E5.6461 F4066
G0 X124.673 Y102.282 F10800
G0 X125.717 Y103.826
G0 X127.549 Y105.545
G1 X127.549 Y105.867 E5.6568 F4066
G0 X130.816 Y105.392 F10800
G0 X132.532 Y104.703
G0 X134.917 Y103.438
G1 X134.917 Y102.690 E5.6817 F4066
;segType:Support
G0 F4800 E4.6817
G0 X129.947 Y109.057 F10800
G0 F4800 E5.6817
G1 X129.547 Y109.057 E5.6930 F4066
G1 X129.485 Y109.628 E5.7093
G1 X129.885 Y109.628 E5.7206
G1 X129.547 Y109.457 E5.7313
G1 X129.947 Y109.457 E5.7426
G1 X129.885 Y110.028 E5.7589
G1 X129.485 Y110.028 E5.7702
G1 X129.844 Y110.243 E5.7820
G1 X129.444 Y110.243 E5.7933
G1 X129.444 Y110.643 E5.8046
G1 X129.844 Y110.643 E5.8159
G1 X129.484 Y110.836 E5.8275
G1 X129.884 Y110.836 E5.8388
G0 F4800 E4.8388
G0 X129.518 Y113.658 F10800
G0 F4800 E5.8388
G1 X129.918 Y113.658 E5.8501 F4066
; ------------------------------------
; Layer #6
; ------------------------------------
G21 ; mm
G90 ; abs
G92 E0 ; reset extr
M106 S255
;segType:Support
G0 F4800 E-1.0000
G0 F300 Z2.900
G0 X129.918 Y113.658 F10800
G0 F4800 E0.0000
G1 X129.518 Y113.658 E0.0113 F4049
G0 X129.507 Y112.831 F10800
G1 X129.907 Y112.831 E0.0226 F4049
G1 X129.525 Y112.663 E0.0344
G1 X129.925 Y112.663 E0.0457
G1 X129.925 Y112.263 E0.0570
G1 X129.525 Y112.263 E0.0683
G1 X129.870 Y112.149 E0.0786
G1 X129.470 Y112.149 E0.0899
G1 X129.470 Y111.749 E0.1012
G1 X129.870 Y111.749 E0.1126
G0 F4800 E-0.8874
G0 X129.547 Y109.057 F10800
G0 F4800 E0.1126
G1 X129.947 Y109.057 E0.1239 F4049
G0 F4800 E-0.8761
G0 X131.479 Y107.050 F10800
G0 X133.011 Y105.043
G0 X136.075 Y101.029
G0 F4800 E0.1239
;segType:Loop
G1 X135.893 Y101.846 E0.1517 F2699
G1 X135.558 Y102.722 E0.1829
G1 X135.098 Y103.542 E0.2142
G1 X134.521 Y104.288 E0.2455
G1 X133.840 Y104.945 E0.2770
G1 X133.068 Y105.497 E0.3086
G1 X132.222 Y105.932 E0.3402
G1 X131.321 Y106.240 E0.3719
G1 X130.380 Y106.413 E0.4037
G1 X129.511 Y106.450 E0.4326
G1 X129.289 Y106.438 E0.4400
G1 X128.481 Y106.343 E0.4671
G1 X127.555 Y106.102 E0.4989
G1 X126.679 Y105.730 E0.5306
G1 X125.868 Y105.235 E0.5622
G1 X125.140 Y104.629 E0.5937
G1 X124.510 Y103.925 E0.6251
G1 X123.990 Y103.140 E0.6564
G1 X123.591 Y102.290 E0.6876
G1 X123.321 Y101.393 E0.7188
G1 X123.185 Y100.467 E0.7499
G1 X123.185 Y99.533 E0.7810
G1 X123.321 Y98.607 E0.8121
G1 X123.591 Y97.710 E0.8433
G1 X123.990 Y96.860 E0.8745
G1 X124.510 Y96.075 E0.9058
G1 X125.140 Y95.371 E0.9372
G1 X125.868 Y94.765 E0.9687
G1 X126.679 Y94.270 E1.0003
G1 X127.556 Y93.898 E1.0320
G1 X128.476 Y93.657 E1.0637
G1 X129.525 Y93.551 E1.0987
G1 X130.380 Y93.587 E1.1272
G1 X131.321 Y93.760 E1.1590
G1 X132.222 Y94.068 E1.1907
G1 X133.068 Y94.503 E1.2223
G1 X133.840 Y95.055 E1.2539
G1 X134.521 Y95.712 E1.2854
G1 X135.098 Y96.458 E1.3167
G1 X135.558 Y97.278 E1.3480
G1 X135.893 Y98.154 E1.3792
G1 X136.096 Y99.068 E1.4103
G1 X136.165 Y100.000 E1.4414
G1 X136.103 Y100.833 E1.4692
G0 F4800 E0.4692
G0 X136.074 Y99.575 F10800
G0 F4800 E1.4692
;segType:Perimeter
G1 X136.562 Y100.059 E1.4921 F1619
G1 X136.493 Y101.000 E1.5234
G1 X136.275 Y101.979 E1.5568
G1 X135.916 Y102.916 E1.5902
G1 X135.424 Y103.792 E1.6236
G1 X134.810 Y104.588 E1.6570
G1 X134.086 Y105.287 E1.6905
G1 X133.266 Y105.873 E1.7240
G1 X132.370 Y106.334 E1.7575
G1 X131.415 Y106.659 E1.7911
G1 X130.422 Y106.843 E1.8247
G1 X129.509 Y106.881 E1.8550
G1 X129.257 Y106.868 E1.8634
G1 X128.412 Y106.768 E1.8918
G1 X127.434 Y106.514 E1.9253
G1 X126.506 Y106.120 E1.9589
G1 X125.646 Y105.595 E1.9924
G1 X124.872 Y104.951 E2.0259
G1 X124.201 Y104.201 E2.0593
G1 X123.647 Y103.363 E2.0928
G1 X123.220 Y102.454 E2.1262
G1 X122.931 Y101.493 E2.1595
G1 X122.785 Y100.501 E2.1929
G1 X122.785 Y99.499 E2.2262
G1 X122.931 Y98.507 E2.2596
G1 X123.220 Y97.546 E2.2929
G1 X123.647 Y96.637 E2.3263
G1 X124.201 Y95.799 E2.3598
G1 X124.872 Y95.049 E2.3932
G1 X125.646 Y94.405 E2.4267
G1 X126.506 Y93.880 E2.4602
G1 X127.435 Y93.486 E2.4938
G1 X128.410 Y93.231 E2.5273
G1 X129.514 Y93.119 E2.5642
G1 X130.422 Y93.157 E2.5944
G1 X131.415 Y93.341 E2.6280
G1 X132.370 Y93.666 E2.6616
G1 X133.266 Y94.127 E2.6951
G1 X134.086 Y94.713 E2.7286
G1 X134.810 Y95.412 E2.7621
G1 X135.424 Y96.208 E2.7955
G1 X135.916 Y97.084 E2.8289
G1 X136.275 Y98.021 E2.8623
G1 X136.493 Y99.000 E2.8957
G1 X136.562 Y99.941 E2.9270
G1 X136.074 Y100.425
;segType:Loop
G0 X135.229 Y101.197 F10800
G1 X135.038 Y101.930 E2.9522 F2699
G1 X134.635 Y102.822 E2.9848
G1 X134.089 Y103.629 E3.0172
G1 X133.417 Y104.331 E3.0495
G1 X132.640 Y104.906 E3.0817
G1 X131.779 Y105.340 E3.1137
G1 X130.859 Y105.621 E3.1457
G1 X129.907 Y105.743 E3.1777
G1 X128.947 Y105.702 E3.2096
G1 X128.008 Y105.500 E3.2415
G1 X127.115 Y105.141 E3.2736
G1 X126.293 Y104.635 E3.3057
G1 X125.566 Y103.995 E3.3379
G1 X124.954 Y103.238 E3.3703
G1 X124.477 Y102.385 E3.4028
G1 X124.151 Y101.460 E3.4354
G1 X123.985 Y100.492 E3.4681
G1 X123.985 Y99.508 E3.5008
G1 X124.151 Y98.540 E3.5334
G1 X124.477 Y97.615 E3.5661
G1 X124.954 Y96.762 E3.5986
G1 X125.566 Y96.005 E3.6309
G1 X126.293 Y95.365 E3.6632
G1 X127.115 Y94.859 E3.6953
G1 X128.008 Y94.500 E3.7273
G1 X128.947 Y94.298 E3.7592
G1 X129.907 Y94.257 E3.7912
G1 X130.859 Y94.379 E3.8231
G1 X131.779 Y94.660 E3.8551
G1 X132.640 Y95.094 E3.8872
G1 X133.417 Y95.669 E3.9193
G1 X134.089 Y96.371 E3.9516
G1 X134.635 Y97.178 E3.9840
G1 X135.038 Y98.070 E4.0166
G1 X135.286 Y99.020 E4.0493
G1 X135.369 Y100.000 E4.0820
G1 X135.286 Y100.980 E4.1147
G1 X135.279 Y101.006 E4.1156
;segType:Perimeter
G0 X135.409 Y99.532 F10800
G1 X134.962 Y100.059 E4.1386 F1619
G1 X134.891 Y100.901 E4.1667
G1 X134.663 Y101.776 E4.1967
G1 X134.291 Y102.599 E4.2268
G1 X133.786 Y103.346 E4.2568
G1 X133.163 Y103.996 E4.2867
G1 X132.440 Y104.530 E4.3166
G1 X131.638 Y104.935 E4.3465
G1 X130.780 Y105.197 E4.3763
G1 X129.891 Y105.311 E4.4061
G1 X128.995 Y105.273 E4.4360
G1 X128.118 Y105.084 E4.4658
G1 X127.285 Y104.749 E4.4957
G1 X126.520 Y104.278 E4.5255
G1 X125.845 Y103.684 E4.5555
G1 X125.279 Y102.983 E4.5854
G1 X124.839 Y102.195 E4.6154
G1 X124.538 Y101.343 E4.6455
G1 X124.385 Y100.452 E4.6756
G1 X124.385 Y99.548 E4.7056
G1 X124.538 Y98.657 E4.7357
G1 X124.839 Y97.805 E4.7658
G1 X125.279 Y97.017 E4.7958
G1 X125.845 Y96.316 E4.8258
G1 X126.520 Y95.722 E4.8557
G1 X127.285 Y95.251 E4.8856
G1 X128.118 Y94.916 E4.9154
G1 X128.995 Y94.727 E4.9452
G1 X129.891 Y94.689 E4.9751
G1 X130.780 Y94.803 E5.0049
G1 X131.638 Y95.065 E5.0347
G1 X132.440 Y95.470 E5.0646
G1 X133.163 Y96.004 E5.0945
G1 X133.786 Y96.654 E5.1245
G1 X134.291 Y97.401 E5.1544
G1 X134.663 Y98.224 E5.1845
G1 X134.891 Y99.099 E5.2145
G1 X134.962 Y99.941 E5.2426
G1 X135.409 Y100.468
;segType:Infill
G0 X135.859 Y98.927 F10800
G1 X135.469 Y98.927 E5.2556 F4049
G0 X134.917 Y96.562 F10800
G1 X134.917 Y97.310 E5.2805 F4049
G0 X132.532 Y95.297 F10800
G0 X130.816 Y94.608
G0 X127.549 Y94.133
G1 X127.549 Y94.455 E5.2912 F4049
G0 X125.130 Y96.900 F10800
G0 X123.881 Y98.927
G1 X123.477 Y98.927 E5.3047 F4049
G0 X124.673 Y102.282 F10800
G0 X125.717 Y103.826
G0 X127.549 Y105.545
G1 X127.549 Y105.867 E5.3154 F4049
G0 X130.816 Y105.392 F10800
G0 X132.532 Y104.703
G0 X134.917 Y103.438
G1 X134.917 Y102.690 E5.3403 F4049
G0 F4800 E4.3403
G0 X135.520 Y100.000 F10800
G0 X134.764 Y97.095
G0 X129.919 Y91.756
G0 F4800 E5.3403
;segType:Support
G1 X129.519 Y91.756 E5.3516 F4049
G0 F4800 E4.3516
G0 X129.497 Y90.328 F10800
G0 F4800 E5.3516
G1 X129.897 Y90.328 E5.3629 F4049
G0 X129.875 Y89.492 F10800
G1 X129.475 Y89.492 E5.3742 F4049
G0 X129.864 Y88.600 F10800
G1 X129.464 Y88.600 E5.3855 F4049
G1 X129.464 Y88.200 E5.3968
G1 X129.864 Y88.200 E5.4081
G0 F4800 E4.4081
G0 X129.457 Y86.401 F10800
G0 F4800 E5.4081
G1 X129.857 Y86.401 E5.4195 F4049
G1 X129.857 Y86.801 E5.4308
G1 X129.457 Y86.801 E5.4421
G1 X129.468 Y87.029 E5.4485
G1 X129.868 Y87.029 E5.4598
G1 X129.868 Y87.429 E5.4712
G1 X129.468 Y87.429 E5.4825
G1 X129.833 Y87.518 E5.4931
G1 X129.433 Y87.518 E5.5044
G1 X129.433 Y87.918 E5.5157
G1 X129.833 Y87.918 E5.5270
G0 F4800 E4.5270
G0 X129.475 Y89.092 F10800
G0 F4800 E5.5270
G1 X129.875 Y89.092 E5.5383 F4049
G0 X129.897 Y89.928 F10800
G1 X129.497 Y89.928 E5.5496 F4049
G0 F4800 E4.5496
G0 X129.492 Y91.075 F10800
G0 F4800 E5.5496
G1 X129.892 Y91.075 E5.5609 F4049
G1 X129.892 Y91.475 E5.5722
G1 X129.492 Y91.475 E5.5836
G0 X129.519 Y92.156 F10800
G1 X129.919 Y92.156 E5.5949 F4049
G0 F4800 E4.5949
G0 X133.357 Y93.955 F10800
G0 X134.943 Y95.274
G0 X136.081 Y96.994
G0 X136.674 Y98.969
G0 X136.674 Y101.031
G0 X136.081 Y103.006
G0 X134.943 Y104.726
G0 X133.357 Y106.045
G0 X129.873 Y107.986
G0 F4800 E5.5949
G1 X129.473 Y107.986 E5.6062 F4049
G1 X129.497 Y108.275 E5.6144
G1 X129.897 Y108.275 E5.6257
G1 X129.897 Y108.675 E5.6370
G1 X129.497 Y108.675 E5.6483
G0 X129.947 Y109.457 F10800
G1 X129.547 Y109.457 E5.6596 F4049
G1 X129.885 Y109.628 E5.6703
G1 X129.485 Y109.628 E5.6816
G1 X129.885 Y110.028 E5.6976
G1 X129.485 Y110.028 E5.7089
G1 X129.844 Y110.243 E5.7208
G1 X129.444 Y110.243 E5.7321
G1 X129.444 Y110.643 E5.7434
G1 X129.844 Y110.643 E5.7547
G1 X129.484 Y110.836 E5.7662
G1 X129.884 Y110.836 E5.7775
G1 X129.884 Y111.236 E5.7889
G1 X129.484 Y111.236 E5.8002
G0 F4800 E4.8002
G0 X129.507 Y113.231 F10800
G0 F4800 E5.8002
G1 X129.918 Y113.258 E5.8118 F4049
; ------------------------------------
; Layer #7
; ------------------------------------
G21 ; mm
G90 ; abs
G92 E0 ; reset extr
M106 S255
;segType:Support
G0 F4800 E-1.0000
G0 F300 Z3.100
G0 X129.918 Y113.258 F10800
G0 F4800 E0.0000
G1 X129.507 Y113.231 E0.0117 F4066
G1 X129.507 Y112.831 E0.0230
G1 X129.907 Y112.831 E0.0343
G1 X129.525 Y112.663 E0.0461
G1 X129.925 Y112.663 E0.0574
G1 X129.925 Y112.263 E0.0687
G1 X129.525 Y112.263 E0.0800
G1 X129.870 Y112.149 E0.0903
G1 X129.470 Y112.149 E0.1016
G1 X129.470 Y111.749 E0.1129
G1 X129.870 Y111.749 E0.1242
G1 X129.884 Y111.236 E0.1387
G1 X129.484 Y111.236 E0.1500
G0 F4800 E-0.8500
G0 X129.897 Y108.675 F10800
G0 F4800 E0.1500
G1 X129.497 Y108.675 E0.1613 F4066
G1 X129.497 Y108.275 E0.1726
G1 X129.897 Y108.275 E0.1839
G1 X129.873 Y107.986 E0.1921
G1 X129.473 Y107.986 E0.2034
G0 F4800 E-0.7966
G0 X125.544 Y105.760 F10800
G0 X124.060 Y104.328
G0 X123.050 Y102.530
G0 X122.602 Y100.517
G0 X122.752 Y98.460
G0 X124.060 Y95.672
G0 X126.427 Y93.701
G0 X129.519 Y92.156
G0 F4800 E0.2034
G1 X129.919 Y92.156 E0.2148 F4066
G1 X129.919 Y91.756 E0.2261
G1 X129.519 Y91.756 E0.2374
G0 X129.492 Y91.075 F10800
G1 X129.892 Y91.075 E0.2487 F4066
G0 X129.897 Y90.328 F10800
G1 X129.497 Y90.328 E0.2600 F4066
G0 X129.875 Y89.492 F10800
G1 X129.475 Y89.492 E0.2713 F4066
G0 F4800 E-0.7287
G0 X129.433 Y87.918 F10800
G0 F4800 E0.2713
G1 X129.833 Y87.918 E0.2826 F4066
G0 X129.468 Y87.029 F10800
G1 X129.868 Y87.029 E0.2939 F4066
G1 X129.857 Y86.401 E0.3117
G1 X129.457 Y86.401 E0.3230
G1 X129.857 Y86.801 E0.3390
G1 X129.457 Y86.801 E0.3503
G0 X129.868 Y87.429 F10800
G1 X129.468 Y87.429 E0.3616 F4066
G1 X129.833 Y87.518 E0.3722
G1 X129.433 Y87.518 E0.3835
G0 X129.864 Y88.200 F10800
G1 X129.464 Y88.200 E0.3948 F4066
G1 X129.464 Y88.600 E0.4061
G1 X129.864 Y88.600 E0.4175
G1 X129.875 Y89.092 E0.4314
G1 X129.475 Y89.092 E0.4427
G0 X129.497 Y89.928 F10800
G1 X129.897 Y89.928 E0.4540 F4066
G0 F4800 E-0.5460
G0 X129.492 Y91.475 F10800
G0 F4800 E0.4540
G1 X129.892 Y91.475 E0.4653 F4066
G0 F4800 E-0.5347
G0 X131.358 Y93.253 F10800
G0 X134.764 Y97.095
G0 X136.075 Y101.029
G0 F4800 E0.4653
;segType:Loop
G1 X135.893 Y101.846 E0.4931 F2710
G1 X135.558 Y102.722 E0.5243
G1 X135.098 Y103.542 E0.5556
G1 X134.521 Y104.288 E0.5870
G1 X133.840 Y104.945 E0.6184
G1 X133.068 Y105.497 E0.6500
G1 X132.222 Y105.932 E0.6816
G1 X131.321 Y106.240 E0.7133
G1 X130.380 Y106.413 E0.7451
G1 X129.525 Y106.450 E0.7736
G1 X129.265 Y106.437 E0.7822
G1 X128.481 Y106.343 E0.8085
G1 X127.555 Y106.102 E0.8403
G1 X126.679 Y105.730 E0.8720
G1 X125.868 Y105.235 E0.9036
G1 X125.140 Y104.629 E0.9351
G1 X124.510 Y103.925 E0.9665
G1 X123.990 Y103.140 E0.9979
G1 X123.591 Y102.290 E1.0291
G1 X123.321 Y101.393 E1.0602
G1 X123.185 Y100.467 E1.0913
G1 X123.185 Y99.533 E1.1224
G1 X123.321 Y98.607 E1.1535
G1 X123.591 Y97.710 E1.1847
G1 X123.990 Y96.860 E1.2159
G1 X124.510 Y96.075 E1.2472
G1 X125.140 Y95.371 E1.2787
G1 X125.868 Y94.765 E1.3102
G1 X126.679 Y94.270 E1.3418
G1 X127.556 Y93.898 E1.3735
G1 X128.476 Y93.657 E1.4051
G1 X129.539 Y93.550 E1.4406
G1 X130.380 Y93.587 E1.4686
G1 X131.321 Y93.760 E1.5004
G1 X132.222 Y94.068 E1.5321
G1 X133.068 Y94.503 E1.5638
G1 X133.840 Y95.055 E1.5953
G1 X134.521 Y95.712 E1.6268
G1 X135.098 Y96.458 E1.6582
G1 X135.558 Y97.278 E1.6894
G1 X135.893 Y98.154 E1.7206
G1 X136.096 Y99.068 E1.7518
G1 X136.165 Y100.000 E1.7828
G1 X136.103 Y100.833 E1.8106
G0 F4800 E0.8106
G0 X136.074 Y99.575 F10800
G0 F4800 E1.8106
;segType:Perimeter
G1 X136.562 Y100.059 E1.8335 F1626
G1 X136.493 Y101.000 E1.8649
G1 X136.275 Y101.979 E1.8982
G1 X135.916 Y102.916 E1.9316
G1 X135.424 Y103.792 E1.9650
G1 X134.810 Y104.588 E1.9984
G1 X134.086 Y105.287 E2.0319
G1 X133.266 Y105.873 E2.0654
G1 X132.370 Y106.334 E2.0990
G1 X131.415 Y106.659 E2.1325
G1 X130.422 Y106.843 E2.1661
G1 X129.524 Y106.881 E2.1960
G1 X129.234 Y106.867 E2.2057
G1 X128.412 Y106.768 E2.2332
G1 X127.434 Y106.514 E2.2668
G1 X126.506 Y106.120 E2.3003
G1 X125.646 Y105.595 E2.3338
G1 X124.872 Y104.951 E2.3673
G1 X124.201 Y104.201 E2.4008
G1 X123.647 Y103.363 E2.4342
G1 X123.220 Y102.454 E2.4676
G1 X122.931 Y101.493 E2.5010
G1 X122.785 Y100.501 E2.5343
G1 X122.785 Y99.499 E2.5677
G1 X122.931 Y98.507 E2.6010
G1 X123.220 Y97.546 E2.6344
G1 X123.647 Y96.637 E2.6678
G1 X124.201 Y95.799 E2.7012
G1 X124.872 Y95.049 E2.7347
G1 X125.646 Y94.405 E2.7681
G1 X126.506 Y93.880 E2.8017
G1 X127.435 Y93.486 E2.8352
G1 X128.410 Y93.231 E2.8687
G1 X129.528 Y93.119 E2.9061
G1 X130.422 Y93.157 E2.9359
G1 X131.415 Y93.341 E2.9695
G1 X132.370 Y93.666 E3.0030
G1 X133.266 Y94.127 E3.0365
G1 X134.086 Y94.713 E3.0700
G1 X134.810 Y95.412 E3.1035
G1 X135.424 Y96.208 E3.1370
G1 X135.916 Y97.084 E3.1704
G1 X136.275 Y98.021 E3.2037
G1 X136.493 Y99.000 E3.2371
G1 X136.562 Y99.941 E3.2685
G1 X136.074 Y100.425
;segType:Loop
G0 X135.229 Y101.197 F10800
G1 X135.038 Y101.930 E3.2937 F2710
G1 X134.635 Y102.822 E3.3262
G1 X134.089 Y103.629 E3.3586
G1 X133.417 Y104.331 E3.3909
G1 X132.640 Y104.906 E3.4231
G1 X131.779 Y105.340 E3.4552
G1 X130.859 Y105.621 E3.4872
G1 X129.907 Y105.743 E3.5191
G1 X128.947 Y105.702 E3.5510
G1 X128.008 Y105.500 E3.5830
G1 X127.115 Y105.141 E3.6150
G1 X126.293 Y104.635 E3.6471
G1 X125.566 Y103.995 E3.6793
G1 X124.954 Y103.238 E3.7117
G1 X124.477 Y102.385 E3.7442
G1 X124.151 Y101.460 E3.7768
G1 X123.985 Y100.492 E3.8095
G1 X123.985 Y99.508 E3.8422
G1 X124.151 Y98.540 E3.8749
G1 X124.477 Y97.615 E3.9075
G1 X124.954 Y96.762 E3.9400
G1 X125.566 Y96.005 E3.9724
G1 X126.293 Y95.365 E4.0046
G1 X127.115 Y94.859 E4.0367
G1 X128.008 Y94.500 E4.0687
G1 X128.947 Y94.298 E4.1007
G1 X129.907 Y94.257 E4.1326
G1 X130.859 Y94.379 E4.1645
G1 X131.779 Y94.660 E4.1965
G1 X132.640 Y95.094 E4.2286
G1 X133.417 Y95.669 E4.2608
G1 X134.089 Y96.371 E4.2931
G1 X134.635 Y97.178 E4.3255
G1 X135.038 Y98.070 E4.3580
G1 X135.286 Y99.020 E4.3907
G1 X135.369 Y100.000 E4.4234
G1 X135.286 Y100.980 E4.4561
G1 X135.279 Y101.006 E4.4570
;segType:Perimeter
G0 X135.409 Y99.532 F10800
G1 X134.962 Y100.059 E4.4800 F1626
G1 X134.891 Y100.901 E4.5081
G1 X134.663 Y101.776 E4.5382
G1 X134.291 Y102.599 E4.5682
G1 X133.786 Y103.346 E4.5982
G1 X133.163 Y103.996 E4.6281
G1 X132.440 Y104.530 E4.6580
G1 X131.638 Y104.935 E4.6879
G1 X130.780 Y105.197 E4.7178
G1 X129.891 Y105.311 E4.7476
G1 X128.995 Y105.273 E4.7774
G1 X128.118 Y105.084 E4.8072
G1 X127.285 Y104.749 E4.8371
G1 X126.520 Y104.278 E4.8670
G1 X125.845 Y103.684 E4.8969
G1 X125.279 Y102.983 E4.9269
G1 X124.839 Y102.195 E4.9569
G1 X124.538 Y101.343 E4.9869
G1 X124.385 Y100.452 E5.0170
G1 X124.385 Y99.548 E5.0471
G1 X124.538 Y98.657 E5.0772
G1 X124.839 Y97.805 E5.1072
G1 X125.279 Y97.017 E5.1372
G1 X125.845 Y96.316 E5.1672
G1 X126.520 Y95.722 E5.1971
G1 X127.285 Y95.251 E5.2270
G1 X128.118 Y94.916 E5.2569
G1 X128.995 Y94.727 E5.2867
G1 X129.891 Y94.689 E5.3165
G1 X130.780 Y94.803 E5.3463
G1 X131.638 Y95.065 E5.3762
G1 X132.440 Y95.470 E5.4060
G1 X133.163 Y96.004 E5.4359
G1 X133.786 Y96.654 E5.4659
G1 X134.291 Y97.401 E5.4959
G1 X134.663 Y98.224 E5.5259
G1 X134.891 Y99.099 E5.5560
G1 X134.962 Y99.941 E5.5841
G1 X135.409 Y100.468
;segType:Infill
G0 X135.859 Y98.927 F10800
G1 X135.469 Y98.927 E5.5971 F4066
G0 X134.917 Y96.562 F10800
G1 X134.917 Y97.310 E5.6220 F4066
G0 X132.532 Y95.297 F10800
G0 X130.816 Y94.608
G0 X127.549 Y94.133
G1 X127.549 Y94.455 E5.6327 F4066
G0 X125.130 Y96.900 F10800
G0 X123.881 Y98.927
G1 X123.477 Y98.927 E5.6461 F4066
G0 X124.673 Y102.282 F10800
G0 X125.717 Y103.826
G0 X127.549 Y105.545
G1 X127.549 Y105.867 E5.6568 F4066
G0 X130.816 Y105.392 F10800
G0 X132.532 Y104.703
G0 X134.917 Y103.438
G1 X134.917 Y102.690 E5.6817 F4066
;segType:Support
G0 F4800 E4.6817
G0 X129.947 Y109.057 F10800
G0 F4800 E5.6817
G1 X129.547 Y109.057 E5.6930 F4066
G1 X129.485 Y109.628 E5.7093
G1 X129.885 Y109.628 E5.7206
G1 X129.547 Y109.457 E5.7313
G1 X129.947 Y109.457 E5.7426
G1 X129.885 Y110.028 E5.7589
G1 X129.485 Y110.028 E5.7702
G1 X129.844 Y110.243 E5.7820
G1 X129.444 Y110.243 E5.7933
G1 X129.444 Y110.643 E5.8046
G1 X129.844 Y110.643 E5.8159
G1 X129.484 Y110.836 E5.8275
G1 X129.884 Y110.836 E5.8388
G0 F4800 E4.8388
G0 X129.518 Y113.658 F10800
G0 F4800 E5.8388
G1 X129.918 Y113.658 E5.8501 F4066
; ------------------------------------
; Layer #8
; ------------------------------------
G21 ; mm
G90 ; abs
G92 E0 ; reset extr
M106 S255
;segType:Support
G0 F4800 E-1.0000
G0 F300 Z3.300
G0 X129.918 Y113.658 F10800
G0 F4800 E0.0000
G1 X129.518 Y113.658 E0.0113 F4049
G0 X129.507 Y112.831 F10800
G1 X129.907 Y112.831 E0.0226 F4049
G1 X129.525 Y112.663 E0.0344
G1 X129.925 Y112.663 E0.0457
G1 X129.925 Y112.263 E0.0570
G1 X129.525 Y112.263 E0.0683
G1 X129.870 Y112.149 E0.0786
G1 X129.470 Y112.149 E0.0899
G1 X129.470 Y111.749 E0.1012
G1 X129.870 Y111.749 E0.1126
G0 F4800 E-0.8874
G0 X129.547 Y109.057 F10800
G0 F4800 E0.1126
G1 X129.947 Y109.057 E0.1239 F4049
G0 F4800 E-0.8761
G0 X131.479 Y107.050 F10800
G0 X133.011 Y105.043
G0 X136.075 Y101.029
G0 F4800 E0.1239
;segType:Loop
G1 X135.893 Y101.846 E0.1517 F2699
G1 X135.558 Y102.722 E0.1829
G1 X135.098 Y103.542 E0.2142
G1 X134.521 Y104.288 E0.2455
G1 X133.840 Y104.945 E0.2770
G1 X133.068 Y105.497 E0.3086
G1 X132.222 Y105.932 E0.3402
G1 X131.321 Y106.240 E0.3719
G1 X130.380 Y106.413 E0.4037
G1 X129.539 Y106.450 E0.4317
G1 X129.242 Y106.435 E0.4416
G1 X128.481 Y106.342 E0.4671
G1 X127.555 Y106.102 E0.4989
G1 X126.679 Y105.730 E0.5306
G1 X125.868 Y105.235 E0.5622
G1 X125.140 Y104.629 E0.5937
G1 X124.510 Y103.925 E0.6251
G1 X123.990 Y103.140 E0.6564
G1 X123.591 Y102.290 E0.6876
G1 X123.321 Y101.393 E0.7188
G1 X123.185 Y100.467 E0.7499
G1 X123.185 Y99.533 E0.7810
G1 X123.321 Y98.607 E0.8121
G1 X123.591 Y97.710 E0.8433
G1 X123.990 Y96.860 E0.8745
G1 X124.510 Y96.075 E0.9058
G1 X125.140 Y95.371 E0.9372
G1 X125.868 Y94.765 E0.9687
G1 X126.679 Y94.270 E1.0003
G1 X127.556 Y93.898 E1.0320
G1 X128.476 Y93.657 E1.0636
G1 X129.553 Y93.550 E1.0996
G1 X130.380 Y93.587 E1.1272
G1 X131.321 Y93.760 E1.1590
G1 X132.222 Y94.068 E1.1907
G1 X133.068 Y94.503 E1.2223
G1 X133.840 Y95.055 E1.2539
G1 X134.521 Y95.712 E1.2854
G1 X135.098 Y96.458 E1.3167
G1 X135.558 Y97.278 E1.3480
G1 X135.893 Y98.154 E1.3792
G1 X136.096 Y99.068 E1.4103
G1 X136.165 Y100.000 E1.4414
G1 X136.103 Y100.833 E1.4692
G0 F4800 E0.4692
G0 X136.074 Y99.575 F10800
G0 F4800 E1.4692
;segType:Perimeter
G1 X136.562 Y100.059 E1.4921 F1619
G1 X136.493 Y101.000 E1.5234
G1 X136.275 Y101.979 E1.5568
G1 X135.916 Y102.916 E1.5902
G1 X135.424 Y103.792 E1.6236
G1 X134.810 Y104.588 E1.6570
G1 X134.086 Y105.287 E1.6905
G1 X133.266 Y105.873 E1.7240
G1 X132.370 Y106.334 E1.7575
G1 X131.415 Y106.659 E1.7911
G1 X130.422 Y106.843 E1.8247
G1 X129.538 Y106.882 E1.8541
G1 X129.210 Y106.865 E1.8650
G1 X128.412 Y106.767 E1.8918
G1 X127.434 Y106.514 E1.9253
G1 X126.506 Y106.120 E1.9589
G1 X125.646 Y105.595 E1.9924
G1 X124.872 Y104.951 E2.0259
G1 X124.201 Y104.201 E2.0593
G1 X123.647 Y103.363 E2.0928
G1 X123.220 Y102.454 E2.1262
G1 X122.931 Y101.493 E2.1595
G1 X122.785 Y100.501 E2.1929
G1 X122.785 Y99.499 E2.2262
G1 X122.931 Y98.507 E2.2596
G1 X123.220 Y97.546 E2.2929
G1 X123.647 Y96.637 E2.3263
G1 X124.201 Y95.799 E2.3598
G1 X124.872 Y95.049 E2.3932
G1 X125.646 Y94.405 E2.4267
G1 X126.506 Y93.880 E2.4602
G1 X127.435 Y93.486 E2.4938
G1 X128.410 Y93.231 E2.5273
G1 X129.542 Y93.118 E2.5652
G1 X130.422 Y93.157 E2.5944
G1 X131.415 Y93.341 E2.6280
G1 X132.370 Y93.666 E2.6616
G1 X133.266 Y94.127 E2.6951
G1 X134.086 Y94.713 E2.7286
G1 X134.810 Y95.412 E2.7621
G1 X135.424 Y96.208 E2.7955
G1 X135.916 Y97.084 E2.8289
G1 X136.275 Y98.021 E2.8623
G1 X136.493 Y99.000 E2.8957
G1 X136.562 Y99.941 E2.9270
G1 X136.074 Y100.425
;segType:Loop
G0 X135.229 Y101.197 F10800
G1 X135.038 Y101.930 E2.9522 F2699
G1 X134.635 Y102.822 E2.9848
G1 X134.089 Y103.629 E3.0172
G1 X133.417 Y104.331 E3.0495
G1 X132.640 Y104.906 E3.0817
G1 X131.779 Y105.340 E3.1137
G1 X130.859 Y105.621 E3.1457
G1 X129.907 Y105.743 E3.1777
G1 X128.947 Y105.702 E3.2096
G1 X128.008 Y105.500 E3.2415
G1 X127.115 Y105.141 E3.2736
G1 X126.293 Y104.635 E3.3057
G1 X125.566 Y103.995 E3.3379
G1 X124.954 Y103.238 E3.3703
G1 X124.477 Y102.385 E3.4028
G1 X124.151 Y101.460 E3.4354
G1 X123.985 Y100.492 E3.4681
G1 X123.985 Y99.508 E3.5008
G1 X124.151 Y98.540 E3.5334
G1 X124.477 Y97.615 E3.5661
G1 X124.954 Y96.762 E3.5986
G1 X125.566 Y96.005 E3.6309
G1 X126.293 Y95.365 E3.6631
G1 X127.115 Y94.859 E3.6953
G1 X128.008 Y94.500 E3.7273
G1 X128.947 Y94.298 E3.7592
G1 X129.907 Y94.257 E3.7912
G1 X130.859 Y94.379 E3.8231
G1 X131.779 Y94.660 E3.8551
G1 X132.640 Y95.094 E3.8872
G1 X133.417 Y95.669 E3.9193
G1 X134.089 Y96.371 E3.9516
G1 X134.635 Y97.178 E3.9840
G1 X135.038 Y98.070 E4.0166
G1 X135.286 Y99.020 E4.0493
G1 X135.369 Y100.000 E4.0820
G1 X135.286 Y100.980 E4.1147
G1 X135.279 Y101.006 E4.1156
;segType:Perimeter
G0 X135.409 Y99.532 F10800
G1 X134.962 Y100.059 E4.1386 F1619
G1 X134.891 Y100.901 E4.1667
G1 X134.663 Y101.776 E4.1967
G1 X134.291 Y102.599 E4.2268
G1 X133.786 Y103.346 E4.2568
G1 X133.163 Y103.996 E4.2867
G1 X132.440 Y104.530 E4.3166
G1 X131.638 Y104.935 E4.3465
G1 X130.780 Y105.197 E4.3763
G1 X129.891 Y105.311 E4.4061
G1 X128.995 Y105.273 E4.4360
G1 X128.118 Y105.084 E4.4658
G1 X127.285 Y104.749 E4.4956
G1 X126.520 Y104.278 E4.5255
G1 X125.845 Y103.684 E4.5555
G1 X125.279 Y102.983 E4.5854
G1 X124.839 Y102.195 E4.6154
G1 X124.538 Y101.343 E4.6455
G1 X124.385 Y100.452 E4.6756
G1 X124.385 Y99.548 E4.7056
G1 X124.538 Y98.657 E4.7357
G1 X124.839 Y97.805 E4.7658
G1 X125.279 Y97.017 E4.7958
G1 X125.845 Y96.316 E4.8258
G1 X126.520 Y95.722 E4.8557
G1 X127.285 Y95.251 E4.8856
G1 X128.118 Y94.916 E4.9154
G1 X128.995 Y94.727 E4.9452
G1 X129.891 Y94.689 E4.9751
G1 X130.780 Y94.803 E5.0049
G1 X131.638 Y95.065 E5.0347
G1 X132.440 Y95.470 E5.0646
G1 X133.163 Y96.004 E5.0945
G1 X133.786 Y96.654 E5.1245
G1 X134.291 Y97.401 E5.1544
G1 X134.663 Y98.224 E5.1845
G1 X134.891 Y99.099 E5.2145
G1 X134.962 Y99.941 E5.2426
G1 X135.409 Y100.468
;segType:Infill
G0 X135.859 Y98.927 F10800
G1 X135.469 Y98.927 E5.2556 F4049
G0 X134.917 Y96.562 F10800
G1 X134.917 Y97.310 E5.2805 F4049
G0 X132.532 Y95.297 F10800
G0 X130.816 Y94.608
G0 X127.549 Y94.133
G1 X127.549 Y94.455 E5.2912 F4049
G0 X125.130 Y96.900 F10800
G0 X123.881 Y98.927
G1 X123.477 Y98.927 E5.3047 F4049
G0 X124.673 Y102.282 F10800
G0 X125.717 Y103.826
G0 X127.549 Y105.545
G1 X127.549 Y105.867 E5.3154 F4049
G0 X130.816 Y105.392 F10800
G0 X132.532 Y104.703
G0 X134.917 Y103.438
G1 X134.917 Y102.690 E5.3403 F4049
G0 F4800 E4.3403
G0 X135.520 Y100.000 F10800
G0 X134.764 Y97.095
G0 X129.919 Y91.756
G0 F4800 E5.3403
;segType:Support
G1 X129.519 Y91.756 E5.3516 F4049
G0 F4800 E4.3516
G0 X129.497 Y90.328 F10800
G0 F4800 E5.3516
G1 X129.897 Y90.328 E5.3629 F4049
G0 X129.875 Y89.492 F10800
G1 X129.475 Y89.492 E5.3742 F4049
G0 X129.864 Y88.600 F10800
