; GCode generated by CraftWare

G28 X0 Y0
G28 Z0

M190 S70 ;set bed temp (wait)
M109 S220 ;set head temp (wait)

; ------------------------------------
; Raft Layer #0
; ------------------------------------
G21 ; mm
G90 ; abs
G92 E0 ; reset extr
M106 S0
;segType:Raft
G0 F4800 E-1.0000
G0 F300 Z0.300
G0 X0.000 Y0.000 F10800
G0 F4800 E0.0000
G1 X86.685 Y104.620 E6.7784 F600
G1 X86.685 Y96.656 E7.1757
G1 X90.647 Y95.039 E7.3892
G1 X90.647 Y106.362 E7.9541
G1 X94.608 Y110.343 E8.2343
G1 X94.608 Y91.057 E9.1965
G1 X98.569 Y89.564 E9.4077
G1 X98.569 Y111.961 E10.5251
G1 X102.530 Y111.961 E10.7227
G1 X102.530 Y89.564 E11.8401
G1 X106.492 Y90.435 E12.0424
G1 X106.492 Y110.965 E13.0667
G1 X110.453 Y107.481 E13.3299
G1 X110.453 Y93.919 E14.0065
G1 X114.414 Y96.656 E14.2468
G1 X114.414 Y104.620 E14.6441
G1 X118.375 Y104.495 E14.8418
G1 X118.375 Y96.532 E15.2391
G1 X122.337 Y91.928 E15.5421
G1 X122.337 Y108.975 E16.3925
G1 X126.298 Y111.463 E16.6259
G1 X126.298 Y89.439 E17.7247
G1 X130.259 Y89.190 E17.9227
G1 X130.259 Y100.140 E18.4690
G1 X130.259 Y100.762 E18.5000
G1 X130.259 Y111.588 E19.0401
G1 X134.220 Y111.214 E19.2386
G1 X134.220 Y89.688 E20.3125
G1 X138.181 Y92.550 E20.5563
G1 X138.181 Y108.352 E21.3447
G1 X142.143 Y104.495 E21.6206
G1 X142.143 Y96.532 E22.0179
G1 X146.104 Y96.532 E22.2155
G1 X146.104 Y104.371 E22.6066
G1 X150.065 Y106.984 E22.8433
G1 X150.065 Y93.919 E23.4951
G1 X154.026 Y90.310 E23.7625
G1 X154.026 Y110.468 E24.7681
G1 X157.988 Y111.588 E24.9735
G1 X157.988 Y89.190 E26.0909
G1 X161.949 Y89.190 E26.2885
G1 X161.949 Y111.588 E27.4059
G1 X165.910 Y110.343 E27.6131
G1 X165.910 Y90.559 E28.6001
G1 X169.871 Y94.292 E28.8716
G1 X169.871 Y106.486 E29.4800
G1 X173.833 Y104.495 E29.7012
G1 X173.833 Y96.407 E30.1047



; ------------------------------------
; Raft Layer #1
; ------------------------------------
G21 ; mm
G90 ; abs
G92 E0 ; reset extr
M106 S255
;segType:Raft
G0 F4800 E-1.0000
G0 F300 Z0.600
G0 X175.702 Y96.590 F10800
G0 F4800 E0.0000
G1 X114.628 Y96.590 E3.0470 F3600
G1 X111.990 Y96.590 E3.1786
G1 X89.829 Y96.590 E4.2842
G1 X90.357 Y95.345 E4.3517
G1 X111.462 Y95.345 E5.4046
G1 X110.539 Y94.099 E5.4820
G1 X91.280 Y94.099 E6.4428
G1 X92.599 Y92.854 E6.5333
G1 X109.220 Y92.854 E7.3625
G1 X107.900 Y91.608 E7.4530
G1 X93.918 Y91.608 E8.1506
G1 X95.633 Y90.363 E8.2564
G1 X106.318 Y90.363 E8.7894
G0 F4800 E7.7894
G0 X119.245 Y95.345 F10800
G0 F4800 E8.7894
G1 X140.482 Y95.345 E9.8490 F3600
G1 X139.690 Y94.099 E9.9226
G1 X120.036 Y94.099 E10.9031
G1 X121.223 Y92.854 E10.9890
G1 X138.503 Y92.854 E11.8511
G1 X137.184 Y91.608 E11.9416
G1 X122.542 Y91.608 E12.6721
G1 X123.993 Y90.363 E12.7675
G1 X135.733 Y90.363 E13.3532
G0 F4800 E12.3532
G0 X149.056 Y95.345 F10800
G0 F4800 E13.3532
G1 X170.425 Y95.345 E14.4193 F3600
G1 X169.634 Y94.099 E14.4929
G1 X149.847 Y94.099 E15.4801
G1 X151.167 Y92.854 E15.5706
G1 X168.447 Y92.854 E16.4327
G1 X167.128 Y91.608 E16.5232
G1 X152.486 Y91.608 E17.2537
G1 X153.937 Y90.363 E17.3491
G1 X165.677 Y90.363 E17.9348
G0 F4800 E16.9348
G0 X177.021 Y97.836 F10800
G0 F4800 E17.9348
G1 X84.025 Y97.836 E22.5744 F3600
G1 X83.233 Y101.572 E22.7649
G1 X177.680 Y101.572 E27.4769
G1 X177.680 Y100.327 E27.5391
G1 X160.136 Y100.327 E28.4143
G1 X159.477 Y100.327 E28.4472
G1 X130.193 Y100.327 E29.9082
G1 X129.533 Y100.327 E29.9411
G1 X101.173 Y100.327 E31.3560
G1 X100.777 Y100.327 E31.3758
G1 X83.233 Y100.327 E32.2510
G1 X83.233 Y99.081 E32.3132
G1 X177.680 Y99.081 E37.0251
G1 X177.153 Y102.818 E37.2134
G1 X83.497 Y102.818 E41.8859
G1 X84.816 Y104.063 E41.9764
G1 X175.834 Y104.063 E46.5173
G1 X170.557 Y105.309 E46.7877
G1 X149.056 Y105.309 E47.8604
G1 X149.847 Y106.554 E47.9341
G1 X169.766 Y106.554 E48.9278
G1 X168.579 Y107.800 E49.0136
G1 X151.035 Y107.800 E49.8889
G1 X152.354 Y109.045 E49.9794
G1 X167.259 Y109.045 E50.7231
G1 X165.808 Y110.291 E50.8185
G1 X153.805 Y110.291 E51.4173
G0 F4800 E50.4173
G0 X140.614 Y105.309 F10800
G0 F4800 E51.4173
G1 X119.113 Y105.309 E52.4900 F3600
G1 X119.904 Y106.554 E52.5636
G1 X139.822 Y106.554 E53.5574
G1 X138.635 Y107.800 E53.6432
G1 X121.091 Y107.800 E54.5185
G1 X122.410 Y109.045 E54.6090
G1 X137.316 Y109.045 E55.3526
G1 X135.865 Y110.291 E55.4480
G1 X123.993 Y110.291 E56.0403
G0 F4800 E55.0403
G0 X111.726 Y105.309 F10800
G0 F4800 E56.0403
G1 X90.093 Y105.309 E57.1196 F3600
G1 X90.752 Y106.554 E57.1899
G1 X111.066 Y106.554 E58.2034
G1 X109.879 Y107.800 E58.2892
G1 X91.939 Y107.800 E59.1842
G1 X93.259 Y109.045 E59.2748
G1 X108.560 Y109.045 E60.0381
G1 X107.241 Y110.291 E60.1287
G1 X94.578 Y110.291 E60.7604
G1 X97.084 Y111.537 E60.9001
G1 X104.735 Y111.537 E61.2818



; ------------------------------------
; Raft Layer #2
; ------------------------------------
G21 ; mm
G90 ; abs
G92 E0 ; reset extr
M106 S255
;segType:Raft
G0 F4800 E-1.0000
G0 F300 Z0.900
G0 X100.946 Y101.260 F10800
G0 F4800 E0.0000
G1 X100.946 Y111.961 E0.5339 F3600
G1 X101.342 Y111.961 E0.5536
G1 X101.342 Y100.887 E1.1061
G0 F4800 E0.1061
G0 X89.855 Y104.620 F10800
G0 F4800 E1.1061
G1 X89.855 Y96.781 E1.4972 F3600
G1 X89.459 Y96.656 E1.5179
G1 X89.459 Y104.620 E1.9152
G1 X89.062 Y104.620 E1.9350
G1 X89.062 Y96.656 E2.3323
G1 X88.666 Y96.656 E2.3520
G1 X88.666 Y104.620 E2.7493
G1 X88.270 Y104.620 E2.7691
G1 X88.270 Y96.656 E3.1664
G1 X87.874 Y96.656 E3.1861
G1 X87.874 Y104.620 E3.5834
G1 X87.478 Y104.620 E3.6032
G1 X87.478 Y96.656 E4.0005
G1 X87.082 Y96.656 E4.0203
G1 X87.082 Y104.620 E4.4176
G1 X86.686 Y104.620 E4.4373
G1 X86.686 Y96.656 E4.8346
G1 X86.290 Y96.656 E4.8544
G1 X86.290 Y104.620 E5.2517
G1 X85.894 Y104.620 E5.2714
G1 X85.894 Y96.656 E5.6687
G1 X85.497 Y96.656 E5.6885
G1 X85.497 Y104.620 E6.0858
G1 X85.101 Y104.371 E6.1091
G1 X85.101 Y96.905 E6.4816
G1 X84.705 Y97.278 E6.5087
G1 X84.705 Y103.997 E6.8440
G1 X84.309 Y103.624 E6.8711
G1 X84.309 Y97.652 E7.1691
G1 X83.913 Y98.025 E7.1962
G1 X83.913 Y103.251 E7.4570
G1 X83.517 Y102.878 E7.4841
G1 X83.517 Y98.398 E7.7076
G0 F4800 E6.7076
G0 X90.251 Y105.615 F10800
G0 F4800 E7.7076
G1 X90.251 Y95.785 E8.1980 F3600
G1 X90.647 Y95.039 E8.2402
G1 X90.647 Y106.362 E8.8051
G1 X91.043 Y106.859 E8.8368
G1 X91.043 Y94.541 E9.4514
G1 X91.439 Y94.043 E9.4831
G1 X91.439 Y107.357 E10.1473
G1 X91.835 Y107.730 E10.1745
G1 X91.835 Y93.670 E10.8760
G1 X92.231 Y93.297 E10.9031
G1 X92.231 Y108.104 E11.6418
G1 X92.628 Y108.477 E11.6690
G1 X92.628 Y92.923 E12.4450
G1 X93.024 Y92.550 E12.4721
G1 X93.024 Y108.850 E13.2853
G1 X93.420 Y109.223 E13.3125
G1 X93.420 Y92.177 E14.1629
G1 X93.816 Y91.803 E14.1901
G1 X93.816 Y109.597 E15.0778
G1 X94.212 Y109.970 E15.1050
G1 X94.212 Y91.430 E16.0299
G1 X94.608 Y91.057 E16.0571
G1 X94.608 Y110.343 E17.0193
G1 X95.004 Y110.592 E17.0426
G1 X95.004 Y90.808 E18.0296
G1 X95.400 Y90.559 E18.0530
G1 X95.400 Y110.965 E19.0710
G1 X95.797 Y111.090 E19.0918
G1 X95.797 Y90.310 E20.1285
G1 X96.193 Y90.061 E20.1518
G1 X96.193 Y111.339 E21.2133
G1 X96.589 Y111.463 E21.2340
G1 X96.589 Y89.937 E22.3080
G1 X96.985 Y89.813 E22.3287
G1 X96.985 Y111.588 E23.4150
G1 X97.381 Y111.712 E23.4357
G1 X97.381 Y89.688 E24.5345
G1 X97.777 Y89.688 E24.5543
G1 X97.777 Y111.836 E25.6593
G1 X98.173 Y111.836 E25.6790
G1 X98.173 Y89.564 E26.7902
G1 X98.569 Y89.564 E26.8100
G1 X98.569 Y111.961 E27.9274
G1 X98.966 Y111.961 E27.9471
G1 X98.966 Y89.564 E29.0645
G1 X99.362 Y89.564 E29.0843
G1 X99.362 Y111.961 E30.2017
G1 X99.758 Y111.961 E30.2214
G1 X99.758 Y89.564 E31.3388
G1 X100.154 Y89.564 E31.3586
G1 X100.154 Y111.961 E32.4760
G1 X100.550 Y111.961 E32.4957
G1 X100.550 Y89.564 E33.6131
G1 X100.946 Y89.564 E33.6329
G1 X100.946 Y100.140 E34.1605
G1 X101.342 Y100.638 E34.1923
G1 X101.342 Y89.564 E34.7448
G1 X101.738 Y89.564 E34.7645
G1 X101.738 Y111.961 E35.8819
G1 X102.135 Y111.961 E35.9017
G1 X102.135 Y89.564 E37.0191
G1 X102.531 Y89.564 E37.0388
G1 X102.531 Y111.961 E38.1562
G1 X102.927 Y111.961 E38.1760
G1 X102.927 Y89.564 E39.2934
G1 X103.323 Y89.564 E39.3132
G1 X103.323 Y111.961 E40.4306
G1 X103.719 Y111.836 E40.4513
G1 X103.719 Y89.564 E41.5625
G1 X104.115 Y89.564 E41.5822
G1 X104.115 Y111.836 E42.6934
G1 X104.511 Y111.712 E42.7141
G1 X104.511 Y89.688 E43.8129
G1 X104.907 Y89.813 E43.8336
G1 X104.907 Y111.588 E44.9200
G1 X105.304 Y111.463 E44.9407
G1 X105.304 Y89.937 E46.0146
G1 X105.700 Y90.061 E46.0353
G1 X105.700 Y111.339 E47.0968
G1 X106.096 Y111.214 E47.1176
G1 X106.096 Y90.186 E48.1667
G1 X106.492 Y90.435 E48.1900
G1 X106.492 Y110.965 E49.2143
G1 X106.888 Y110.717 E49.2376
G1 X106.888 Y90.684 E50.2371
G1 X107.284 Y90.932 E50.2604
G1 X107.284 Y110.468 E51.2350
G1 X107.680 Y110.094 E51.2622
G1 X107.680 Y91.306 E52.1995
G1 X108.076 Y91.679 E52.2267
G1 X108.076 Y109.721 E53.1268
G1 X108.473 Y109.348 E53.1540
G1 X108.473 Y92.052 E54.0168
G1 X108.869 Y92.426 E54.0440
G1 X108.869 Y108.975 E54.8696
G1 X109.265 Y108.601 E54.8968
G1 X109.265 Y92.799 E55.6852
G1 X109.661 Y93.172 E55.7123
G1 X109.661 Y108.228 E56.4635
G1 X110.057 Y107.855 E56.4906
G1 X110.057 Y93.545 E57.2045
G1 X110.453 Y93.919 E57.2317
G1 X110.453 Y107.481 E57.9083
G1 X110.849 Y107.108 E57.9355
G1 X110.849 Y94.292 E58.5748
G1 X111.245 Y94.914 E58.6116
G1 X111.245 Y106.610 E59.1952
G1 X111.642 Y105.988 E59.2320
G1 X111.642 Y95.536 E59.7534
G1 X112.038 Y96.407 E59.8012
G1 X112.038 Y104.993 E60.2295
G1 X112.434 Y104.620 E60.2566
G1 X112.434 Y96.656 E60.6539
G1 X112.830 Y96.656 E60.6737
G1 X112.830 Y104.620 E61.0710
G1 X113.226 Y104.620 E61.0908
G1 X113.226 Y96.656 E61.4881
G1 X113.622 Y96.656 E61.5078
G1 X113.622 Y104.620 E61.9051
G1 X114.018 Y104.620 E61.9249
G1 X114.018 Y96.656 E62.3222
G1 X114.414 Y96.656 E62.3419
G1 X114.414 Y104.620 E62.7392
G1 X114.810 Y104.620 E62.7590
G1 X114.810 Y96.532 E63.1625
G1 X115.207 Y96.532 E63.1823
G1 X115.207 Y104.620 E63.5858
G1 X115.603 Y104.620 E63.6055
G1 X115.603 Y96.532 E64.0090
G1 X115.999 Y96.532 E64.0288
G1 X115.999 Y104.620 E64.4323
G1 X116.395 Y104.620 E64.4520
G1 X116.395 Y96.532 E64.8555
G1 X116.791 Y96.532 E64.8753
G1 X116.791 Y104.495 E65.2726
G1 X117.187 Y104.495 E65.2924
G1 X117.187 Y96.532 E65.6897
G1 X117.583 Y96.532 E65.7094
G1 X117.583 Y104.495 E66.1067
G1 X117.979 Y104.495 E66.1265
G1 X117.979 Y96.532 E66.5238
G1 X118.376 Y96.532 E66.5435
G1 X118.376 Y104.495 E66.9408
G1 X118.772 Y104.495 E66.9606
G1 X118.772 Y96.532 E67.3579
G1 X119.168 Y95.661 E67.4056
G1 X119.168 Y105.117 E67.8774
G1 X119.564 Y105.988 E67.9251
G1 X119.564 Y94.914 E68.4776
G1 X119.960 Y94.292 E68.5144
G1 X119.960 Y106.610 E69.1290
G1 X120.356 Y106.984 E69.1561
G1 X120.356 Y93.794 E69.8142
G1 X120.752 Y93.421 E69.8413
G1 X120.752 Y107.481 E70.5428
G1 X121.148 Y107.855 E70.5699
G1 X121.148 Y93.048 E71.3087
G1 X121.545 Y92.674 E71.3358
G1 X121.545 Y108.228 E72.1118
G1 X121.941 Y108.601 E72.1389
G1 X121.941 Y92.301 E72.9521
G1 X122.337 Y91.928 E72.9793
G1 X122.337 Y108.975 E73.8298
G1 X122.733 Y109.348 E73.8569
G1 X122.733 Y91.555 E74.7446
G1 X123.129 Y91.181 E74.7718
G1 X123.129 Y109.721 E75.6967
G1 X123.525 Y109.970 E75.7201
G1 X123.525 Y90.808 E76.6760
G1 X123.921 Y90.559 E76.6994
G1 X123.921 Y110.343 E77.6864
G1 X124.317 Y110.592 E77.7098
G1 X124.317 Y90.310 E78.7216
G1 X124.714 Y90.061 E78.7450
G1 X124.714 Y110.841 E79.7816
G1 X125.110 Y110.965 E79.8024
G1 X125.110 Y89.813 E80.8577
G1 X125.506 Y89.688 E80.8784
G1 X125.506 Y111.214 E81.9523
G1 X125.902 Y111.339 E81.9730
G1 X125.902 Y89.564 E83.0594
G1 X126.298 Y89.439 E83.0801
G1 X126.298 Y111.463 E84.1789
G1 X126.694 Y111.463 E84.1986
G1 X126.694 Y89.315 E85.3036
G1 X127.090 Y89.315 E85.3234
G1 X127.090 Y111.588 E86.4345
G1 X127.486 Y111.588 E86.4543
G1 X127.486 Y89.315 E87.5655
G1 X127.882 Y89.190 E87.5862
G1 X127.882 Y111.588 E88.7036
G1 X128.279 Y111.588 E88.7234
G1 X128.279 Y89.190 E89.8407
G1 X128.675 Y89.190 E89.8605
G1 X128.675 Y111.588 E90.9779
G1 X129.071 Y111.588 E90.9977
G1 X129.071 Y89.190 E92.1151
G1 X129.467 Y89.190 E92.1348
G1 X129.467 Y111.588 E93.2522
G1 X129.863 Y111.588 E93.2720
G1 X129.863 Y100.887 E93.8058
G1 X129.863 Y99.891 E93.8555
G1 X129.863 Y89.190 E94.3894
G1 X130.259 Y89.190 E94.4091
G1 X130.259 Y111.588 E95.5265
G1 X130.655 Y111.588 E95.5463
G1 X130.655 Y89.190 E96.6637
G1 X131.051 Y89.190 E96.6834
G1 X131.051 Y111.588 E97.8008
G1 X131.448 Y111.588 E97.8206
G1 X131.448 Y89.190 E98.9380
G1 X131.844 Y89.190 E98.9577
G1 X131.844 Y111.588 E100.0751
G1 X132.240 Y111.588 E100.0949
G1 X132.240 Y89.190 E101.2123
G1 X132.636 Y89.315 E101.2330
G1 X132.636 Y111.588 E102.3442
G1 X133.032 Y111.588 E102.3639
G1 X133.032 Y89.315 E103.4751
G1 X133.428 Y89.439 E103.4958
G1 X133.428 Y111.463 E104.5946
G1 X133.824 Y111.339 E104.6153
G1 X133.824 Y89.439 E105.7079
G1 X134.220 Y89.688 E105.7312
G1 X134.220 Y111.214 E106.8052
G1 X134.617 Y111.090 E106.8259
G1 X134.617 Y89.813 E107.8874
G1 X135.013 Y89.937 E107.9081
G1 X135.013 Y110.841 E108.9510
G1 X135.409 Y110.717 E108.9717
G1 X135.409 Y90.186 E109.9960
G1 X135.805 Y90.435 E110.0193
G1 X135.805 Y110.468 E111.0188
G1 X136.201 Y110.219 E111.0421
G1 X136.201 Y90.684 E112.0167
G1 X136.597 Y91.057 E112.0439
G1 X136.597 Y109.846 E112.9813
G1 X136.993 Y109.472 E113.0084
G1 X136.993 Y91.430 E113.9085
G1 X137.389 Y91.803 E113.9357
G1 X137.389 Y109.099 E114.7986
G1 X137.786 Y108.726 E114.8257
G1 X137.786 Y92.177 E115.6514
G1 X138.182 Y92.550 E115.6785
G1 X138.182 Y108.352 E116.4669
G1 X138.578 Y107.979 E116.4940
G1 X138.578 Y92.923 E117.2452
G1 X138.974 Y93.297 E117.2723
G1 X138.974 Y107.606 E117.9862
G1 X139.370 Y107.233 E118.0134
G1 X139.370 Y93.670 E118.6900
G1 X139.766 Y94.168 E118.7218
G1 X139.766 Y106.735 E119.3487
G1 X140.162 Y106.237 E119.3805
G1 X140.162 Y94.665 E119.9578
G1 X140.558 Y95.412 E120.0000
G1 X140.558 Y105.491 E120.5028
G1 X140.955 Y104.620 E120.5505
G1 X140.955 Y96.407 E120.9602
G1 X141.351 Y96.532 E120.9809
G1 X141.351 Y104.495 E121.3782
G1 X141.747 Y104.495 E121.3980
G1 X141.747 Y96.532 E121.7953
G1 X142.143 Y96.532 E121.8151
G1 X142.143 Y104.495 E122.2123
G1 X142.539 Y104.495 E122.2321
G1 X142.539 Y96.532 E122.6294
G1 X142.935 Y96.532 E122.6492
G1 X142.935 Y104.371 E123.0403
G1 X143.331 Y104.371 E123.0600
G1 X143.331 Y96.532 E123.4511
G1 X143.727 Y96.532 E123.4709
G1 X143.727 Y104.371 E123.8620
G1 X144.123 Y104.371 E123.8817
G1 X144.123 Y96.532 E124.2728
G1 X144.520 Y96.532 E124.2926
G1 X144.520 Y104.371 E124.6837
G1 X144.916 Y104.371 E124.7034
G1 X144.916 Y96.532 E125.0945
G1 X145.312 Y96.532 E125.1143
G1 X145.312 Y104.371 E125.5054
G1 X145.708 Y104.371 E125.5251
G1 X145.708 Y96.532 E125.9162
G1 X146.104 Y96.532 E125.9360
G1 X146.104 Y104.371 E126.3271
G1 X146.500 Y104.371 E126.3468
G1 X146.500 Y96.532 E126.7379
G1 X146.896 Y96.532 E126.7577
G1 X146.896 Y104.371 E127.1488
G1 X147.292 Y104.495 E127.1695
G1 X147.292 Y96.532 E127.5668
G1 X147.689 Y96.532 E127.5865
G1 X147.689 Y104.495 E127.9838
G1 X148.085 Y104.495 E128.0036
G1 X148.085 Y96.407 E128.4071
G1 X148.481 Y96.407 E128.4268
G1 X148.481 Y104.495 E128.8303
G1 X148.877 Y104.993 E128.8621
G1 X148.877 Y95.910 E129.3153
G1 X149.273 Y95.039 E129.3630
G1 X149.273 Y105.864 E129.9031
G1 X149.669 Y106.486 E129.9398
G1 X149.669 Y94.416 E130.5420
G1 X150.065 Y93.919 E130.5737
G1 X150.065 Y106.984 E131.2255
G1 X150.461 Y107.357 E131.2527
G1 X150.461 Y93.545 E131.9418
G1 X150.858 Y93.172 E131.9689
G1 X150.858 Y107.730 E132.6952
G1 X151.254 Y108.104 E132.7224
G1 X151.254 Y92.799 E133.4859
G1 X151.650 Y92.426 E133.5131
G1 X151.650 Y108.477 E134.3139
G1 X152.046 Y108.850 E134.3411
G1 X152.046 Y92.052 E135.1791
G1 X152.442 Y91.679 E135.2063
G1 X152.442 Y109.223 E136.0815
G1 X152.838 Y109.597 E136.1087
G1 X152.838 Y91.306 E137.0212
G1 X153.234 Y90.932 E137.0484
G1 X153.234 Y109.970 E137.9982
G1 X153.630 Y110.219 E138.0215
G1 X153.630 Y90.559 E139.0024
G1 X154.026 Y90.310 E139.0257
G1 X154.026 Y110.468 E140.0313
G1 X154.423 Y110.841 E140.0585
G1 X154.423 Y90.061 E141.0952
G1 X154.819 Y89.937 E141.1159
G1 X154.819 Y110.965 E142.1650
G1 X155.215 Y111.090 E142.1858
G1 X155.215 Y89.688 E143.2535
G1 X155.611 Y89.564 E143.2742
G1 X155.611 Y111.339 E144.3606
G1 X156.007 Y111.463 E144.3813
G1 X156.007 Y89.439 E145.4800
G1 X156.403 Y89.439 E145.4998
G1 X156.403 Y111.463 E146.5986
G1 X156.799 Y111.588 E146.6193
G1 X156.799 Y89.315 E147.7305
G1 X157.195 Y89.315 E147.7503
G1 X157.195 Y111.588 E148.8614
G1 X157.592 Y111.588 E148.8812
G1 X157.592 Y89.190 E149.9986
G1 X157.988 Y89.190 E150.0183
G1 X157.988 Y111.588 E151.1357
G1 X158.384 Y111.588 E151.1555
G1 X158.384 Y89.190 E152.2729
G1 X158.780 Y89.190 E152.2926
G1 X158.780 Y111.588 E153.4100
G1 X159.176 Y111.588 E153.4298
G1 X159.176 Y89.190 E154.5472
G1 X159.572 Y89.190 E154.5669
G1 X159.572 Y100.140 E155.1132
G1 X159.968 Y100.016 E155.1339
G1 X159.968 Y89.190 E155.6740
G1 X160.364 Y89.190 E155.6938
G1 X160.364 Y111.588 E156.8111
G1 X159.968 Y111.588 E156.8309
G1 X159.968 Y100.887 E157.3648
G1 X159.572 Y100.762 E157.3855
G1 X159.572 Y111.588 E157.9256
G1 X160.761 Y111.588 E157.9848
G1 X160.761 Y89.190 E159.1022
G1 X161.157 Y89.190 E159.1220
G1 X161.157 Y111.588 E160.2394
G1 X161.553 Y111.588 E160.2591
G1 X161.553 Y89.190 E161.3765
G1 X161.949 Y89.190 E161.3963
G1 X161.949 Y111.588 E162.5137
G1 X162.345 Y111.588 E162.5334
G1 X162.345 Y89.315 E163.6446
G1 X162.741 Y89.315 E163.6644
G1 X162.741 Y111.588 E164.7756
G1 X163.137 Y111.463 E164.7963
G1 X163.137 Y89.315 E165.9013
G1 X163.533 Y89.439 E165.9220
G1 X163.533 Y111.339 E167.0145
G1 X163.930 Y111.339 E167.0343
G1 X163.930 Y89.564 E168.1207
G1 X164.326 Y89.688 E168.1414
G1 X164.326 Y111.214 E169.2153
G1 X164.722 Y110.965 E169.2387
G1 X164.722 Y89.813 E170.2940
G1 X165.118 Y90.061 E170.3173
G1 X165.118 Y110.841 E171.3540
G1 X165.514 Y110.592 E171.3774
G1 X165.514 Y90.310 E172.3892
G1 X165.910 Y90.559 E172.4126
G1 X165.910 Y110.343 E173.3996
G1 X166.306 Y109.970 E173.4268
G1 X166.306 Y90.808 E174.3828
G1 X166.702 Y91.181 E174.4099
G1 X166.702 Y109.721 E175.3349
G1 X167.099 Y109.348 E175.3620
G1 X167.099 Y91.555 E176.2497
G1 X167.495 Y91.928 E176.2769
G1 X167.495 Y108.975 E177.1274
G1 X167.891 Y108.601 E177.1545
G1 X167.891 Y92.301 E177.9677
G1 X168.287 Y92.674 E177.9949
G1 X168.287 Y108.228 E178.7709
G1 X168.683 Y107.855 E178.7980
G1 X168.683 Y93.048 E179.5368
G1 X169.079 Y93.421 E179.5639
G1 X169.079 Y107.481 E180.2654
G1 X169.475 Y106.984 E180.2971
G1 X169.475 Y93.919 E180.9490
G1 X169.871 Y94.292 E180.9761
G1 X169.871 Y106.486 E181.5845
G1 X170.267 Y105.988 E181.6162
G1 X170.267 Y94.914 E182.1687
G1 X170.664 Y95.661 E182.2109
G1 X170.664 Y105.117 E182.6826
G1 X171.060 Y104.495 E182.7194
G1 X171.060 Y96.407 E183.1229
G1 X171.456 Y96.407 E183.1427
G1 X171.456 Y104.495 E183.5462
G1 X171.852 Y104.495 E183.5660
G1 X171.852 Y96.407 E183.9695
G1 X172.248 Y96.407 E183.9892
G1 X172.248 Y104.495 E184.3927
G1 X172.644 Y104.495 E184.4125
G1 X172.644 Y96.407 E184.8160
G1 X173.040 Y96.407 E184.8358
G1 X173.040 Y104.495 E185.2393
G1 X173.436 Y104.495 E185.2590
G1 X173.436 Y96.407 E185.6625
G1 X173.833 Y96.407 E185.6823
G1 X173.833 Y104.495 E186.0858
G1 X174.229 Y104.495 E186.1056
G1 X174.229 Y96.407 E186.5091
G1 X174.625 Y96.532 E186.5298
G1 X174.625 Y104.495 E186.9271
G1 X175.021 Y104.371 E186.9478
G1 X175.021 Y96.532 E187.3389
G1 X175.417 Y96.532 E187.3586
G1 X175.417 Y104.371 E187.7497
G1 X175.813 Y104.246 E187.7704
G1 X175.813 Y96.656 E188.1491
G1 X176.209 Y97.029 E188.1763
G1 X176.209 Y103.873 E188.5177
G1 X176.605 Y103.500 E188.5449
G1 X176.605 Y97.403 E188.8491
G1 X177.002 Y97.776 E188.8762
G1 X177.002 Y103.126 E189.1431
G1 X177.398 Y102.753 E189.1703
G1 X177.398 Y98.149 E189.4000



; ------------------------------------
; Raft Layer #3
; ------------------------------------
G21 ; mm
G90 ; abs
G92 E0 ; reset extr
M106 S255
;segType:Raft
G0 F4800 E-1.0000
G0 F300 Z1.200
G0 X175.702 Y96.590 F10800
G0 F4800 E0.0000
G1 X114.628 Y96.590 E3.0470 F3600
G0 F4800 E2.0470
G0 X111.990 Y96.590 F10800
G0 F4800 E3.0470
G1 X89.829 Y96.590 E4.1526 F3600
G1 X89.961 Y96.217 E4.1724
G1 X111.858 Y96.217 E5.2648
G1 X111.726 Y95.843 E5.2846
G1 X90.093 Y95.843 E6.3638
G1 X90.357 Y95.469 E6.3867
G1 X111.462 Y95.469 E7.4396
G1 X111.330 Y95.096 E7.4594
G1 X90.488 Y95.096 E8.4992
G1 X90.752 Y94.722 E8.5220
G1 X111.066 Y94.722 E9.5355
G1 X110.802 Y94.348 E9.5583
G1 X91.016 Y94.348 E10.5454
G1 X91.412 Y93.975 E10.5726
G1 X110.407 Y93.975 E11.5202
G1 X110.011 Y93.601 E11.5474
G1 X91.808 Y93.601 E12.4556
G1 X92.203 Y93.227 E12.4827
G1 X109.615 Y93.227 E13.3514
G1 X109.220 Y92.854 E13.3786
G1 X92.599 Y92.854 E14.2078
G1 X92.995 Y92.480 E14.2349
G1 X108.824 Y92.480 E15.0246
G1 X108.428 Y92.106 E15.0518
G1 X93.390 Y92.106 E15.8020
G1 X93.786 Y91.733 E15.8292
G1 X108.032 Y91.733 E16.5399
G1 X107.637 Y91.359 E16.5671
G1 X94.182 Y91.359 E17.2383
G1 X94.710 Y90.985 E17.2706
G1 X107.241 Y90.985 E17.8958
G1 X106.713 Y90.612 E17.9280
G1 X95.105 Y90.612 E18.5072
G1 X95.765 Y90.238 E18.5450
G1 X106.054 Y90.238 E19.0583
G1 X105.130 Y89.864 E19.1080
G1 X96.688 Y89.864 E19.5292
G0 F4800 E18.5292
G0 X84.948 Y96.964 F10800
G0 F4800 E19.5292
G1 X176.097 Y96.964 E24.0766 F3600
G1 X176.493 Y97.338 E24.1038
G1 X84.553 Y97.338 E28.6907
G1 X84.157 Y97.711 E28.7178
G1 X176.889 Y97.711 E33.3443
G1 X177.285 Y98.085 E33.3714
G1 X83.761 Y98.085 E38.0373
G1 X83.365 Y98.458 E38.0645
G1 X177.680 Y98.458 E42.7699
G1 X177.680 Y98.832 E42.7885
G1 X83.233 Y98.832 E47.5005
G1 X83.233 Y99.206 E47.5191
G1 X177.680 Y99.206 E52.2311
G1 X177.680 Y100.327 E52.2870
G1 X160.136 Y100.327 E53.1623
G1 X159.873 Y99.953 E53.1851
G1 X177.680 Y99.953 E54.0735
G1 X177.680 Y99.579 E54.0922
G1 X83.233 Y99.579 E58.8041
G1 X83.233 Y99.953 E58.8228
G1 X129.665 Y99.953 E61.1393
G1 X130.061 Y99.953 E61.1590
G1 X159.609 Y99.953 E62.6332
G1 X159.477 Y100.327 E62.6529
G1 X130.193 Y100.327 E64.1139
G1 X130.061 Y100.700 E64.1337
G1 X159.609 Y100.700 E65.6078
G1 X160.004 Y100.700 E65.6275
G1 X177.680 Y100.700 E66.5094
G1 X177.680 Y101.074 E66.5280
G1 X101.041 Y101.074 E70.3516
G1 X101.305 Y100.700 E70.3744
G1 X129.665 Y100.700 E71.7893
G1 X129.533 Y100.327 E71.8091
G1 X101.173 Y100.327 E73.2240
G1 X100.777 Y100.327 E73.2437
G1 X83.233 Y100.327 E74.1190
G1 X83.233 Y100.700 E74.1376
G1 X100.645 Y100.700 E75.0063
G1 X100.777 Y101.074 E75.0261
G1 X83.233 Y101.074 E75.9014
G1 X83.233 Y101.448 E75.9200
G1 X177.680 Y101.448 E80.6320
G1 X177.680 Y101.821 E80.6506
G1 X83.233 Y101.821 E85.3626
G1 X83.233 Y102.195 E85.3812
G1 X177.680 Y102.195 E90.0932
G1 X177.416 Y102.569 E90.1160
G1 X83.233 Y102.569 E94.8148
G1 X83.629 Y102.942 E94.8420
G1 X177.021 Y102.942 E99.5013
G1 X176.625 Y103.316 E99.5284
G1 X84.025 Y103.316 E104.1483
G1 X84.421 Y103.690 E104.1754
G1 X176.229 Y103.690 E108.7558
G1 X175.834 Y104.063 E108.7829
G1 X84.816 Y104.063 E113.3238
G1 X85.212 Y104.437 E113.3509
G1 X116.475 Y104.437 E114.9106
G0 F4800 E113.9106
G0 X118.717 Y104.437 F10800
G0 F4800 E114.9106
G1 X141.010 Y104.437 E116.0228 F3600
G1 X140.746 Y104.811 E116.0456
G1 X118.981 Y104.811 E117.1315
G1 X119.113 Y105.184 E117.1513
G1 X140.614 Y105.184 E118.2240
G1 X140.482 Y105.558 E118.2437
G1 X119.245 Y105.558 E119.3033
G1 X119.508 Y105.932 E119.3261
G1 X140.218 Y105.932 E120.3593
G1 X139.954 Y106.305 E120.3821
G1 X119.772 Y106.305 E121.3890
G1 X120.036 Y106.679 E121.4118
G1 X139.690 Y106.679 E122.3924
G1 X139.427 Y107.053 E122.4152
G1 X120.300 Y107.053 E123.3694
G1 X120.696 Y107.426 E123.3966
G1 X139.031 Y107.426 E124.3113
G1 X138.635 Y107.800 E124.3385
G1 X121.091 Y107.800 E125.2138
G1 X121.487 Y108.174 E125.2409
G1 X138.239 Y108.174 E126.0767
G1 X137.844 Y108.547 E126.1038
G1 X121.883 Y108.547 E126.9001
G1 X122.278 Y108.921 E126.9273
G1 X137.448 Y108.921 E127.6841
G1 X137.052 Y109.295 E127.7113
G1 X122.674 Y109.295 E128.4286
G1 X123.070 Y109.668 E128.4558
G1 X136.657 Y109.668 E129.1336
G1 X136.261 Y110.042 E129.1608
G1 X123.598 Y110.042 E129.7925
G1 X124.125 Y110.416 E129.8248
G1 X135.601 Y110.416 E130.3973
G1 X134.942 Y110.789 E130.4351
G1 X124.785 Y110.789 E130.9419
G1 X125.576 Y111.163 E130.9855
G1 X134.018 Y111.163 E131.4067
G0 F4800 E130.4067
G0 X148.660 Y104.437 F10800
G0 F4800 E131.4067
G1 X170.821 Y104.437 E132.5123 F3600
G1 X170.689 Y104.811 E132.5321
G1 X148.792 Y104.811 E133.6245
G1 X149.056 Y105.184 E133.6474
G1 X170.557 Y105.184 E134.7201
G1 X170.425 Y105.558 E134.7398
G1 X149.188 Y105.558 E135.7994
G1 X149.452 Y105.932 E135.8222
G1 X170.161 Y105.932 E136.8554
G1 X169.898 Y106.305 E136.8783
G1 X149.584 Y106.305 E137.8917
G1 X149.979 Y106.679 E137.9189
G1 X169.634 Y106.679 E138.8995
G1 X169.238 Y107.053 E138.9266
G1 X150.243 Y107.053 E139.8743
G1 X150.639 Y107.426 E139.9014
G1 X168.974 Y107.426 E140.8162
G1 X168.579 Y107.800 E140.8433
G1 X151.035 Y107.800 E141.7186
G1 X151.430 Y108.174 E141.7458
G1 X168.183 Y108.174 E142.5816
G1 X167.787 Y108.547 E142.6087
G1 X151.826 Y108.547 E143.4050
G1 X152.222 Y108.921 E143.4322
G1 X167.391 Y108.921 E144.1890
G1 X166.996 Y109.295 E144.2161
G1 X152.618 Y109.295 E144.9335
G1 X153.013 Y109.668 E144.9606
G1 X166.600 Y109.668 E145.6385
G1 X166.072 Y110.042 E145.6707
G1 X153.409 Y110.042 E146.3025
G1 X154.069 Y110.416 E146.3403
G1 X165.545 Y110.416 E146.9129
G1 X164.885 Y110.789 E146.9507
G1 X154.596 Y110.789 E147.4640
G1 X155.520 Y111.163 E147.5137
G1 X163.962 Y111.163 E147.9349
G0 F4800 E146.9349
G0 X148.792 Y96.217 F10800
G0 F4800 E147.9349
G1 X170.821 Y96.217 E149.0339 F3600
G1 X170.689 Y95.843 E149.0537
G1 X148.924 Y95.843 E150.1395
G1 X149.056 Y95.469 E150.1593
G1 X170.557 Y95.469 E151.2320
G1 X170.293 Y95.096 E151.2548
G1 X149.188 Y95.096 E152.3078
G1 X149.452 Y94.722 E152.3306
G1 X170.030 Y94.722 E153.3572
G1 X169.898 Y94.348 E153.3770
G1 X149.716 Y94.348 E154.3839
G1 X149.979 Y93.975 E154.4067
G1 X169.502 Y93.975 E155.3807
G1 X169.238 Y93.601 E155.4035
G1 X150.375 Y93.601 E156.3446
G1 X150.771 Y93.227 E156.3718
G1 X168.842 Y93.227 E157.2734
G1 X168.447 Y92.854 E157.3005
G1 X151.167 Y92.854 E158.1626
G1 X151.562 Y92.480 E158.1898
G1 X168.051 Y92.480 E159.0124
G1 X167.655 Y92.106 E159.0396
G1 X151.958 Y92.106 E159.8227
G1 X152.354 Y91.733 E159.8498
G1 X167.259 Y91.733 E160.5935
G1 X166.864 Y91.359 E160.6207
G1 X152.749 Y91.359 E161.3248
G1 X153.145 Y90.985 E161.3520
G1 X166.468 Y90.985 E162.0167
G1 X165.940 Y90.612 E162.0489
G1 X153.541 Y90.612 E162.6675
G1 X154.200 Y90.238 E162.7053
G1 X165.413 Y90.238 E163.2647
G1 X164.753 Y89.864 E163.3025
G1 X154.860 Y89.864 E163.7961
G1 X155.915 Y89.491 E163.8520
G1 X163.698 Y89.491 E164.2402
G0 F4800 E163.2402
G0 X133.886 Y89.491 F10800
G0 F4800 E164.2402
G1 X125.840 Y89.491 E164.6417 F3600
G1 X124.917 Y89.864 E164.6914
G1 X134.810 Y89.864 E165.1849
G1 X135.469 Y90.238 E165.2228
G1 X124.257 Y90.238 E165.7821
G1 X123.729 Y90.612 E165.8144
G1 X135.997 Y90.612 E166.4264
G1 X136.525 Y90.985 E166.4587
G1 X123.202 Y90.985 E167.1234
G1 X122.806 Y91.359 E167.1505
G1 X136.920 Y91.359 E167.8547
G1 X137.316 Y91.733 E167.8818
G1 X122.410 Y91.733 E168.6255
G1 X122.015 Y92.106 E168.6527
G1 X137.712 Y92.106 E169.4358
G1 X138.108 Y92.480 E169.4629
G1 X121.619 Y92.480 E170.2856
G1 X121.223 Y92.854 E170.3127
G1 X138.503 Y92.854 E171.1748
G1 X138.899 Y93.227 E171.2020
G1 X120.828 Y93.227 E172.1036
G1 X120.432 Y93.601 E172.1307
G1 X139.295 Y93.601 E173.0718
G1 X139.690 Y93.975 E173.0990
G1 X120.168 Y93.975 E174.0730
G1 X119.772 Y94.348 E174.1001
G1 X139.954 Y94.348 E175.1070
G1 X140.218 Y94.722 E175.1298
G1 X119.508 Y94.722 E176.1630
G1 X119.376 Y95.096 E176.1828
G1 X140.350 Y95.096 E177.2292
G1 X140.614 Y95.469 E177.2520
G1 X119.113 Y95.469 E178.3247
G1 X118.981 Y95.843 E178.3445
G1 X140.746 Y95.843 E179.4303
G1 X140.878 Y96.217 E179.4501
G1 X118.849 Y96.217 E180.5491
G0 F4800 E179.5491
G0 X104.735 Y111.537 F10800
G0 F4800 E180.5491
G1 X97.084 Y111.537 E180.9308 F3600
G1 X96.029 Y111.163 E180.9867
G1 X105.790 Y111.163 E181.4737
G1 X106.581 Y110.789 E181.5173
G1 X95.237 Y110.789 E182.0833
G1 X94.710 Y110.416 E182.1156
G1 X107.109 Y110.416 E182.7342
G1 X107.505 Y110.042 E182.7613
G1 X94.314 Y110.042 E183.4194
G1 X93.918 Y109.668 E183.4466
G1 X107.900 Y109.668 E184.1442
G1 X108.296 Y109.295 E184.1713
G1 X93.522 Y109.295 E184.9084
G1 X93.127 Y108.921 E184.9356
G1 X108.692 Y108.921 E185.7121
G1 X109.088 Y108.547 E185.7393
G1 X92.731 Y108.547 E186.5553
G1 X92.335 Y108.174 E186.5825
G1 X109.483 Y108.174 E187.4380
G1 X109.879 Y107.800 E187.4652
G1 X91.939 Y107.800 E188.3602
G1 X91.544 Y107.426 E188.3873
G1 X110.275 Y107.426 E189.3218
G1 X110.671 Y107.053 E189.3490
G1 X91.148 Y107.053 E190.3230
G1 X90.884 Y106.679 E190.3458
G1 X110.934 Y106.679 E191.3461
G1 X111.198 Y106.305 E191.3689
G1 X90.620 Y106.305 E192.3955
G1 X90.357 Y105.932 E192.4184
G1 X111.462 Y105.932 E193.4713
G1 X111.594 Y105.558 E193.4911
G1 X90.225 Y105.558 E194.5572
G1 X90.093 Y105.184 E194.5770
G1 X111.858 Y105.184 E195.6628
G1 X111.990 Y104.811 E195.6826
G1 X89.829 Y104.811 E196.7882



; ------------------------------------
; Raft Layer #4
; ------------------------------------
G21 ; mm
G90 ; abs
G92 E0 ; reset extr
M106 S255
;segType:Raft
G0 F4800 E-1.0000
G0 F300 Z1.500
G0 X89.855 Y104.620 F10800
G0 F4800 E0.0000
G1 X89.855 Y96.781 E0.3911 F3600
G1 X89.459 Y96.656 E0.4118
G1 X89.459 Y104.620 E0.8091
G1 X89.062 Y104.620 E0.8289
G1 X89.062 Y96.656 E1.2262
G1 X88.666 Y96.656 E1.2459
G1 X88.666 Y104.620 E1.6432
G1 X88.270 Y104.620 E1.6630
G1 X88.270 Y96.656 E2.0603
G1 X87.874 Y96.656 E2.0800
G1 X87.874 Y104.620 E2.4773
G1 X87.478 Y104.620 E2.4971
G1 X87.478 Y96.656 E2.8944
G1 X87.082 Y96.656 E2.9141
G1 X87.082 Y104.620 E3.3114
G1 X86.686 Y104.620 E3.3312
G1 X86.686 Y96.656 E3.7285
G1 X86.290 Y96.656 E3.7483
G1 X86.290 Y104.620 E4.1456
G1 X85.894 Y104.620 E4.1653
G1 X85.894 Y96.656 E4.5626
G1 X85.497 Y96.656 E4.5824
G1 X85.497 Y104.620 E4.9797
G1 X85.101 Y104.371 E5.0030
G1 X85.101 Y96.905 E5.3755
G1 X84.705 Y97.278 E5.4026
G1 X84.705 Y103.997 E5.7378
G1 X84.309 Y103.624 E5.7650
G1 X84.309 Y97.652 E6.0630
G1 X83.913 Y98.025 E6.0901
G1 X83.913 Y103.251 E6.3508
G1 X83.517 Y102.878 E6.3780
G1 X83.517 Y98.398 E6.6015
G0 F4800 E5.6015
G0 X90.251 Y105.615 F10800
G0 F4800 E6.6015
G1 X90.251 Y95.785 E7.0919 F3600
G1 X90.647 Y95.039 E7.1341
G1 X90.647 Y106.362 E7.6990
G1 X91.043 Y106.859 E7.7307
G1 X91.043 Y94.541 E8.3453
G1 X91.439 Y94.043 E8.3770
G1 X91.439 Y107.357 E9.0412
G1 X91.835 Y107.730 E9.0684
G1 X91.835 Y93.670 E9.7699
G1 X92.231 Y93.297 E9.7970
G1 X92.231 Y108.104 E10.5357
G1 X92.628 Y108.477 E10.5629
G1 X92.628 Y92.923 E11.3388
G1 X93.024 Y92.550 E11.3660
G1 X93.024 Y108.850 E12.1792
G1 X93.420 Y109.223 E12.2064
G1 X93.420 Y92.177 E13.0568
G1 X93.816 Y91.803 E13.0840
G1 X93.816 Y109.597 E13.9717
G1 X94.212 Y109.970 E13.9988
G1 X94.212 Y91.430 E14.9238
G1 X94.608 Y91.057 E14.9510
G1 X94.608 Y110.343 E15.9132
G1 X95.004 Y110.592 E15.9365
G1 X95.004 Y90.808 E16.9235
G1 X95.400 Y90.559 E16.9469
G1 X95.400 Y110.965 E17.9649
G1 X95.797 Y111.090 E17.9856
G1 X95.797 Y90.310 E19.0223
G1 X96.193 Y90.061 E19.0457
G1 X96.193 Y111.339 E20.1072
G1 X96.589 Y111.463 E20.1279
G1 X96.589 Y89.937 E21.2018
G1 X96.985 Y89.813 E21.2226
G1 X96.985 Y111.588 E22.3089
G1 X97.381 Y111.712 E22.3296
G1 X97.381 Y89.688 E23.4284
G1 X97.777 Y89.688 E23.4482
G1 X97.777 Y111.836 E24.5531
G1 X98.173 Y111.836 E24.5729
G1 X98.173 Y89.564 E25.6841
G1 X98.569 Y89.564 E25.7038
G1 X98.569 Y111.961 E26.8212
G1 X98.966 Y111.961 E26.8410
G1 X98.966 Y89.564 E27.9584
G1 X99.362 Y89.564 E27.9782
G1 X99.362 Y111.961 E29.0955
G1 X99.758 Y111.961 E29.1153
G1 X99.758 Y89.564 E30.2327
G1 X100.154 Y89.564 E30.2525
G1 X100.154 Y111.961 E31.3699
G1 X100.550 Y111.961 E31.3896
G1 X100.550 Y89.564 E32.5070
G1 X100.946 Y89.564 E32.5268
G1 X100.946 Y100.140 E33.0544
G1 X101.342 Y100.638 E33.0862
G1 X101.342 Y89.564 E33.6386
G1 X101.738 Y89.564 E33.6584
G1 X101.738 Y111.961 E34.7758
G1 X102.135 Y111.961 E34.7956
G1 X102.135 Y89.564 E35.9130
G1 X102.531 Y89.564 E35.9327
G1 X102.531 Y111.961 E37.0501
G1 X102.927 Y111.961 E37.0699
G1 X102.927 Y89.564 E38.1873
G1 X103.323 Y89.564 E38.2070
G1 X103.323 Y111.961 E39.3244
G1 X103.719 Y111.836 E39.3451
G1 X103.719 Y89.564 E40.4563
G1 X104.115 Y89.564 E40.4761
G1 X104.115 Y111.836 E41.5873
G1 X104.511 Y111.712 E41.6080
G1 X104.511 Y89.688 E42.7068
G1 X104.907 Y89.813 E42.7275
G1 X104.907 Y111.588 E43.8138
G1 X105.304 Y111.463 E43.8345
G1 X105.304 Y89.937 E44.9085
G1 X105.700 Y90.061 E44.9292
G1 X105.700 Y111.339 E45.9907
G1 X106.096 Y111.214 E46.0114
G1 X106.096 Y90.186 E47.0605
G1 X106.492 Y90.435 E47.0839
G1 X106.492 Y110.965 E48.1082
G1 X106.888 Y110.717 E48.1315
G1 X106.888 Y90.684 E49.1309
G1 X107.284 Y90.932 E49.1543
G1 X107.284 Y110.468 E50.1289
G1 X107.680 Y110.094 E50.1560
G1 X107.680 Y91.306 E51.0934
G1 X108.076 Y91.679 E51.1206
G1 X108.076 Y109.721 E52.0207
G1 X108.473 Y109.348 E52.0478
G1 X108.473 Y92.052 E52.9107
G1 X108.869 Y92.426 E52.9379
G1 X108.869 Y108.975 E53.7635
G1 X109.265 Y108.601 E53.7907
G1 X109.265 Y92.799 E54.5790
G1 X109.661 Y93.172 E54.6062
G1 X109.661 Y108.228 E55.3573
G1 X110.057 Y107.855 E55.3845
G1 X110.057 Y93.545 E56.0984
G1 X110.453 Y93.919 E56.1255
G1 X110.453 Y107.481 E56.8022
G1 X110.849 Y107.108 E56.8293
G1 X110.849 Y94.292 E57.4687
G1 X111.245 Y94.914 E57.5055
G1 X111.245 Y106.610 E58.0891
G1 X111.642 Y105.988 E58.1258
G1 X111.642 Y95.536 E58.6473
G1 X112.038 Y96.407 E58.6950
G1 X112.038 Y104.993 E59.1234
G1 X112.434 Y104.620 E59.1505
G1 X112.434 Y96.656 E59.5478
G1 X112.830 Y96.656 E59.5676
G1 X112.830 Y104.620 E59.9649
G1 X113.226 Y104.620 E59.9846
G1 X113.226 Y96.656 E60.3819
G1 X113.622 Y96.656 E60.4017
G1 X113.622 Y104.620 E60.7990
G1 X114.018 Y104.620 E60.8188
G1 X114.018 Y96.656 E61.2160
G1 X114.414 Y96.656 E61.2358
G1 X114.414 Y104.620 E61.6331
G1 X114.810 Y104.620 E61.6529
G1 X114.810 Y96.532 E62.0564
G1 X115.207 Y96.532 E62.0761
G1 X115.207 Y104.620 E62.4796
G1 X115.603 Y104.620 E62.4994
G1 X115.603 Y96.532 E62.9029
G1 X115.999 Y96.532 E62.9227
G1 X115.999 Y104.620 E63.3262
G1 X116.395 Y104.620 E63.3459
G1 X116.395 Y96.532 E63.7494
G1 X116.791 Y96.532 E63.7692
G1 X116.791 Y104.495 E64.1665
G1 X117.187 Y104.495 E64.1863
G1 X117.187 Y96.532 E64.5836
G1 X117.583 Y96.532 E64.6033
G1 X117.583 Y104.495 E65.0006
G1 X117.979 Y104.495 E65.0204
G1 X117.979 Y96.532 E65.4177
G1 X118.376 Y96.532 E65.4374
G1 X118.376 Y104.495 E65.8347
G1 X118.772 Y104.495 E65.8545
G1 X118.772 Y96.532 E66.2518
G1 X119.168 Y95.661 E66.2995
G1 X119.168 Y105.117 E66.7713
G1 X119.564 Y105.988 E66.8190
G1 X119.564 Y94.914 E67.3715
G1 X119.960 Y94.292 E67.4083
G1 X119.960 Y106.610 E68.0229
G1 X120.356 Y106.984 E68.0500
G1 X120.356 Y93.794 E68.7080
G1 X120.752 Y93.421 E68.7352
G1 X120.752 Y107.481 E69.4367
G1 X121.148 Y107.855 E69.4638
G1 X121.148 Y93.048 E70.2026
G1 X121.545 Y92.674 E70.2297
G1 X121.545 Y108.228 E71.0057
G1 X121.941 Y108.601 E71.0328
G1 X121.941 Y92.301 E71.8460
G1 X122.337 Y91.928 E71.8732
G1 X122.337 Y108.975 E72.7237
G1 X122.733 Y109.348 E72.7508
G1 X122.733 Y91.555 E73.6385
G1 X123.129 Y91.181 E73.6657
G1 X123.129 Y109.721 E74.5906
G1 X123.525 Y109.970 E74.6139
G1 X123.525 Y90.808 E75.5699
G1 X123.921 Y90.559 E75.5933
G1 X123.921 Y110.343 E76.5803
G1 X124.317 Y110.592 E76.6036
G1 X124.317 Y90.310 E77.6155
G1 X124.714 Y90.061 E77.6389
G1 X124.714 Y110.841 E78.6755
G1 X125.110 Y110.965 E78.6963
G1 X125.110 Y89.813 E79.7516
G1 X125.506 Y89.688 E79.7723
G1 X125.506 Y111.214 E80.8462
G1 X125.902 Y111.339 E80.8669
G1 X125.902 Y89.564 E81.9533
G1 X126.298 Y89.439 E81.9740
G1 X126.298 Y111.463 E83.0728
G1 X126.694 Y111.463 E83.0925
G1 X126.694 Y89.315 E84.1975
G1 X127.090 Y89.315 E84.2173
G1 X127.090 Y111.588 E85.3284
G1 X127.486 Y111.588 E85.3482
G1 X127.486 Y89.315 E86.4594
G1 X127.882 Y89.190 E86.4801
G1 X127.882 Y111.588 E87.5975
G1 X128.279 Y111.588 E87.6173
G1 X128.279 Y89.190 E88.7346
G1 X128.675 Y89.190 E88.7544
G1 X128.675 Y111.588 E89.8718
G1 X129.071 Y111.588 E89.8916
G1 X129.071 Y89.190 E91.0090
G1 X129.467 Y89.190 E91.0287
G1 X129.467 Y111.588 E92.1461
G1 X129.863 Y111.588 E92.1659
G1 X129.863 Y100.887 E92.6997
G1 X129.863 Y99.891 E92.7494
G1 X129.863 Y89.190 E93.2833
G1 X130.259 Y89.190 E93.3030
G1 X130.259 Y111.588 E94.4204
G1 X130.655 Y111.588 E94.4402
G1 X130.655 Y89.190 E95.5576
G1 X131.051 Y89.190 E95.5773
G1 X131.051 Y111.588 E96.6947
G1 X131.448 Y111.588 E96.7145
G1 X131.448 Y89.190 E97.8319
G1 X131.844 Y89.190 E97.8516
G1 X131.844 Y111.588 E98.9690
G1 X132.240 Y111.588 E98.9888
G1 X132.240 Y89.190 E100.1062
G1 X132.636 Y89.315 E100.1269
G1 X132.636 Y111.588 E101.2381
G1 X133.032 Y111.588 E101.2578
G1 X133.032 Y89.315 E102.3690
G1 X133.428 Y89.439 E102.3897
G1 X133.428 Y111.463 E103.4885
G1 X133.824 Y111.339 E103.5092
G1 X133.824 Y89.439 E104.6018
G1 X134.220 Y89.688 E104.6251
G1 X134.220 Y111.214 E105.6991
G1 X134.617 Y111.090 E105.7198
G1 X134.617 Y89.813 E106.7813
G1 X135.013 Y89.937 E106.8020
G1 X135.013 Y110.841 E107.8449
G1 X135.409 Y110.717 E107.8656
G1 X135.409 Y90.186 E108.8899
G1 X135.805 Y90.435 E108.9132
G1 X135.805 Y110.468 E109.9127
G1 X136.201 Y110.219 E109.9360
G1 X136.201 Y90.684 E110.9106
G1 X136.597 Y91.057 E110.9378
G1 X136.597 Y109.846 E111.8752
G1 X136.993 Y109.472 E111.9023
G1 X136.993 Y91.430 E112.8024
G1 X137.389 Y91.803 E112.8296
G1 X137.389 Y109.099 E113.6925
G1 X137.786 Y108.726 E113.7196
G1 X137.786 Y92.177 E114.5452
G1 X138.182 Y92.550 E114.5724
G1 X138.182 Y108.352 E115.3608
G1 X138.578 Y107.979 E115.3879
G1 X138.578 Y92.923 E116.1391
G1 X138.974 Y93.297 E116.1662
G1 X138.974 Y107.606 E116.8801
G1 X139.370 Y107.233 E116.9073
G1 X139.370 Y93.670 E117.5839
G1 X139.766 Y94.168 E117.6157
G1 X139.766 Y106.735 E118.2426
G1 X140.162 Y106.237 E118.2744
G1 X140.162 Y94.665 E118.8517
G1 X140.558 Y95.412 E118.8939
G1 X140.558 Y105.491 E119.3967
G1 X140.955 Y104.620 E119.4444
G1 X140.955 Y96.407 E119.8541
G1 X141.351 Y96.532 E119.8748
G1 X141.351 Y104.495 E120.2721
G1 X141.747 Y104.495 E120.2919
G1 X141.747 Y96.532 E120.6892
G1 X142.143 Y96.532 E120.7090
G1 X142.143 Y104.495 E121.1062
G1 X142.539 Y104.495 E121.1260
G1 X142.539 Y96.532 E121.5233
G1 X142.935 Y96.532 E121.5431
G1 X142.935 Y104.371 E121.9341
G1 X143.331 Y104.371 E121.9539
G1 X143.331 Y96.532 E122.3450
G1 X143.727 Y96.532 E122.3648
G1 X143.727 Y104.371 E122.7559
G1 X144.123 Y104.371 E122.7756
G1 X144.123 Y96.532 E123.1667
G1 X144.520 Y96.532 E123.1865
G1 X144.520 Y104.371 E123.5776
G1 X144.916 Y104.371 E123.5973
G1 X144.916 Y96.532 E123.9884
G1 X145.312 Y96.532 E124.0082
G1 X145.312 Y104.371 E124.3993
G1 X145.708 Y104.371 E124.4190
G1 X145.708 Y96.532 E124.8101
G1 X146.104 Y96.532 E124.8299
G1 X146.104 Y104.371 E125.2210
G1 X146.500 Y104.371 E125.2407
G1 X146.500 Y96.532 E125.6318
G1 X146.896 Y96.532 E125.6516
G1 X146.896 Y104.371 E126.0427
G1 X147.292 Y104.495 E126.0634
G1 X147.292 Y96.532 E126.4607
G1 X147.689 Y96.532 E126.4804
G1 X147.689 Y104.495 E126.8777
G1 X148.085 Y104.495 E126.8975
G1 X148.085 Y96.407 E127.3010
G1 X148.481 Y96.407 E127.3207
G1 X148.481 Y104.495 E127.7242
G1 X148.877 Y104.993 E127.7560
G1 X148.877 Y95.910 E128.2091
G1 X149.273 Y95.039 E128.2569
G1 X149.273 Y105.864 E128.7969
G1 X149.669 Y106.486 E128.8337
G1 X149.669 Y94.416 E129.4359
G1 X150.065 Y93.919 E129.4676
G1 X150.065 Y106.984 E130.1194
G1 X150.461 Y107.357 E130.1466
G1 X150.461 Y93.545 E130.8357
G1 X150.858 Y93.172 E130.8628
G1 X150.858 Y107.730 E131.5891
G1 X151.254 Y108.104 E131.6163
G1 X151.254 Y92.799 E132.3798
G1 X151.650 Y92.426 E132.4070
G1 X151.650 Y108.477 E133.2078
G1 X152.046 Y108.850 E133.2349
G1 X152.046 Y92.052 E134.0730
G1 X152.442 Y91.679 E134.1001
G1 X152.442 Y109.223 E134.9754
G1 X152.838 Y109.597 E135.0026
G1 X152.838 Y91.306 E135.9151
G1 X153.234 Y90.932 E135.9423
G1 X153.234 Y109.970 E136.8921
G1 X153.630 Y110.219 E136.9154
G1 X153.630 Y90.559 E137.8962
G1 X154.026 Y90.310 E137.9196
G1 X154.026 Y110.468 E138.9252
G1 X154.423 Y110.841 E138.9524
G1 X154.423 Y90.061 E139.9891
G1 X154.819 Y89.937 E140.0098
G1 X154.819 Y110.965 E141.0589
G1 X155.215 Y111.090 E141.0796
G1 X155.215 Y89.688 E142.1474
G1 X155.611 Y89.564 E142.1681
G1 X155.611 Y111.339 E143.2544
G1 X156.007 Y111.463 E143.2752
G1 X156.007 Y89.439 E144.3739
G1 X156.403 Y89.439 E144.3937
G1 X156.403 Y111.463 E145.4925
G1 X156.799 Y111.588 E145.5132
G1 X156.799 Y89.315 E146.6244
G1 X157.195 Y89.315 E146.6441
G1 X157.195 Y111.588 E147.7553
G1 X157.592 Y111.588 E147.7751
G1 X157.592 Y89.190 E148.8925
G1 X157.988 Y89.190 E148.9122
G1 X157.988 Y111.588 E150.0296
G1 X158.384 Y111.588 E150.0494
G1 X158.384 Y89.190 E151.1668
G1 X158.780 Y89.190 E151.1865
G1 X158.780 Y111.588 E152.3039
G1 X159.176 Y111.588 E152.3237
G1 X159.176 Y89.190 E153.4411
G1 X159.572 Y89.190 E153.4608
G1 X159.572 Y100.140 E154.0071
G1 X159.968 Y100.016 E154.0278
G1 X159.968 Y89.190 E154.5679
G1 X160.364 Y89.190 E154.5877
G1 X160.364 Y111.588 E155.7050
G1 X159.968 Y111.588 E155.7248
G1 X159.968 Y100.887 E156.2587
G1 X159.572 Y100.762 E156.2794
G1 X159.572 Y111.588 E156.8194
G1 X160.761 Y111.588 E156.8787
G1 X160.761 Y89.190 E157.9961
G1 X161.157 Y89.190 E158.0159
G1 X161.157 Y111.588 E159.1333
G1 X161.553 Y111.588 E159.1530
G1 X161.553 Y89.190 E160.2704
G1 X161.949 Y89.190 E160.2902
G1 X161.949 Y111.588 E161.4076
G1 X162.345 Y111.588 E161.4273
G1 X162.345 Y89.315 E162.5385
G1 X162.741 Y89.315 E162.5583
G1 X162.741 Y111.588 E163.6695
G1 X163.137 Y111.463 E163.6902
G1 X163.137 Y89.315 E164.7952
G1 X163.533 Y89.439 E164.8159
G1 X163.533 Y111.339 E165.9084
G1 X163.930 Y111.339 E165.9282
G1 X163.930 Y89.564 E167.0145
G1 X164.326 Y89.688 E167.0353
G1 X164.326 Y111.214 E168.1092
G1 X164.722 Y110.965 E168.1326
G1 X164.722 Y89.813 E169.1879
G1 X165.118 Y90.061 E169.2112
G1 X165.118 Y110.841 E170.2479
G1 X165.514 Y110.592 E170.2713
G1 X165.514 Y90.310 E171.2831
G1 X165.910 Y90.559 E171.3065
G1 X165.910 Y110.343 E172.2935
G1 X166.306 Y109.970 E172.3207
G1 X166.306 Y90.808 E173.2766
G1 X166.702 Y91.181 E173.3038
G1 X166.702 Y109.721 E174.2288
G1 X167.099 Y109.348 E174.2559
G1 X167.099 Y91.555 E175.1436
G1 X167.495 Y91.928 E175.1708
G1 X167.495 Y108.975 E176.0213
G1 X167.891 Y108.601 E176.0484
G1 X167.891 Y92.301 E176.8616
G1 X168.287 Y92.674 E176.8888
G1 X168.287 Y108.228 E177.6648
G1 X168.683 Y107.855 E177.6919
G1 X168.683 Y93.048 E178.4307
G1 X169.079 Y93.421 E178.4578
G1 X169.079 Y107.481 E179.1593
G1 X169.475 Y106.984 E179.1910
G1 X169.475 Y93.919 E179.8428
G1 X169.871 Y94.292 E179.8700
G1 X169.871 Y106.486 E180.4784
G1 X170.267 Y105.988 E180.5101
G1 X170.267 Y94.914 E181.0626
G1 X170.664 Y95.661 E181.1047
G1 X170.664 Y105.117 E181.5765
G1 X171.060 Y104.495 E181.6133
G1 X171.060 Y96.407 E182.0168
G1 X171.456 Y96.407 E182.0366
G1 X171.456 Y104.495 E182.4401
G1 X171.852 Y104.495 E182.4599
G1 X171.852 Y96.407 E182.8634
G1 X172.248 Y96.407 E182.8831
G1 X172.248 Y104.495 E183.2866
G1 X172.644 Y104.495 E183.3064
G1 X172.644 Y96.407 E183.7099
G1 X173.040 Y96.407 E183.7297
G1 X173.040 Y104.495 E184.1332
G1 X173.436 Y104.495 E184.1529
G1 X173.436 Y96.407 E184.5564
G1 X173.833 Y96.407 E184.5762
G1 X173.833 Y104.495 E184.9797
G1 X174.229 Y104.495 E184.9994
G1 X174.229 Y96.407 E185.4029
G1 X174.625 Y96.532 E185.4237
G1 X174.625 Y104.495 E185.8210
G1 X175.021 Y104.371 E185.8417
G1 X175.021 Y96.532 E186.2328
G1 X175.417 Y96.532 E186.2525
G1 X175.417 Y104.371 E186.6436
G1 X175.813 Y104.246 E186.6643
G1 X175.813 Y96.656 E187.0430
G1 X176.209 Y97.029 E187.0702
G1 X176.209 Y103.873 E187.4116
G1 X176.605 Y103.500 E187.4388
G1 X176.605 Y97.403 E187.7429
G1 X177.002 Y97.776 E187.7701
G1 X177.002 Y103.126 E188.0370
G1 X177.398 Y102.753 E188.0642
G1 X177.398 Y98.149 E188.2939
G0 F4800 E187.2939
G0 X101.342 Y100.887 F10800
G0 F4800 E188.2939
G1 X101.342 Y111.961 E188.8464 F3600
G1 X100.946 Y111.961 E188.8661
G1 X100.946 Y101.260 E189.4000


; ------------------------------------
; Layer #0
; ------------------------------------
G21 ; mm
G90 ; abs
G92 E0 ; reset extr
M106 S255
;segType:Support
G0 F4800 E-1.0000
G0 F300 Z1.950
G0 X93.359 Y100.789 F10800
G0 F4800 E0.0000
G1 X93.072 Y100.795 E0.0081 F900
G1 X93.138 Y100.741 E0.0105
G1 X92.382 Y100.756 E0.0319
G1 X92.409 Y100.807 E0.0336
G1 X92.009 Y100.807 E0.0449
G1 X91.965 Y100.756 E0.0468
G1 X91.596 Y100.772 E0.0572
G1 X90.552 Y100.799 E0.0867
G1 X90.551 Y100.745 E0.0883
G1 X89.748 Y100.778 E0.1110
G1 X88.776 Y100.782 E0.1385
G1 X87.584 Y100.777 E0.1722
G1 X87.535 Y100.722 E0.1743
G1 X87.135 Y100.722 E0.1856
G1 X87.135 Y100.322 E0.1969
G1 X87.535 Y100.322 E0.2082
G1 X87.584 Y100.377 E0.2103
G1 X88.776 Y100.382 E0.2439
G1 X89.748 Y100.378 E0.2714
G1 X90.551 Y100.345 E0.2941
G1 X90.552 Y100.399 E0.2957
G1 X91.596 Y100.372 E0.3252
G1 X91.965 Y100.356 E0.3357
G1 X92.009 Y100.407 E0.3376
G1 X92.409 Y100.407 E0.3489
G1 X92.382 Y100.356 E0.3505
G1 X93.138 Y100.341 E0.3719
G1 X93.072 Y100.395 E0.3743
G1 X93.375 Y100.389 E0.3829
G0 F4800 E-0.6171
G0 X95.385 Y102.175 F10800
G0 X96.987 Y104.843
G0 X99.594 Y106.275
G0 X102.507 Y106.277
G0 F4800 E0.3829
;segType:HShell
G1 X101.865 Y106.883 E0.4123 F600
;segType:Loop
G0 X100.481 Y107.110 F10800
G1 X99.646 Y106.987 E0.4404 F600
G1 X98.741 Y106.714 E0.4718
G1 X97.884 Y106.313 E0.5033
G1 X97.093 Y105.789 E0.5348
G1 X96.385 Y105.155 E0.5664
G1 X95.775 Y104.423 E0.5981
G1 X95.278 Y103.609 E0.6298
G1 X94.894 Y102.689 E0.6630
G1 X94.659 Y101.780 E0.6942
G1 X94.559 Y100.804 E0.7268
G1 X94.596 Y99.867 E0.7581
G1 X94.766 Y98.949 E0.7891
G1 X95.075 Y98.043 E0.8209
G1 X95.512 Y97.193 E0.8527
G1 X96.067 Y96.418 E0.8844
G1 X96.727 Y95.733 E0.9161
G1 X97.479 Y95.152 E0.9477
G1 X98.305 Y94.689 E0.9792
G1 X99.188 Y94.351 E1.0106
G1 X100.110 Y94.146 E1.0420
G1 X101.051 Y94.077 E1.0734
G1 X101.992 Y94.146 E1.1048
G1 X102.914 Y94.351 E1.1362
G1 X103.797 Y94.689 E1.1677
G1 X104.623 Y95.152 E1.1992
G1 X105.375 Y95.733 E1.2307
G1 X106.035 Y96.418 E1.2624
G1 X106.590 Y97.193 E1.2941
G1 X107.027 Y98.042 E1.3258
G1 X107.344 Y98.993 E1.3592
G1 X107.513 Y99.933 E1.3910
G1 X107.545 Y100.849 E1.4214
G1 X107.440 Y101.806 E1.4535
G1 X107.198 Y102.728 E1.4852
G1 X106.824 Y103.608 E1.5170
G1 X106.327 Y104.423 E1.5487
G1 X105.717 Y105.155 E1.5804
G1 X105.009 Y105.789 E1.6120
G1 X104.218 Y106.313 E1.6436
G1 X103.361 Y106.714 E1.6750
G1 X102.456 Y106.987 E1.7065
G1 X101.523 Y107.124 E1.7379
G1 X100.678 Y107.124 E1.7660
G0 F4800 E0.7660
G0 X101.937 Y106.974 F10800
G0 F4800 E1.7660
;segType:Perimeter
G1 X101.494 Y107.502 E1.7889 F359
G1 X100.548 Y107.502 E1.8203
G1 X99.553 Y107.355 E1.8538
G1 X98.590 Y107.065 E1.8872
G1 X97.679 Y106.638 E1.9207
G1 X96.839 Y106.082 E1.9542
G1 X96.088 Y105.410 E1.9877
G1 X95.443 Y104.634 E2.0213
G1 X94.917 Y103.773 E2.0548
G1 X94.512 Y102.803 E2.0898
G1 X94.263 Y101.843 E2.1228
G1 X94.158 Y100.815 E2.1572
G1 X94.197 Y99.827 E2.1901
G1 X94.376 Y98.859 E2.2228
G1 X94.703 Y97.903 E2.2564
G1 X95.164 Y97.005 E2.2900
G1 X95.751 Y96.184 E2.3235
G1 X96.451 Y95.458 E2.3571
G1 X97.249 Y94.842 E2.3906
G1 X98.127 Y94.350 E2.4241
G1 X99.066 Y93.990 E2.4575
G1 X100.048 Y93.772 E2.4910
G1 X101.051 Y93.698 E2.5244
G1 X102.054 Y93.772 E2.5579
G1 X103.036 Y93.990 E2.5913
G1 X103.976 Y94.350 E2.6248
G1 X104.853 Y94.842 E2.6583
G1 X105.651 Y95.459 E2.6918
G1 X106.351 Y96.184 E2.7253
G1 X106.938 Y97.005 E2.7589
G1 X107.399 Y97.902 E2.7925
G1 X107.734 Y98.904 E2.8276
G1 X107.912 Y99.895 E2.8611
G1 X107.946 Y100.862 E2.8933
G1 X107.834 Y101.871 E2.9270
G1 X107.580 Y102.844 E2.9605
G1 X107.185 Y103.773 E2.9940
G1 X106.659 Y104.634 E3.0276
G1 X106.014 Y105.410 E3.0612
G1 X105.263 Y106.082 E3.0947
G1 X104.423 Y106.638 E3.1282
G1 X103.512 Y107.065 E3.1616
G1 X102.549 Y107.355 E3.1951
G1 X101.613 Y107.493 E3.2266
G1 X101.089 Y107.036
G0 X97.267 Y104.579 F10800
G0 X95.329 Y101.951
;segType:HShell
G1 X94.991 Y102.269 E3.2420 F600
G1 X95.108 Y102.687
G1 X95.431 Y102.383 E3.2568
G1 X95.588 Y102.764
G1 X95.267 Y103.066 E3.2715
G1 X95.425 Y103.445
G1 X95.744 Y103.145 E3.2861
G1 X95.935 Y103.492
G1 X95.620 Y103.790 E3.3005
G1 X95.824 Y104.125
G1 X96.143 Y103.825 E3.3151
G1 X96.358 Y104.150
G1 X96.047 Y104.444 E3.3293
G1 X96.294 Y104.740
G1 X96.615 Y104.437 E3.3440
G1 X96.871 Y104.724
G1 X96.541 Y105.035 E3.3590
G1 X96.828 Y105.292
G1 X97.154 Y104.985 E3.3739
G1 X97.457 Y105.227
G1 X97.116 Y105.550 E3.3896
G1 X97.430 Y105.782
G1 X97.761 Y105.469 E3.4047
G1 X98.115 Y105.664
G1 X97.759 Y106.000 E3.4210
G1 X98.102 Y106.205
G1 X98.469 Y105.859 E3.4378
G1 X98.851 Y106.026
G1 X98.476 Y106.380 E3.4549
G1 X98.855 Y106.551
G1 X99.261 Y106.168 E3.4735
G1 X99.684 Y106.297
G1 X99.280 Y106.679 E3.4919
G1 X99.707 Y106.805
G1 X100.161 Y106.376 E3.5127
G1 X100.647 Y106.446
G1 X100.191 Y106.876 E3.5336
G1 X100.688 Y106.936
G1 X101.212 Y106.442 E3.5575
;segType:Perimeter
G0 X101.063 Y106.363 F10800
G1 X100.578 Y105.870 E3.5805 F359
G1 X99.748 Y105.733 E3.6085
G1 X98.897 Y105.439 E3.6384
G1 X98.110 Y105.006 E3.6683
G1 X97.407 Y104.447 E3.6982
G1 X96.810 Y103.777 E3.7280
G1 X96.335 Y103.017 E3.7578
G1 X95.995 Y102.188 E3.7876
G1 X95.801 Y101.315 E3.8174
G1 X95.757 Y100.421 E3.8472
G1 X95.864 Y99.533 E3.8769
G1 X96.121 Y98.674 E3.9067
G1 X96.518 Y97.872 E3.9365
G1 X97.047 Y97.148 E3.9663
G1 X97.691 Y96.522 E3.9962
G1 X98.432 Y96.014 E4.0261
G1 X99.249 Y95.638 E4.0560
G1 X100.118 Y95.405 E4.0859
G1 X101.015 Y95.323 E4.1159
G1 X101.913 Y95.393 E4.1458
G1 X102.786 Y95.614 E4.1758
G1 X103.608 Y95.979 E4.2057
G1 X104.356 Y96.477 E4.2356
G1 X105.008 Y97.094 E4.2654
G1 X105.546 Y97.811 E4.2952
G1 X105.955 Y98.608 E4.3250
G1 X106.223 Y99.463 E4.3548
G1 X106.343 Y100.350 E4.3846
G1 X106.311 Y101.244 E4.4144
G1 X106.128 Y102.120 E4.4441
G1 X105.799 Y102.953 E4.4739
G1 X105.335 Y103.720 E4.5037
G1 X104.747 Y104.397 E4.5336
G1 X104.052 Y104.966 E4.5634
G1 X103.270 Y105.410 E4.5933
G1 X102.424 Y105.715 E4.6233
G1 X101.537 Y105.874 E4.6532
G1 X100.696 Y105.879 E4.6812
G1 X100.132 Y106.290
;segType:Loop
G0 X99.435 Y106.027 F10800
G1 X98.727 Y105.782 E4.7061 F600
G1 X97.878 Y105.316 E4.7383
G1 X97.123 Y104.714 E4.7704
G1 X96.482 Y103.996 E4.8024
G1 X95.973 Y103.182 E4.8343
G1 X95.610 Y102.296 E4.8662
G1 X95.403 Y101.363 E4.8980
G1 X95.355 Y100.408 E4.9298
G1 X95.471 Y99.459 E4.9616
G1 X95.744 Y98.543 E4.9934
G1 X96.170 Y97.684 E5.0253
G1 X96.736 Y96.907 E5.0572
G1 X97.428 Y96.236 E5.0893
G1 X98.225 Y95.689 E5.1214
G1 X99.105 Y95.284 E5.1537
G1 X100.044 Y95.033 E5.1860
G1 X101.012 Y94.944 E5.2183
G1 X101.982 Y95.020 E5.2507
G1 X102.924 Y95.258 E5.2830
G1 X103.810 Y95.652 E5.3152
G1 X104.615 Y96.187 E5.3474
G1 X105.315 Y96.850 E5.3795
G1 X105.892 Y97.619 E5.4114
G1 X106.329 Y98.472 E5.4433
G1 X106.615 Y99.385 E5.4752
G1 X106.743 Y100.332 E5.5069
G1 X106.709 Y101.287 E5.5387
G1 X106.514 Y102.223 E5.5705
G1 X106.163 Y103.114 E5.6024
G1 X105.665 Y103.934 E5.6343
G1 X105.035 Y104.661 E5.6663
G1 X104.288 Y105.272 E5.6984
G1 X103.446 Y105.750 E5.7306
G1 X102.533 Y106.080 E5.7629
G1 X101.576 Y106.251 E5.7952
G1 X100.603 Y106.257 E5.8276
G1 X99.644 Y106.099 E5.8599
G1 X99.621 Y106.091 E5.8607
;segType:HShell
G0 X101.248 Y106.936 F10800
G1 X101.816 Y106.400 E5.8867 F600
G1 X102.557 Y106.758
G1 X103.390 Y105.972 E5.9248
G1 X103.412 Y106.480
G1 X106.710 Y103.369 E6.0756
G0 X104.806 Y105.694 F10800
G1 X105.778 Y104.777 E6.1200 F600
G0 X106.682 Y102.339 F10800
G1 X107.229 Y101.823 E6.1451 F600
G1 X107.046 Y102.524
G1 X106.350 Y103.180 E6.1769
G0 X106.834 Y101.667 F10800
G1 X107.302 Y101.225 E6.1983 F600
G1 X107.338 Y100.663
G1 X106.918 Y101.059 E6.2175
G1 X106.937 Y100.513
G1 X107.320 Y100.151 E6.2350
G1 X107.264 Y99.676
G1 X106.902 Y100.017 E6.2516
G1 X106.839 Y99.548
G1 X107.183 Y99.224 E6.2673
G1 X107.071 Y98.801
G1 X106.739 Y99.114 E6.2824
G1 X106.611 Y98.706
G1 X106.936 Y98.400 E6.2973
G1 X106.788 Y98.011
G1 X106.469 Y98.312 E6.3119
G1 X106.287 Y97.956
G1 X106.605 Y97.655 E6.3265
G1 X106.423 Y97.299
G1 X106.104 Y97.599 E6.3410
G1 X105.883 Y97.280
G1 X106.198 Y96.982 E6.3555
G1 X105.972 Y96.667
G1 X105.651 Y96.970 E6.3702
G1 X105.408 Y96.671
G1 X105.723 Y96.374 E6.3845
G1 X105.456 Y96.097
G1 X105.128 Y96.406 E6.3995
G1 X104.849 Y96.142
G1 X105.181 Y95.828 E6.4147
G1 X104.874 Y95.590
G1 X104.538 Y95.906 E6.4300
G1 X104.210 Y95.687
G1 X104.566 Y95.352 E6.4463
G1 X104.222 Y95.147
G1 X103.877 Y95.473 E6.4621
G1 X103.496 Y95.304
G1 X103.871 Y94.950 E6.4792
G1 X103.495 Y94.777
G1 X103.115 Y95.135 E6.4966
G1 X102.693 Y95.004
G1 X103.096 Y94.624 E6.5150
G1 X102.676 Y94.492
G1 X102.251 Y94.892 E6.5344
G1 X101.774 Y94.814
G1 X102.223 Y94.391 E6.5549
G1 X101.741 Y94.317
G1 X101.257 Y94.774 E6.5771
G1 X100.685 Y94.784
G1 X101.222 Y94.279 E6.6016
G1 X100.643 Y94.296
G1 X100.065 Y94.841 E6.6281
G1 X99.298 Y95.036
G1 X100.014 Y94.361 E6.6608
G1 X99.280 Y94.524
G1 X98.310 Y95.440 E6.7052
G1 X98.325 Y94.897
G1 X95.586 Y97.480 E6.8304
G0 X94.930 Y99.156 F10800
G1 X95.519 Y98.600 E6.8573 F600
G0 X95.965 Y97.651 F10800
G1 X95.159 Y98.412 E6.8942 F600
G0 X95.232 Y101.514 F10800
G1 X94.881 Y101.845 E6.9102 F600
G1 X94.818 Y101.376
G1 X95.186 Y101.029 E6.9270
G1 X95.161 Y100.524
G1 X94.769 Y100.894 E6.9450
G1 X94.777 Y100.358
G1 X95.210 Y99.949 E6.9648
G1 X95.300 Y99.336
G1 X94.812 Y99.796 E6.9871
G0 F4800 E5.9871
G0 X97.301 Y96.099 F10800
G0 X100.008 Y94.854
G0 X102.990 Y95.087
G0 X115.038 Y100.294
G0 F4800 E6.9871
;segType:Support
G1 X114.638 Y100.294 E6.9984 F900
G1 X114.489 Y100.399 E7.0035
G1 X114.089 Y100.399 E7.0148
G1 X113.924 Y100.297 E7.0203
G1 X113.524 Y100.297 E7.0316
G1 X113.433 Y100.359 E7.0348
G1 X113.033 Y100.359 E7.0461
G1 X112.949 Y100.314 E7.0488
G1 X112.076 Y100.320 E7.0734
G1 X111.948 Y100.384 E7.0775
G1 X111.548 Y100.384 E7.0888
G1 X111.404 Y100.342 E7.0930
G1 X111.004 Y100.342 E7.1043
G1 X110.899 Y100.239 E7.1085
G1 X110.499 Y100.239 E7.1198
G1 X110.451 Y100.345 E7.1231
G1 X108.727 Y100.329 E7.1718
G0 F4800 E6.1718
G0 X116.120 Y100.275 F10800
G0 F4800 E7.1718
G1 X116.520 Y100.275 E7.1831 F900
G1 X116.560 Y100.160 E7.1865
G1 X117.418 Y100.199 E7.2108
G1 X117.654 Y100.141 E7.2177
G1 X118.054 Y100.141 E7.2290
G1 X118.197 Y100.255 E7.2342
G1 X118.597 Y100.255 E7.2455
G1 X118.699 Y100.160 E7.2494
G1 X119.099 Y100.160 E7.2607
G1 X119.200 Y100.211 E7.2639
G1 X120.094 Y100.211 E7.2892
G1 X120.051 Y100.132 E7.2918
G1 X120.451 Y100.132 E7.3031
G1 X120.648 Y100.203 E7.3090
G1 X121.048 Y100.203 E7.3203
G1 X121.047 Y100.149 E7.3219
G1 X121.447 Y100.149 E7.3332
G1 X121.350 Y100.230 E7.3368
G1 X121.750 Y100.230 E7.3481
G1 X121.653 Y100.141 E7.3518
G1 X122.053 Y100.141 E7.3631
G1 X122.003 Y100.330 E7.3687
G1 X122.314 Y100.330 E7.3775
G0 F4800 E6.3775
G0 X124.254 Y98.482 F10800
G0 X126.193 Y96.634
G0 X128.133 Y94.786
G0 F4800 E7.3775
;segType:HShell
G1 X128.856 Y94.104 E7.4105 F600
;segType:Loop
G0 X130.099 Y93.804 F10800
G1 X130.941 Y93.865 E7.4386 F600
G1 X131.863 Y94.071 E7.4700
G1 X132.746 Y94.408 E7.5015
G1 X133.572 Y94.872 E7.5330
G1 X134.324 Y95.452 E7.5646
G1 X134.984 Y96.138 E7.5962
G1 X135.539 Y96.913 E7.6279
G1 X135.975 Y97.762 E7.6597
G1 X136.293 Y98.712 E7.6930
G1 X136.462 Y99.652 E7.7248
G1 X136.494 Y100.568 E7.7552
G1 X136.388 Y101.526 E7.7873
G1 X136.147 Y102.447 E7.8190
G1 X135.773 Y103.328 E7.8508
G1 X135.276 Y104.142 E7.8825
G1 X134.666 Y104.875 E7.9142
G1 X133.958 Y105.509 E7.9458
G1 X133.167 Y106.033 E7.9774
G1 X132.310 Y106.434 E8.0089
G1 X131.405 Y106.706 E8.0403
G1 X130.472 Y106.844 E8.0717
G1 X129.528 Y106.844 E8.1031
G1 X128.595 Y106.706 E8.1345
G1 X127.690 Y106.434 E8.1659
G1 X126.833 Y106.033 E8.1974
G1 X126.042 Y105.509 E8.2289
G1 X125.334 Y104.875 E8.2605
G1 X124.724 Y104.142 E8.2922
G1 X124.228 Y103.329 E8.3239
G1 X123.843 Y102.408 E8.3571
G1 X123.608 Y101.500 E8.3883
G1 X123.507 Y100.524 E8.4210
G1 X123.545 Y99.586 E8.4522
G1 X123.715 Y98.669 E8.4832
G1 X124.024 Y97.763 E8.5150
G1 X124.461 Y96.913 E8.5468
G1 X125.016 Y96.138 E8.5785
G1 X125.676 Y95.453 E8.6102
G1 X126.428 Y94.872 E8.6418
G1 X127.254 Y94.408 E8.6733
G1 X128.137 Y94.071 E8.7047
G1 X129.059 Y93.865 E8.7361
G1 X129.901 Y93.804 E8.7642
G0 F4800 E7.7642
G0 X128.659 Y94.045 F10800
G0 F4800 E8.7642
;segType:Perimeter
G1 X129.056 Y93.487 E8.7870 F359
G1 X130.000 Y93.418 E8.8185
G1 X131.003 Y93.491 E8.8519
G1 X131.985 Y93.710 E8.8854
G1 X132.924 Y94.069 E8.9189
G1 X133.802 Y94.562 E8.9523
G1 X134.600 Y95.178 E8.9859
G1 X135.300 Y95.904 E9.0194
G1 X135.887 Y96.724 E9.0529
G1 X136.348 Y97.622 E9.0865
G1 X136.683 Y98.624 E9.1216
G1 X136.860 Y99.614 E9.1551
G1 X136.895 Y100.581 E9.1873
G1 X136.783 Y101.591 E9.2211
G1 X136.529 Y102.563 E9.2545
G1 X136.134 Y103.493 E9.2881
G1 X135.608 Y104.354 E9.3217
G1 X134.963 Y105.129 E9.3552
G1 X134.212 Y105.802 E9.3887
G1 X133.372 Y106.358 E9.4222
G1 X132.461 Y106.785 E9.4557
G1 X131.498 Y107.075 E9.4892
G1 X130.503 Y107.221 E9.5226
G1 X129.497 Y107.221 E9.5561
G1 X128.502 Y107.075 E9.5895
G1 X127.539 Y106.785 E9.6230
G1 X126.628 Y106.358 E9.6564
G1 X125.788 Y105.802 E9.6899
G1 X125.037 Y105.129 E9.7235
G1 X124.392 Y104.354 E9.7570
G1 X123.866 Y103.493 E9.7906
G1 X123.461 Y102.523 E9.8255
G1 X123.212 Y101.563 E9.8585
G1 X123.107 Y100.535 E9.8929
G1 X123.146 Y99.547 E9.9258
G1 X123.325 Y98.578 E9.9585
G1 X123.651 Y97.622 E9.9921
G1 X124.113 Y96.724 E10.0257
G1 X124.700 Y95.904 E10.0593
G1 X125.400 Y95.178 E10.0928
G1 X126.198 Y94.562 E10.1263
G1 X127.075 Y94.069 E10.1598
G1 X128.015 Y93.710 E10.1933
G1 X128.939 Y93.504 E10.2248
G1 X129.498 Y93.922
G0 X127.279 Y95.573 F10800
G0 X125.842 Y96.749
G0 X124.884 Y98.329
G0 X124.508 Y100.134
G0 X124.854 Y103.164
;segType:HShell
G1 X124.539 Y103.461 E10.2392 F600
G1 X124.744 Y103.796
G1 X125.062 Y103.496 E10.2537
G1 X125.270 Y103.828
G1 X124.960 Y104.120 E10.2679
G1 X125.207 Y104.417
G1 X125.526 Y104.115 E10.2825
G1 X125.782 Y104.402
G1 X125.453 Y104.713 E10.2975
G1 X125.735 Y104.975
G1 X126.058 Y104.670 E10.3123
G1 X126.362 Y104.912
G1 X126.023 Y105.232 E10.3278
G1 X126.331 Y105.470
G1 X126.666 Y105.154 E10.3431
G1 X127.012 Y105.355
G1 X126.660 Y105.688 E10.3593
G1 X126.996 Y105.899
G1 X127.366 Y105.550 E10.3762
G1 X127.741 Y105.725
G1 X127.371 Y106.074 E10.3931
G1 X127.745 Y106.249
G1 X128.150 Y105.867 E10.4116
G1 X128.564 Y106.006
G1 X128.167 Y106.380 E10.4297
G1 X128.592 Y106.507
G1 X129.041 Y106.084 E10.4502
G1 X129.518 Y106.163
G1 X129.070 Y106.585 E10.4707
G1 X129.556 Y106.655
G1 X130.079 Y106.162 E10.4946
G1 X130.665 Y106.137
G1 X130.116 Y106.655 E10.5198
G1 X130.717 Y106.617
G1 X131.356 Y106.014 E10.5490
;segType:Perimeter
G0 X130.997 Y105.997 F10800
G1 X130.427 Y105.594 E10.5722 F359
G1 X129.586 Y105.599 E10.6002
G1 X128.697 Y105.453 E10.6302
G1 X127.847 Y105.159 E10.6601
G1 X127.059 Y104.726 E10.6900
G1 X126.356 Y104.166 E10.7199
G1 X125.759 Y103.497 E10.7497
G1 X125.284 Y102.737 E10.7795
G1 X124.944 Y101.908 E10.8093
G1 X124.749 Y101.034 E10.8391
G1 X124.706 Y100.141 E10.8688
G1 X124.813 Y99.252 E10.8986
G1 X125.069 Y98.395 E10.9284
G1 X125.468 Y97.592 E10.9582
G1 X125.996 Y96.867 E10.9880
G1 X126.640 Y96.242 E11.0179
G1 X127.381 Y95.733 E11.0477
G1 X128.198 Y95.357 E11.0777
G1 X129.067 Y95.125 E11.1076
G1 X129.964 Y95.042 E11.1375
G1 X130.862 Y95.112 E11.1675
G1 X131.734 Y95.333 E11.1974
G1 X132.557 Y95.699 E11.2274
G1 X133.304 Y96.197 E11.2572
G1 X133.957 Y96.813 E11.2871
G1 X134.495 Y97.531 E11.3169
G1 X134.904 Y98.328 E11.3467
G1 X135.172 Y99.182 E11.3765
G1 X135.291 Y100.069 E11.4063
G1 X135.260 Y100.963 E11.4360
G1 X135.077 Y101.840 E11.4658
G1 X134.749 Y102.673 E11.4956
G1 X134.284 Y103.439 E11.5254
G1 X133.696 Y104.117 E11.5552
G1 X133.001 Y104.686 E11.5851
G1 X132.219 Y105.130 E11.6150
G1 X131.372 Y105.435 E11.6449
G1 X130.545 Y105.583 E11.6729
G1 X130.067 Y106.082
;segType:Loop
G0 X129.331 Y105.940 F10800
G1 X128.593 Y105.819 E11.6978 F600
G1 X127.676 Y105.502 E11.7301
G1 X126.827 Y105.035 E11.7623
G1 X126.072 Y104.434 E11.7944
G1 X125.431 Y103.716 E11.8264
G1 X124.922 Y102.902 E11.8583
G1 X124.559 Y102.016 E11.8902
G1 X124.351 Y101.082 E11.9220
G1 X124.305 Y100.128 E11.9538
G1 X124.420 Y99.179 E11.9856
G1 X124.693 Y98.263 E12.0174
G1 X125.119 Y97.404 E12.0493
G1 X125.685 Y96.627 E12.0812
G1 X126.377 Y95.956 E12.1133
G1 X127.174 Y95.409 E12.1454
G1 X128.054 Y95.004 E12.1777
G1 X128.993 Y94.752 E12.2100
G1 X129.961 Y94.664 E12.2423
G1 X130.931 Y94.739 E12.2747
G1 X131.873 Y94.978 E12.3070
G1 X132.759 Y95.371 E12.3392
G1 X133.563 Y95.907 E12.3714
G1 X134.264 Y96.569 E12.4035
G1 X134.841 Y97.338 E12.4354
G1 X135.278 Y98.191 E12.4673
G1 X135.564 Y99.105 E12.4991
G1 X135.692 Y100.052 E12.5309
G1 X135.659 Y101.006 E12.5627
G1 X135.463 Y101.942 E12.5945
G1 X135.112 Y102.833 E12.6264
G1 X134.615 Y103.654 E12.6583
G1 X133.984 Y104.381 E12.6903
G1 X133.237 Y104.992 E12.7224
G1 X132.395 Y105.470 E12.7546
G1 X131.482 Y105.799 E12.7869
G1 X130.525 Y105.970 E12.8192
G1 X129.552 Y105.977 E12.8515
G1 X129.526 Y105.973 E12.8524
;segType:HShell
G0 X131.386 Y106.514 F10800
G1 X132.206 Y105.740 E12.8900 F600
G1 X132.208 Y106.267
G1 X133.677 Y104.882 E12.9571
G0 X134.398 Y104.202 F10800
G1 X135.714 Y102.960 E13.0173 F600
G0 X133.481 Y105.595 F10800
G1 X135.024 Y104.139 E13.0878 F600
G0 X135.347 Y102.777 F10800
G1 X136.021 Y102.142 E13.1186 F600
G1 X135.666 Y101.948
G1 X136.196 Y101.449 E13.1429
G1 X135.803 Y101.291
G1 X136.261 Y100.859 E13.1638
G1 X136.285 Y100.308
G1 X135.869 Y100.700 E13.1828
G1 X135.889 Y100.153
G1 X136.267 Y99.797 E13.2001
G1 X136.201 Y99.330
G1 X135.842 Y99.668 E13.2165
G1 X135.779 Y99.200
G1 X136.120 Y98.878 E13.2321
G1 X136.000 Y98.463
G1 X135.669 Y98.775 E13.2472
G1 X135.541 Y98.367
G1 X135.866 Y98.061 E13.2620
G1 X135.711 Y97.679
G1 X135.392 Y97.980 E13.2766
G1 X135.209 Y97.624
G1 X135.528 Y97.323 E13.2912
G1 X135.340 Y96.972
G1 X135.027 Y97.267 E13.3055
G1 X134.798 Y96.954
G1 X135.114 Y96.656 E13.3199
G1 X134.888 Y96.341
G1 X134.566 Y96.645 E13.3347
G1 X134.316 Y96.352
G1 X134.633 Y96.054 E13.3491
G1 X134.366 Y95.777
G1 X134.037 Y96.087 E13.3642
G1 X133.757 Y95.823
G1 X134.086 Y95.513 E13.3792
G1 X133.778 Y95.275
G1 X133.439 Y95.594 E13.3947
G1 X133.111 Y95.375
G1 X133.470 Y95.037 E13.4111
G1 X133.120 Y94.838
G1 X132.770 Y95.168 E13.4271
G1 X132.390 Y94.999
G1 X132.769 Y94.641 E13.4444
G1 X132.386 Y94.474
G1 X132.009 Y94.830 E13.4617
G1 X131.578 Y94.708
G1 X131.987 Y94.322 E13.4804
G1 X131.559 Y94.197
G1 X131.136 Y94.596 E13.4997
G1 X130.648 Y94.528
G1 X131.106 Y94.096 E13.5206
G1 X130.615 Y94.031
G1 X130.130 Y94.488 E13.5428
G1 X129.544 Y94.512
G1 X130.095 Y93.993 E13.5680
G1 X129.504 Y94.022
G1 X128.915 Y94.577 E13.5949
G1 X128.101 Y94.288
G1 X127.099 Y95.233 E13.6407
G1 X127.073 Y94.729
G1 X124.612 Y97.051 E13.7532
G1 X125.048 Y97.168
G1 X124.147 Y98.018 E13.7944
G1 X124.500 Y98.213
G1 X123.896 Y98.783 E13.8220
G0 X124.670 Y102.809 F10800
G1 X124.351 Y103.110 E13.8366 F600
G1 X124.193 Y102.731
G1 X124.514 Y102.428 E13.8513
G1 X124.361 Y102.044
G1 X124.034 Y102.352 E13.8662
G1 X123.924 Y101.927
G1 X124.264 Y101.607 E13.8818
G1 X124.167 Y101.170
G1 X123.814 Y101.503 E13.8979
G1 X123.760 Y101.025
G1 X124.131 Y100.675 E13.9149
G1 X124.106 Y100.170
G1 X123.710 Y100.544 E13.9330
G1 X123.729 Y99.998
G1 X124.170 Y99.582 E13.9531
G1 X124.281 Y98.949
G1 X123.778 Y99.423 E13.9761
G0 F4800 E12.9761
G0 X126.250 Y95.818 F10800
G0 X128.957 Y94.574
G0 X131.939 Y94.807
G0 X146.152 Y100.141
G0 F4800 E13.9761
;segType:Support
G1 X147.188 Y100.142 E14.0054 F900
G1 X147.939 Y100.142 E14.0266
G1 X148.689 Y100.143 E14.0478
G1 X148.909 Y100.263 E14.0549
G1 X149.309 Y100.263 E14.0662
G1 X149.297 Y100.122 E14.0702
G1 X149.697 Y100.122 E14.0815
G1 X149.690 Y100.604 E14.0951
G1 X150.090 Y100.604 E14.1064
G1 X149.980 Y100.442 E14.1120
G1 X150.380 Y100.442 E14.1233
G1 X150.416 Y100.545 E14.1264
G1 X150.816 Y100.545 E14.1377
G1 X150.721 Y100.605 E14.1409
G1 X151.807 Y100.605 E14.1716
G1 X151.884 Y100.530 E14.1746
G1 X152.217 Y100.544 E14.1841
G0 F4800 E13.1841
G0 X154.463 Y102.507 F10800
G0 X156.627 Y105.184
G0 X159.448 Y106.158
G0 X160.994 Y106.063
G0 F4800 E14.1841
;segType:HShell
G1 X160.366 Y106.656 E14.2128 F600
;segType:Loop
G0 X158.411 Y106.679 F10800
G1 X157.601 Y106.435 E14.2409 F600
G1 X156.744 Y106.033 E14.2724
G1 X155.953 Y105.510 E14.3039
G1 X155.245 Y104.875 E14.3356
G1 X154.635 Y104.143 E14.3673
G1 X154.139 Y103.329 E14.3990
G1 X153.754 Y102.409 E14.4321
G1 X153.519 Y101.501 E14.4633
G1 X153.419 Y100.524 E14.4960
G1 X153.456 Y99.587 E14.5272
G1 X153.626 Y98.670 E14.5582
G1 X153.935 Y97.764 E14.5901
G1 X154.372 Y96.914 E14.6218
G1 X154.927 Y96.138 E14.6536
G1 X155.587 Y95.453 E14.6852
G1 X156.339 Y94.873 E14.7168
G1 X157.165 Y94.409 E14.7483
G1 X158.048 Y94.071 E14.7798
G1 X158.970 Y93.866 E14.8112
G1 X159.911 Y93.797 E14.8426
G1 X160.852 Y93.866 E14.8739
G1 X161.774 Y94.071 E14.9053
G1 X162.657 Y94.409 E14.9368
G1 X163.483 Y94.873 E14.9683
G1 X164.235 Y95.453 E14.9999
G1 X164.895 Y96.138 E15.0315
G1 X165.450 Y96.914 E15.0633
G1 X165.887 Y97.762 E15.0950
G1 X166.204 Y98.713 E15.1283
G1 X166.373 Y99.653 E15.1601
G1 X166.405 Y100.569 E15.1906
G1 X166.300 Y101.526 E15.2226
G1 X166.058 Y102.448 E15.2543
G1 X165.684 Y103.328 E15.2861
G1 X165.187 Y104.143 E15.3179
G1 X164.577 Y104.875 E15.3495
G1 X163.869 Y105.510 E15.3812
G1 X163.079 Y106.033 E15.4127
G1 X162.221 Y106.435 E15.4442
G1 X161.317 Y106.707 E15.4756
G1 X160.383 Y106.844 E15.5070
G1 X159.439 Y106.844 E15.5384
G1 X158.604 Y106.721 E15.5665
G0 F4800 E14.5665
G0 X159.873 Y106.756 F10800
G0 F4800 E15.5665
;segType:Perimeter
G1 X159.350 Y107.213 E15.5896 F359
G1 X158.414 Y107.075 E15.6211
G1 X157.450 Y106.785 E15.6545
G1 X156.539 Y106.358 E15.6880
G1 X155.699 Y105.803 E15.7215
G1 X154.948 Y105.130 E15.7550
G1 X154.303 Y104.355 E15.7886
G1 X153.777 Y103.494 E15.8221
G1 X153.372 Y102.523 E15.8571
G1 X153.123 Y101.564 E15.8901
G1 X153.018 Y100.536 E15.9244
G1 X153.057 Y99.547 E15.9573
G1 X153.236 Y98.579 E15.9901
G1 X153.563 Y97.623 E16.0237
G1 X154.024 Y96.725 E16.0573
G1 X154.611 Y95.904 E16.0908
G1 X155.311 Y95.179 E16.1244
G1 X156.109 Y94.563 E16.1579
G1 X156.987 Y94.070 E16.1914
G1 X157.926 Y93.711 E16.2248
G1 X158.908 Y93.492 E16.2583
G1 X159.911 Y93.419 E16.2917
G1 X160.914 Y93.492 E16.3252
G1 X161.896 Y93.711 E16.3586
G1 X162.836 Y94.070 E16.3921
G1 X163.713 Y94.563 E16.4256
G1 X164.511 Y95.179 E16.4591
G1 X165.211 Y95.904 E16.4926
G1 X165.798 Y96.725 E16.5262
G1 X166.259 Y97.622 E16.5597
G1 X166.594 Y98.625 E16.5949
G1 X166.771 Y99.615 E16.6284
G1 X166.806 Y100.582 E16.6605
G1 X166.694 Y101.591 E16.6943
G1 X166.440 Y102.564 E16.7277
G1 X166.045 Y103.493 E16.7613
G1 X165.519 Y104.355 E16.7949
G1 X164.874 Y105.130 E16.8285
G1 X164.124 Y105.803 E16.8620
G1 X163.283 Y106.358 E16.8955
G1 X162.372 Y106.785 E16.9289
G1 X161.409 Y107.075 E16.9624
G1 X160.414 Y107.222 E16.9959
G1 X159.468 Y107.222 E17.0273
G1 X159.025 Y106.694
;segType:HShell
G0 X159.806 Y106.656 F10800
G1 X160.331 Y106.160 E17.0513 F600
;segType:Loop
G0 X158.294 Y105.747 F10800
G1 X157.587 Y105.502 E17.0762 F600
G1 X156.738 Y105.036 E17.1084
G1 X155.983 Y104.434 E17.1406
G1 X155.342 Y103.716 E17.1726
G1 X154.833 Y102.902 E17.2045
G1 X154.470 Y102.016 E17.2364
G1 X154.263 Y101.083 E17.2682
G1 X154.216 Y100.128 E17.2999
G1 X154.331 Y99.180 E17.3317
G1 X154.604 Y98.263 E17.3635
G1 X155.030 Y97.404 E17.3954
G1 X155.596 Y96.628 E17.4274
G1 X156.288 Y95.956 E17.4594
G1 X157.085 Y95.409 E17.4916
G1 X157.965 Y95.004 E17.5238
G1 X158.904 Y94.753 E17.5561
G1 X159.872 Y94.664 E17.5885
G1 X160.842 Y94.740 E17.6208
G1 X161.784 Y94.978 E17.6531
G1 X162.670 Y95.372 E17.6854
G1 X163.475 Y95.908 E17.7176
G1 X164.175 Y96.570 E17.7496
G1 X164.752 Y97.339 E17.7816
G1 X165.189 Y98.192 E17.8135
G1 X165.475 Y99.105 E17.8453
G1 X165.603 Y100.052 E17.8771
G1 X165.569 Y101.007 E17.9089
G1 X165.374 Y101.943 E17.9407
G1 X165.023 Y102.834 E17.9725
G1 X164.526 Y103.655 E18.0044
G1 X163.895 Y104.381 E18.0364
G1 X163.148 Y104.993 E18.0685
G1 X162.306 Y105.471 E18.1007
G1 X161.393 Y105.800 E18.1330
G1 X160.436 Y105.971 E18.1653
G1 X159.463 Y105.978 E18.1977
G1 X158.504 Y105.820 E18.2300
G1 X158.480 Y105.811 E18.2309
;segType:Perimeter
G0 X159.923 Y106.084 F10800
G1 X159.438 Y105.590 E18.2539 F359
G1 X158.608 Y105.454 E18.2819
G1 X157.758 Y105.160 E18.3118
G1 X156.970 Y104.726 E18.3417
G1 X156.267 Y104.167 E18.3716
G1 X155.670 Y103.497 E18.4014
G1 X155.195 Y102.737 E18.4312
G1 X154.855 Y101.909 E18.4610
G1 X154.661 Y101.035 E18.4908
G1 X154.617 Y100.141 E18.5205
G1 X154.724 Y99.253 E18.5503
G1 X154.981 Y98.395 E18.5801
G1 X155.379 Y97.592 E18.6099
G1 X155.907 Y96.868 E18.6397
G1 X156.551 Y96.242 E18.6696
G1 X157.292 Y95.734 E18.6994
G1 X158.109 Y95.358 E18.7294
G1 X158.978 Y95.125 E18.7593
G1 X159.875 Y95.043 E18.7892
G1 X160.773 Y95.113 E18.8192
G1 X161.646 Y95.334 E18.8491
G1 X162.468 Y95.699 E18.8791
G1 X163.216 Y96.197 E18.9089
G1 X163.868 Y96.814 E18.9388
G1 X164.406 Y97.531 E18.9686
G1 X164.815 Y98.329 E18.9984
G1 X165.083 Y99.183 E19.0282
G1 X165.202 Y100.070 E19.0580
G1 X165.171 Y100.964 E19.0877
G1 X164.988 Y101.840 E19.1175
G1 X164.660 Y102.673 E19.1473
G1 X164.195 Y103.440 E19.1771
G1 X163.607 Y104.117 E19.2069
G1 X162.912 Y104.686 E19.2368
G1 X162.130 Y105.130 E19.2667
G1 X161.284 Y105.436 E19.2966
G1 X160.397 Y105.594 E19.3266
G1 X159.556 Y105.600 E19.3546
G1 X158.992 Y106.011
;segType:HShell
G0 X159.767 Y106.164 F10800
G1 X159.274 Y106.629 E19.3771 F600
G1 X158.790 Y106.558
G1 X159.241 Y106.132 E19.3977
G1 X158.764 Y106.054
G1 X158.336 Y106.458 E19.4173
G1 X157.911 Y106.330
G1 X158.310 Y105.953 E19.4355
G1 X157.900 Y105.812
G1 X157.509 Y106.181 E19.4534
G1 X157.134 Y106.005
G1 X157.492 Y105.668 E19.4698
G1 X157.138 Y105.474
G1 X156.770 Y105.820 E19.4866
G1 X156.441 Y105.602
G1 X156.784 Y105.279 E19.5022
G1 X156.457 Y105.059
G1 X156.112 Y105.385 E19.5180
G1 X155.821 Y105.131
G1 X156.153 Y104.817 E19.5332
G1 X155.850 Y104.575
G1 X155.533 Y104.874 E19.5477
G1 X155.267 Y104.596
G1 X155.592 Y104.289 E19.5626
G1 X155.336 Y104.002
G1 X155.021 Y104.300 E19.5770
G1 X154.779 Y104.000
G1 X155.099 Y103.698 E19.5916
G1 X154.891 Y103.366
G1 X154.574 Y103.665 E19.6061
G1 X154.369 Y103.329
G1 X154.683 Y103.033 E19.6205
G1 X154.519 Y102.659
G1 X154.200 Y102.961 E19.6351
G1 X154.041 Y102.582
G1 X154.363 Y102.278 E19.6498
G1 X154.234 Y101.872
G1 X153.902 Y102.185 E19.6650
G1 X153.792 Y101.760
G1 X154.137 Y101.435 E19.6808
G1 X154.057 Y100.982
G1 X153.701 Y101.318 E19.6971
G1 X153.651 Y100.836
G1 X154.033 Y100.476 E19.7145
G1 X154.037 Y99.944
G1 X153.626 Y100.331 E19.7332
G1 X153.648 Y99.782
G1 X154.109 Y99.347 E19.7543
G1 X153.736 Y99.171
G1 X154.278 Y98.659 E19.7791
G1 X153.897 Y98.491
G1 X154.599 Y97.828 E19.8112
G1 X154.204 Y97.673
G1 X155.513 Y96.438 E19.8711
G1 X154.956 Y96.435
G1 X156.418 Y95.056 E19.9379
G1 X156.225 Y95.766
G1 X157.641 Y94.431 E20.0027
G1 X157.672 Y94.929
G1 X158.478 Y94.169 E20.0395
G1 X158.518 Y94.660
G1 X159.175 Y94.040 E20.0696
G1 X159.782 Y93.996
G1 X159.210 Y94.535 E20.0957
G1 X159.831 Y94.478
G1 X160.321 Y94.016 E20.1181
G1 X160.838 Y94.057
G1 X160.355 Y94.513 E20.1402
G1 X160.872 Y94.553
G1 X161.291 Y94.158 E20.1594
G1 X161.741 Y94.262
G1 X161.315 Y94.664 E20.1789
G1 X161.756 Y94.776
G1 X162.139 Y94.415 E20.1964
G1 X162.538 Y94.567
G1 X162.150 Y94.933 E20.2141
G1 X162.531 Y95.102
G1 X162.893 Y94.761 E20.2306
G1 X163.244 Y94.958
G1 X162.893 Y95.289 E20.2467
G1 X163.221 Y95.508
G1 X163.567 Y95.182 E20.2625
G1 X163.875 Y95.419
G1 X163.550 Y95.727 E20.2774
G1 X163.837 Y95.984
G1 X164.172 Y95.668 E20.2927
G1 X164.439 Y95.945
G1 X164.117 Y96.248 E20.3074
G1 X164.385 Y96.524
G1 X164.705 Y96.222 E20.3220
G1 X164.936 Y96.532
G1 X164.617 Y96.833 E20.3366
G1 X164.850 Y97.142
G1 X165.162 Y96.848 E20.3509
G1 X165.367 Y97.183
G1 X165.048 Y97.483 E20.3654
G1 X165.231 Y97.840
G1 X165.550 Y97.539 E20.3800
G1 X165.724 Y97.903
G1 X165.402 Y98.206 E20.3947
G1 X165.530 Y98.614
G1 X165.858 Y98.305 E20.4097
G1 X165.992 Y98.707
G1 X165.658 Y99.022 E20.4250
G1 X165.728 Y99.484
G1 X166.080 Y99.152 E20.4411
G1 X166.161 Y99.604
G1 X165.792 Y99.953 E20.4580
G1 X165.788 Y100.485
G1 X166.189 Y100.107 E20.4763
G1 X166.198 Y100.627
G1 X165.768 Y101.032 E20.4960
G1 X166.133 Y101.216
G1 X165.631 Y101.690 E20.5189
G1 X166.005 Y101.865
G1 X165.390 Y102.446 E20.5470
G1 X165.773 Y102.613
G1 X164.873 Y103.461 E20.5881
G1 X165.289 Y103.597
G1 X162.784 Y105.961 E20.7027
G1 X162.818 Y105.400
G1 X161.795 Y106.365 E20.7495
G1 X161.760 Y105.870
G1 X161.030 Y106.558 E20.7828
G0 F4800 E19.7828
G0 X163.222 Y104.565 F10800
G0 X165.414 Y102.572
G0 X167.605 Y100.579
G0 F4800 E20.7828
;segType:Support
G1 X167.897 Y100.578 E20.7911 F900
G1 X168.381 Y100.538 E20.8048
G1 X169.628 Y100.543 E20.8400
G1 X170.197 Y100.561 E20.8561
G1 X170.062 Y100.508 E20.8602
G1 X170.794 Y100.524 E20.8810
G1 X170.733 Y100.429 E20.8842
G1 X171.133 Y100.429 E20.8955
G1 X171.118 Y100.140 E20.9036
G1 X171.518 Y100.140 E20.9150
G1 X171.397 Y100.073 E20.9189
G1 X171.797 Y100.073 E20.9302
G1 X171.796 Y100.173 E20.9330
G1 X172.196 Y100.173 E20.9443
G1 X172.046 Y100.048 E20.9498
G1 X172.446 Y100.048 E20.9611
G0 X172.432 Y100.625 F10800
G1 X172.832 Y100.625 E20.9725 F900
G1 X172.899 Y100.548 E20.9753
G1 X173.778 Y100.565 E21.0002
G1 X173.778 Y100.165 E21.0115
G1 X172.899 Y100.148 E21.0364
G1 X172.832 Y100.225 E21.0393
G1 X172.432 Y100.225 E21.0506
G1 X172.446 Y100.448 E21.0569
G1 X172.046 Y100.448 E21.0682
G1 X172.196 Y100.573 E21.0737
G1 X171.796 Y100.573 E21.0850
G1 X171.797 Y100.473 E21.0879
G1 X171.397 Y100.473 E21.0992
G1 X171.518 Y100.540 E21.1031
G1 X171.118 Y100.540 E21.1144
G1 X171.133 Y100.029 E21.1289
G1 X170.733 Y100.029 E21.1402
G1 X170.794 Y100.124 E21.1434
G1 X170.062 Y100.108 E21.1641
G1 X170.197 Y100.161 E21.1682
G1 X169.628 Y100.143 E21.1843
G1 X168.381 Y100.138 E21.2195
G1 X167.897 Y100.178 E21.2333
G1 X167.591 Y100.179 E21.2419
G0 F4800 E20.2419
G0 X165.970 Y96.632 F10800
G0 X164.647 Y95.043
G0 X162.924 Y93.903
G0 X160.944 Y93.307
G0 X158.878 Y93.307
G0 X156.898 Y93.903
G0 X154.456 Y95.789
G0 X153.044 Y98.534
G0 X152.233 Y100.144
G0 F4800 E21.2419
G1 X151.884 Y100.130 E21.2518 F900
G1 X151.807 Y100.205 E21.2548
G1 X150.721 Y100.205 E21.2855
G1 X150.816 Y100.145 E21.2887
G1 X150.416 Y100.145 E21.3000
G1 X150.380 Y100.042 E21.3031
G1 X149.980 Y100.042 E21.3144
G1 X150.090 Y100.204 E21.3200
G1 X149.690 Y100.204 E21.3313
G1 X149.697 Y100.522 E21.3403
G1 X149.297 Y100.522 E21.3516
G1 X149.309 Y100.663 E21.3556
G1 X148.909 Y100.663 E21.3669
G1 X148.689 Y100.543 E21.3740
G1 X147.939 Y100.542 E21.3952
G1 X147.188 Y100.542 E21.4164
G1 X146.152 Y100.541 E21.4457
G0 F4800 E20.4457
G0 X143.718 Y100.530 F10800
G0 F4800 E21.4457
G1 X143.269 Y100.545 E21.4584 F900
G1 X142.133 Y100.533 E21.4905
G1 X140.571 Y100.557 E21.5347
G1 X140.560 Y100.628 E21.5367
G1 X140.160 Y100.628 E21.5481
G0 F4800 E20.5481
G0 X137.695 Y100.567 F10800
G0 F4800 E21.5481
G1 X138.475 Y100.571 E21.5701 F900
G1 X140.147 Y100.563 E21.6174
G1 X140.160 Y100.228 E21.6269
G1 X140.560 Y100.228 E21.6382
G1 X140.571 Y100.157 E21.6402
G1 X142.133 Y100.133 E21.6844
G1 X143.269 Y100.145 E21.7165
G1 X143.718 Y100.130 E21.7292
G0 F4800 E20.7292
G0 X140.147 Y100.163 F10800
G0 F4800 E21.7292
G1 X138.475 Y100.171 E21.7765 F900
G1 X137.681 Y100.167 E21.7990
G0 F4800 E20.7990
G0 X136.312 Y103.574 F10800
G0 X135.109 Y105.255
G0 X133.473 Y106.519
G0 X131.543 Y107.257
G0 X129.482 Y107.408
G0 X127.465 Y106.958
G0 X125.662 Y105.947
G0 X124.228 Y104.459
G0 X122.323 Y100.730
G0 F4800 E21.7990
G1 X122.003 Y100.730 E21.8080 F900
G1 X122.053 Y100.541 E21.8135
G1 X121.653 Y100.541 E21.8248
G1 X121.750 Y100.630 E21.8286
G1 X121.350 Y100.630 E21.8399
G1 X121.447 Y100.549 E21.8435
G1 X121.047 Y100.549 E21.8548
G1 X121.048 Y100.603 E21.8563
G1 X120.648 Y100.603 E21.8676
G1 X120.451 Y100.532 E21.8736
G1 X120.051 Y100.532 E21.8849
G1 X120.094 Y100.611 E21.8874
G1 X119.200 Y100.611 E21.9127
G1 X119.099 Y100.560 E21.9159
G1 X118.699 Y100.560 E21.9272
G1 X118.597 Y100.655 E21.9312
G1 X118.197 Y100.655 E21.9425
G1 X118.054 Y100.541 E21.9477
G1 X117.654 Y100.541 E21.9590
G1 X117.418 Y100.599 E21.9659
G1 X116.560 Y100.560 E21.9901
G1 X116.520 Y100.675 E21.9935
G1 X116.120 Y100.675 E22.0049
G0 F4800 E21.0049
G0 X115.038 Y100.694 F10800
G0 F4800 E22.0049
G1 X114.638 Y100.694 E22.0162 F900
G1 X114.489 Y100.799 E22.0213
G1 X114.089 Y100.799 E22.0326
G1 X113.924 Y100.697 E22.0381
G1 X113.524 Y100.697 E22.0494
G1 X113.433 Y100.759 E22.0525
G1 X113.033 Y100.759 E22.0638
G1 X112.949 Y100.714 E22.0665
G1 X112.076 Y100.720 E22.0912
G1 X111.948 Y100.784 E22.0952
G1 X111.548 Y100.784 E22.1066
G1 X111.404 Y100.742 E22.1108
G1 X111.004 Y100.742 E22.1221
G1 X110.899 Y100.639 E22.1262
G1 X110.499 Y100.639 E22.1376
G1 X110.451 Y100.745 E22.1408
G1 X108.742 Y100.729 E22.1892
; ------------------------------------
; Layer #1
; ------------------------------------
G21 ; mm
G90 ; abs
G92 E0 ; reset extr
M106 S255
;segType:Support
G0 F4800 E-1.0000
G0 F300 Z1.900
G0 X108.727 Y100.329 F10800
G0 F4800 E0.0000
G1 X110.451 Y100.345 E0.0487 F5400
G1 X110.499 Y100.239 E0.0520
G1 X110.899 Y100.239 E0.0633
G1 X111.004 Y100.342 E0.0675
G1 X111.404 Y100.342 E0.0788
G1 X111.548 Y100.384 E0.0830
G1 X111.948 Y100.384 E0.0943
G1 X112.076 Y100.320 E0.0984
G1 X112.949 Y100.314 E0.1231
G1 X113.033 Y100.359 E0.1257
G1 X113.433 Y100.359 E0.1371
G1 X113.524 Y100.297 E0.1402
G1 X113.924 Y100.297 E0.1515
G1 X114.089 Y100.399 E0.1570
G1 X114.489 Y100.399 E0.1683
G1 X114.638 Y100.294 E0.1734
G1 X115.038 Y100.294 E0.1847
G0 F4800 E-0.8153
G0 X116.120 Y100.675 F10800
G0 F4800 E0.1847
G1 X116.520 Y100.675 E0.1960 F5400
G1 X116.560 Y100.560 E0.1995
G1 X117.418 Y100.599 E0.2237
G1 X117.654 Y100.541 E0.2306
G1 X118.054 Y100.541 E0.2419
G1 X118.197 Y100.655 E0.2471
G1 X118.597 Y100.655 E0.2584
G1 X118.699 Y100.560 E0.2623
G1 X119.099 Y100.560 E0.2737
G1 X119.200 Y100.611 E0.2768
G1 X120.094 Y100.611 E0.3021
G1 X120.051 Y100.532 E0.3047
G1 X120.451 Y100.532 E0.3160
G1 X120.648 Y100.603 E0.3220
G1 X121.048 Y100.603 E0.3333
G1 X121.047 Y100.549 E0.3348
G1 X121.447 Y100.549 E0.3461
G1 X121.350 Y100.630 E0.3497
G1 X121.750 Y100.630 E0.3610
G1 X121.653 Y100.541 E0.3648
G1 X122.053 Y100.541 E0.3761
G1 X122.003 Y100.730 E0.3816
G1 X122.318 Y100.730 E0.3905
G0 F4800 E-0.6095
G0 X124.380 Y98.627 F10800
G0 X126.280 Y95.791
G0 X128.996 Y94.564
G0 X130.698 Y94.531
G0 F4800 E0.3905
;segType:HShell
G1 X130.131 Y93.995 E0.4164 F3600
G1 X129.592 Y94.016
G1 X130.082 Y94.478 E0.4389
G1 X129.555 Y94.509
G1 X129.074 Y94.056 E0.4609
;segType:Loop
G0 X130.099 Y93.804 F10800
G1 X130.941 Y93.865 E0.4889 F3600
G1 X131.863 Y94.071 E0.5204
G1 X132.746 Y94.408 E0.5518
G1 X133.572 Y94.872 E0.5833
G1 X134.324 Y95.452 E0.6149
G1 X134.984 Y96.138 E0.6466
G1 X135.539 Y96.913 E0.6783
G1 X135.976 Y97.763 E0.7101
G1 X136.285 Y98.669 E0.7419
G1 X136.459 Y99.611 E0.7737
G1 X136.494 Y100.568 E0.8056
G1 X136.388 Y101.531 E0.8378
G1 X136.147 Y102.447 E0.8693
G1 X135.773 Y103.328 E0.9011
G1 X135.276 Y104.142 E0.9329
G1 X134.666 Y104.875 E0.9646
G1 X133.958 Y105.509 E0.9962
G1 X133.167 Y106.033 E1.0278
G1 X132.310 Y106.434 E1.0592
G1 X131.405 Y106.706 E1.0907
G1 X130.472 Y106.844 E1.1221
G1 X129.528 Y106.844 E1.1534
G1 X128.595 Y106.706 E1.1848
G1 X127.690 Y106.434 E1.2163
G1 X126.833 Y106.033 E1.2477
G1 X126.042 Y105.509 E1.2793
G1 X125.334 Y104.875 E1.3109
G1 X124.724 Y104.142 E1.3426
G1 X124.227 Y103.327 E1.3743
G1 X123.853 Y102.448 E1.4061
G1 X123.604 Y101.476 E1.4395
G1 X123.507 Y100.571 E1.4698
G1 X123.549 Y99.562 E1.5034
G1 X123.715 Y98.669 E1.5336
G1 X124.024 Y97.763 E1.5654
G1 X124.461 Y96.913 E1.5972
G1 X125.016 Y96.138 E1.6289
G1 X125.676 Y95.453 E1.6606
G1 X126.428 Y94.872 E1.6922
G1 X127.254 Y94.408 E1.7237
G1 X128.137 Y94.071 E1.7551
G1 X129.059 Y93.865 E1.7865
G1 X129.901 Y93.804 E1.8146
G0 F4800 E0.8146
G0 X128.659 Y94.045 F10800
G0 F4800 E1.8146
;segType:Perimeter
G1 X129.056 Y93.487 E1.8374 F2159
G1 X130.000 Y93.418 E1.8689
G1 X131.003 Y93.491 E1.9023
G1 X131.985 Y93.710 E1.9358
G1 X132.924 Y94.069 E1.9692
G1 X133.802 Y94.562 E2.0027
G1 X134.600 Y95.178 E2.0362
G1 X135.300 Y95.904 E2.0698
G1 X135.887 Y96.724 E2.1033
G1 X136.348 Y97.622 E2.1369
G1 X136.675 Y98.578 E2.1705
G1 X136.858 Y99.572 E2.2041
G1 X136.895 Y100.581 E2.2377
G1 X136.783 Y101.596 E2.2717
G1 X136.529 Y102.563 E2.3049
G1 X136.134 Y103.493 E2.3385
G1 X135.608 Y104.354 E2.3721
G1 X134.963 Y105.129 E2.4056
G1 X134.212 Y105.802 E2.4391
G1 X133.372 Y106.358 E2.4726
G1 X132.461 Y106.785 E2.5061
G1 X131.498 Y107.075 E2.5396
G1 X130.503 Y107.221 E2.5730
G1 X129.497 Y107.221 E2.6065
G1 X128.502 Y107.075 E2.6399
G1 X127.539 Y106.785 E2.6734
G1 X126.628 Y106.358 E2.7069
G1 X125.788 Y105.802 E2.7404
G1 X125.037 Y105.129 E2.7739
G1 X124.392 Y104.354 E2.8074
G1 X123.866 Y103.493 E2.8410
G1 X123.471 Y102.564 E2.8746
G1 X123.209 Y101.539 E2.9097
G1 X123.106 Y100.582 E2.9418
G1 X123.150 Y99.521 E2.9771
G1 X123.325 Y98.578 E3.0090
G1 X123.651 Y97.622 E3.0426
G1 X124.113 Y96.724 E3.0761
G1 X124.700 Y95.904 E3.1097
G1 X125.400 Y95.178 E3.1432
G1 X126.198 Y94.562 E3.1767
G1 X127.075 Y94.069 E3.2102
G1 X128.015 Y93.710 E3.2437
G1 X128.939 Y93.504 E3.2752
G1 X129.498 Y93.922
G0 X127.310 Y95.553 F10800
G0 X125.865 Y96.719
G0 X124.895 Y98.294
G0 X124.506 Y100.097
G0 X124.741 Y101.926
G0 X125.573 Y103.577
G0 X126.912 Y104.860
G0 X128.157 Y105.873
;segType:HShell
G1 X128.883 Y106.558 E3.3084 F3600
G1 X129.547 Y106.655
G1 X128.923 Y106.067 E3.3369
G1 X129.587 Y106.165
G1 X130.107 Y106.655 E3.3607
G1 X130.639 Y106.628
G1 X130.147 Y106.165 E3.3832
G1 X130.676 Y106.136
G1 X131.123 Y106.557 E3.4036
G1 X131.577 Y106.457
G1 X131.150 Y106.054 E3.4231
;segType:Loop
G0 X129.293 Y105.939 F10800
G1 X128.555 Y105.812 E3.4480 F3600
G1 X127.639 Y105.489 E3.4803
G1 X126.794 Y105.016 E3.5125
G1 X126.042 Y104.409 E3.5446
G1 X125.406 Y103.687 E3.5767
G1 X124.903 Y102.869 E3.6086
G1 X124.545 Y101.980 E3.6405
G1 X124.344 Y101.045 E3.6723
G1 X124.303 Y100.090 E3.7041
G1 X124.425 Y99.141 E3.7359
G1 X124.705 Y98.226 E3.7677
G1 X125.137 Y97.369 E3.7996
G1 X125.709 Y96.596 E3.8316
G1 X126.405 Y95.929 E3.8637
G1 X127.206 Y95.388 E3.8958
G1 X128.090 Y94.988 E3.9281
G1 X129.031 Y94.743 E3.9604
G1 X130.000 Y94.661 E3.9928
G1 X130.969 Y94.743 E4.0251
G1 X131.910 Y94.988 E4.0575
G1 X132.794 Y95.388 E4.0897
G1 X133.595 Y95.929 E4.1219
G1 X134.291 Y96.596 E4.1540
G1 X134.863 Y97.369 E4.1860
G1 X135.295 Y98.226 E4.2179
G1 X135.575 Y99.141 E4.2497
G1 X135.697 Y100.090 E4.2815
G1 X135.656 Y101.045 E4.3133
G1 X135.455 Y101.980 E4.3451
G1 X135.098 Y102.869 E4.3770
G1 X134.594 Y103.687 E4.4089
G1 X133.958 Y104.409 E4.4409
G1 X133.207 Y105.016 E4.4731
G1 X132.361 Y105.489 E4.5053
G1 X131.445 Y105.812 E4.5376
G1 X130.487 Y105.976 E4.5699
G1 X129.513 Y105.976 E4.6023
G1 X129.488 Y105.972 E4.6032
;segType:Perimeter
G0 X130.959 Y106.006 F10800
G1 X130.391 Y105.599 E4.6264 F2159
G1 X129.549 Y105.599 E4.6544
G1 X128.662 Y105.447 E4.6844
G1 X127.812 Y105.147 E4.7143
G1 X127.027 Y104.708 E4.7442
G1 X126.328 Y104.144 E4.7741
G1 X125.735 Y103.470 E4.8040
G1 X125.265 Y102.706 E4.8338
G1 X124.931 Y101.875 E4.8636
G1 X124.742 Y100.999 E4.8934
G1 X124.704 Y100.105 E4.9232
G1 X124.818 Y99.217 E4.9529
G1 X125.080 Y98.360 E4.9827
G1 X125.484 Y97.560 E5.0126
G1 X126.017 Y96.838 E5.0424
G1 X126.666 Y96.217 E5.0723
G1 X127.411 Y95.713 E5.1022
G1 X128.231 Y95.343 E5.1321
G1 X129.102 Y95.116 E5.1621
G1 X130.000 Y95.040 E5.1920
G1 X130.898 Y95.116 E5.2220
G1 X131.769 Y95.343 E5.2519
G1 X132.590 Y95.713 E5.2819
G1 X133.334 Y96.217 E5.3118
G1 X133.983 Y96.838 E5.3417
G1 X134.516 Y97.560 E5.3715
G1 X134.920 Y98.360 E5.4013
G1 X135.182 Y99.217 E5.4311
G1 X135.296 Y100.105 E5.4609
G1 X135.258 Y100.999 E5.4907
G1 X135.069 Y101.875 E5.5204
G1 X134.735 Y102.706 E5.5503
G1 X134.265 Y103.470 E5.5801
G1 X133.672 Y104.144 E5.6099
G1 X132.973 Y104.708 E5.6398
G1 X132.188 Y105.147 E5.6697
G1 X131.338 Y105.447 E5.6997
G1 X130.509 Y105.589 E5.7277
G1 X130.028 Y106.085
;segType:HShell
G0 X131.607 Y105.956 F10800
G1 X132.002 Y106.329 E5.7457 F3600
G1 X132.404 Y106.180
G1 X132.014 Y105.812 E5.7635
G1 X132.422 Y105.669
G1 X132.778 Y106.004 E5.7798
G1 X133.142 Y105.819
G1 X132.777 Y105.475 E5.7965
G1 X133.129 Y105.279
G1 X133.471 Y105.601 E5.8121
G1 X133.800 Y105.383
G1 X133.459 Y105.061 E5.8277
G1 X133.760 Y104.817
G1 X134.092 Y105.130 E5.8429
G1 X134.379 Y104.872
G1 X134.062 Y104.574 E5.8574
G1 X134.322 Y104.291
G1 X134.645 Y104.595 E5.8721
G1 X134.891 Y104.299
G1 X134.576 Y104.002 E5.8865
G1 X134.817 Y103.700
G1 X135.133 Y103.998 E5.9009
G1 X135.338 Y103.663
G1 X135.023 Y103.366 E5.9153
G1 X135.229 Y103.032
G1 X135.542 Y103.328 E5.9297
G1 X135.714 Y102.961
G1 X135.395 Y102.660 E5.9443
G1 X135.549 Y102.277
G1 X135.874 Y102.583 E5.9591
G1 X136.010 Y102.184
G1 X135.682 Y101.874 E5.9741
G1 X135.776 Y101.435
G1 X136.121 Y101.760 E5.9899
G1 X136.210 Y101.316
G1 X135.859 Y100.984 E6.0060
G1 X135.880 Y100.476
G1 X136.263 Y100.837 E6.0235
G1 X136.285 Y100.330
G1 X135.880 Y99.947 E6.0420
G1 X135.803 Y99.346
G1 X136.265 Y99.782 E6.0632
G1 X136.175 Y99.168
G1 X135.636 Y98.660 E6.0878
G1 X136.014 Y98.488
G1 X135.317 Y97.831 E6.1197
G1 X135.705 Y97.669
G1 X134.459 Y96.493 E6.1767
G1 X134.951 Y96.429
G1 X133.501 Y95.061 E6.2430
G1 X133.666 Y95.745
G1 X132.273 Y94.431 E6.3067
G1 X132.239 Y94.927
G1 X131.436 Y94.169 E6.3434
G1 X131.393 Y94.658
G1 X130.738 Y94.040 E6.3734
G0 X128.621 Y94.157 F10800
G1 X129.041 Y94.553 E6.3926 F3600
G1 X128.595 Y94.661
G1 X128.172 Y94.261 E6.4119
G1 X127.773 Y94.414
G1 X128.156 Y94.775 E6.4294
G1 X127.759 Y94.928
G1 X127.374 Y94.566 E6.4470
G1 X127.019 Y94.760
G1 X127.380 Y95.100 E6.4635
G1 X127.015 Y95.284
G1 X126.668 Y94.957 E6.4794
G1 X126.345 Y95.180
G1 X126.689 Y95.505 E6.4951
G1 X126.363 Y95.726
G1 X126.037 Y95.418 E6.5100
G1 X125.740 Y95.667
G1 X126.072 Y95.980 E6.5252
G1 X125.794 Y96.246
G1 X125.473 Y95.944 E6.5398
G1 X125.207 Y96.220
G1 X125.523 Y96.518 E6.5543
G1 X125.292 Y96.830
G1 X124.976 Y96.531 E6.5687
G1 X124.750 Y96.846
G1 X125.062 Y97.141 E6.5830
G1 X124.860 Y97.479
G1 X124.545 Y97.181 E6.5974
G1 X124.362 Y97.537
G1 X124.680 Y97.837 E6.6120
G1 X124.505 Y98.201
G1 X124.187 Y97.901 E6.6265
G1 X124.050 Y98.300
G1 X124.379 Y98.610 E6.6415
G1 X124.254 Y99.020
G1 X123.914 Y98.700 E6.6571
G1 X123.829 Y99.148
G1 X124.180 Y99.479 E6.6731
G1 X124.120 Y99.951
G1 X123.747 Y99.600 E6.6902
G1 X123.726 Y100.108
G1 X124.120 Y100.479 E6.7081
G1 X124.143 Y101.030
G1 X123.714 Y100.625 E6.7278
G1 X123.777 Y101.213
G1 X124.278 Y101.685 E6.7507
G1 X123.910 Y101.867
G1 X124.516 Y102.438 E6.7784
G1 X124.137 Y102.609
G1 X125.030 Y103.452 E6.8192
G1 X124.620 Y103.593
G1 X127.131 Y105.962 E6.9340
G1 X127.106 Y105.410
G1 X128.119 Y106.365 E6.9803
G0 F4800 E5.9803
G0 X132.444 Y105.652 F10800
G0 X134.752 Y103.791
G0 X137.680 Y100.167
G0 F4800 E6.9803
;segType:Support
G1 X138.475 Y100.171 E7.0028 F5400
G1 X140.147 Y100.163 E7.0500
G1 X140.160 Y100.628 E7.0632
G1 X140.560 Y100.628 E7.0745
G1 X140.571 Y100.557 E7.0766
G1 X142.133 Y100.533 E7.1207
G1 X143.269 Y100.545 E7.1528
G1 X143.718 Y100.530 E7.1656
G0 F4800 E6.1656
G0 X146.152 Y100.541 F10800
G0 F4800 E7.1656
G1 X147.188 Y100.542 E7.1949 F5400
G1 X147.939 Y100.542 E7.2161
G1 X148.689 Y100.543 E7.2373
G1 X148.909 Y100.663 E7.2444
G1 X149.309 Y100.663 E7.2557
G1 X149.297 Y100.522 E7.2597
G1 X149.697 Y100.522 E7.2710
G1 X149.690 Y100.204 E7.2800
G1 X150.090 Y100.204 E7.2913
G1 X149.980 Y100.042 E7.2969
G1 X150.380 Y100.042 E7.3082
G1 X150.416 Y100.145 E7.3113
G1 X150.816 Y100.145 E7.3226
G1 X150.721 Y100.205 E7.3257
G1 X151.807 Y100.205 E7.3564
G1 X151.884 Y100.130 E7.3595
G1 X152.235 Y100.144 E7.3694
G0 F4800 E6.3694
G0 X149.690 Y100.604 F10800
G0 F4800 E7.3694
G1 X150.090 Y100.604 E7.3807 F5400
G1 X149.980 Y100.442 E7.3863
G1 X150.380 Y100.442 E7.3976
G1 X150.416 Y100.545 E7.4007
G1 X150.816 Y100.545 E7.4120
G1 X150.721 Y100.605 E7.4151
G1 X151.807 Y100.605 E7.4458
G1 X151.884 Y100.530 E7.4489
G1 X152.218 Y100.544 E7.4583
G0 F4800 E6.4583
G0 X154.063 Y101.067 F10800
G0 X155.159 Y103.791
G0 X157.467 Y105.653
G0 X160.415 Y106.158
G0 X163.230 Y105.165
G0 X165.989 Y101.927
G0 F4800 E7.4583
;segType:HShell
G1 X165.650 Y101.607 E7.4738 F3600
G1 X165.554 Y102.045
G1 X165.878 Y102.350 E7.4887
G1 X165.722 Y102.732
G1 X165.400 Y102.428 E7.5034
G1 X165.246 Y102.811
G1 X165.562 Y103.109 E7.5178
G1 X165.373 Y103.460
G1 X165.059 Y103.163 E7.5322
G1 X164.853 Y103.498
G1 X165.169 Y103.795 E7.5466
G1 X164.952 Y104.120
G1 X164.642 Y103.827 E7.5608
G1 X164.388 Y104.116
G1 X164.706 Y104.416 E7.5753
G1 X164.459 Y104.712
G1 X164.134 Y104.404 E7.5902
G1 X163.855 Y104.670
G1 X164.177 Y104.974 E7.6050
G1 X163.890 Y105.231
G1 X163.553 Y104.914 E7.6204
G1 X163.251 Y105.157
G1 X163.582 Y105.470 E7.6355
G1 X163.253 Y105.687
G1 X162.902 Y105.356 E7.6515
G1 X162.550 Y105.553
G1 X162.917 Y105.898 E7.6683
G1 X162.542 Y106.074
G1 X162.173 Y105.725 E7.6852
G1 X161.765 Y105.869
G1 X162.168 Y106.249 E7.7036
G1 X161.746 Y106.380
G1 X161.349 Y106.005 E7.7217
G1 X160.875 Y106.087
G1 X161.321 Y106.507 E7.7421
G1 X160.844 Y106.586
G1 X160.399 Y106.166 E7.7625
G1 X159.839 Y106.166
G1 X160.358 Y106.656 E7.7862
;segType:Perimeter
G0 X159.873 Y106.756 F10800
G1 X159.350 Y107.213 E7.8093 F2159
G1 X158.414 Y107.075 E7.8408
G1 X157.450 Y106.785 E7.8743
G1 X156.539 Y106.358 E7.9077
G1 X155.699 Y105.803 E7.9412
G1 X154.948 Y105.130 E7.9748
G1 X154.303 Y104.355 E8.0083
G1 X153.777 Y103.493 E8.0419
G1 X153.382 Y102.564 E8.0754
G1 X153.120 Y101.540 E8.1106
G1 X153.017 Y100.583 E8.1426
G1 X153.061 Y99.522 E8.1779
G1 X153.236 Y98.579 E8.2098
G1 X153.563 Y97.623 E8.2434
G1 X154.024 Y96.725 E8.2770
G1 X154.611 Y95.904 E8.3106
G1 X155.311 Y95.179 E8.3441
G1 X156.109 Y94.563 E8.3776
G1 X156.987 Y94.070 E8.4111
G1 X157.926 Y93.711 E8.4446
G1 X158.908 Y93.492 E8.4780
G1 X159.911 Y93.419 E8.5115
G1 X160.914 Y93.492 E8.5449
G1 X161.896 Y93.711 E8.5784
G1 X162.836 Y94.070 E8.6118
G1 X163.713 Y94.563 E8.6453
G1 X164.511 Y95.179 E8.6788
G1 X165.211 Y95.904 E8.7124
G1 X165.798 Y96.725 E8.7459
G1 X166.260 Y97.623 E8.7795
G1 X166.586 Y98.579 E8.8131
G1 X166.769 Y99.572 E8.8467
G1 X166.806 Y100.582 E8.8803
G1 X166.694 Y101.596 E8.9143
G1 X166.440 Y102.564 E8.9475
G1 X166.045 Y103.493 E8.9811
G1 X165.519 Y104.355 E9.0147
G1 X164.874 Y105.130 E9.0482
G1 X164.124 Y105.803 E9.0818
G1 X163.283 Y106.358 E9.1153
G1 X162.372 Y106.785 E9.1487
G1 X161.409 Y107.075 E9.1822
G1 X160.414 Y107.222 E9.2156
G1 X159.468 Y107.222 E9.2471
G1 X159.025 Y106.694
;segType:Loop
G0 X158.257 Y105.739 F10800
G1 X157.550 Y105.489 E9.2720 F3600
G1 X156.705 Y105.017 E9.3043
G1 X155.953 Y104.410 E9.3364
G1 X155.317 Y103.687 E9.3684
G1 X154.814 Y102.870 E9.4003
G1 X154.457 Y101.981 E9.4322
G1 X154.255 Y101.045 E9.4640
G1 X154.214 Y100.090 E9.4958
G1 X154.336 Y99.142 E9.5276
G1 X154.616 Y98.226 E9.5595
G1 X155.048 Y97.370 E9.5914
G1 X155.620 Y96.597 E9.6233
G1 X156.316 Y95.930 E9.6554
G1 X157.117 Y95.388 E9.6876
G1 X158.001 Y94.989 E9.7199
G1 X158.942 Y94.744 E9.7522
G1 X159.911 Y94.661 E9.7845
G1 X160.881 Y94.744 E9.8169
G1 X161.821 Y94.989 E9.8492
G1 X162.705 Y95.388 E9.8815
G1 X163.506 Y95.930 E9.9137
G1 X164.203 Y96.597 E9.9457
G1 X164.774 Y97.370 E9.9777
G1 X165.206 Y98.226 E10.0096
G1 X165.486 Y99.142 E10.0415
G1 X165.608 Y100.090 E10.0733
G1 X165.567 Y101.045 E10.1050
G1 X165.366 Y101.981 E10.1369
G1 X165.009 Y102.870 E10.1687
G1 X164.505 Y103.687 E10.2007
G1 X163.869 Y104.410 E10.2327
G1 X163.118 Y105.017 E10.2648
G1 X162.272 Y105.489 E10.2970
G1 X161.357 Y105.813 E10.3293
G1 X160.398 Y105.977 E10.3617
G1 X159.425 Y105.977 E10.3941
G1 X158.466 Y105.813 E10.4264
G1 X158.443 Y105.804 E10.4272
G0 X158.411 Y106.679 F10800
G1 X157.601 Y106.435 E10.4554 F3600
G1 X156.744 Y106.033 E10.4868
G1 X155.953 Y105.510 E10.5184
G1 X155.245 Y104.875 E10.5500
G1 X154.635 Y104.143 E10.5817
G1 X154.138 Y103.328 E10.6135
G1 X153.764 Y102.449 E10.6452
G1 X153.515 Y101.477 E10.6786
G1 X153.418 Y100.571 E10.7089
G1 X153.460 Y99.562 E10.7425
G1 X153.626 Y98.670 E10.7727
G1 X153.935 Y97.764 E10.8045
G1 X154.372 Y96.914 E10.8363
G1 X154.927 Y96.138 E10.8680
G1 X155.587 Y95.453 E10.8997
G1 X156.339 Y94.873 E10.9313
G1 X157.165 Y94.409 E10.9628
G1 X158.048 Y94.071 E10.9942
G1 X158.970 Y93.866 E11.0256
G1 X159.911 Y93.797 E11.0570
G1 X160.852 Y93.866 E11.0884
G1 X161.774 Y94.071 E11.1198
G1 X162.657 Y94.409 E11.1513
G1 X163.483 Y94.873 E11.1828
G1 X164.235 Y95.453 E11.2143
G1 X164.895 Y96.138 E11.2460
G1 X165.450 Y96.914 E11.2777
G1 X165.888 Y97.764 E11.3095
G1 X166.196 Y98.669 E11.3413
G1 X166.370 Y99.611 E11.3732
G1 X166.405 Y100.569 E11.4051
G1 X166.299 Y101.531 E11.4373
G1 X166.058 Y102.448 E11.4688
G1 X165.684 Y103.328 E11.5006
G1 X165.187 Y104.143 E11.5324
G1 X164.577 Y104.875 E11.5640
G1 X163.869 Y105.510 E11.5957
G1 X163.079 Y106.033 E11.6272
G1 X162.221 Y106.435 E11.6587
G1 X161.317 Y106.707 E11.6901
G1 X160.383 Y106.844 E11.7215
G1 X159.439 Y106.844 E11.7529
G1 X158.604 Y106.721 E11.7810
G0 F4800 E10.7810
G0 X159.883 Y106.086 F10800
G0 F4800 E11.7810
;segType:Perimeter
G1 X159.402 Y105.590 E11.8040 F2159
G1 X158.573 Y105.447 E11.8320
G1 X157.724 Y105.147 E11.8619
G1 X156.938 Y104.709 E11.8918
G1 X156.239 Y104.144 E11.9217
G1 X155.646 Y103.470 E11.9516
G1 X155.176 Y102.707 E11.9814
G1 X154.842 Y101.875 E12.0112
G1 X154.653 Y101.000 E12.0410
G1 X154.615 Y100.105 E12.0708
G1 X154.729 Y99.217 E12.1006
G1 X154.991 Y98.361 E12.1304
G1 X155.395 Y97.560 E12.1602
G1 X155.928 Y96.839 E12.1900
G1 X156.577 Y96.218 E12.2199
G1 X157.321 Y95.714 E12.2498
G1 X158.142 Y95.343 E12.2797
G1 X159.013 Y95.116 E12.3097
G1 X159.911 Y95.040 E12.3396
G1 X160.809 Y95.116 E12.3696
G1 X161.680 Y95.343 E12.3996
G1 X162.501 Y95.714 E12.4295
G1 X163.245 Y96.218 E12.4594
G1 X163.894 Y96.839 E12.4893
G1 X164.427 Y97.560 E12.5191
G1 X164.831 Y98.361 E12.5489
G1 X165.093 Y99.217 E12.5787
G1 X165.207 Y100.105 E12.6085
G1 X165.169 Y101.000 E12.6383
G1 X164.980 Y101.875 E12.6681
G1 X164.646 Y102.707 E12.6979
G1 X164.176 Y103.470 E12.7277
G1 X163.583 Y104.144 E12.7575
G1 X162.884 Y104.709 E12.7874
G1 X162.098 Y105.147 E12.8174
G1 X161.250 Y105.447 E12.8473
G1 X160.362 Y105.600 E12.8773
G1 X159.520 Y105.600 E12.9053
G1 X158.953 Y106.007
;segType:HShell
G0 X159.250 Y106.139 F10800
G1 X159.798 Y106.656 E12.9303 F3600
G0 X162.999 Y104.861 F10800
G0 X164.817 Y102.801
G0 X166.100 Y101.503
G1 X165.745 Y101.168 E12.9466 F3600
G1 X165.783 Y100.676
G1 X166.154 Y101.026 E12.9635
G1 X166.204 Y100.545
G1 X165.805 Y100.168 E12.9818
G1 X165.744 Y99.582
G1 X166.184 Y99.998 E13.0019
G1 X166.132 Y99.420
G1 X165.636 Y98.952 E13.0246
G1 X166.014 Y98.780
G1 X165.409 Y98.209 E13.0522
G1 X165.763 Y98.015
G1 X164.877 Y97.179 E13.0928
G1 X165.296 Y97.046
G1 X162.845 Y94.734 E13.2048
G1 X162.804 Y95.223
G1 X161.815 Y94.291 E13.2500
G1 X161.774 Y94.781
G1 X161.059 Y94.106 E13.2827
G1 X160.411 Y94.023
G1 X161.000 Y94.579 E13.3097
G1 X160.368 Y94.511
G1 X159.819 Y93.993 E13.3348
G1 X159.299 Y94.031
G1 X159.778 Y94.483 E13.3567
G1 X159.264 Y94.527
G1 X158.808 Y94.096 E13.3776
G1 X158.354 Y94.197
G1 X158.773 Y94.592 E13.3967
G1 X158.334 Y94.706
G1 X157.926 Y94.322 E13.4153
G1 X157.528 Y94.474
G1 X157.900 Y94.825 E13.4324
G1 X157.521 Y94.996
G1 X157.144 Y94.640 E13.4496
G1 X156.793 Y94.838
G1 X157.142 Y95.167 E13.4656
G1 X156.798 Y95.371
G1 X156.443 Y95.036 E13.4818
G1 X156.135 Y95.274
G1 X156.472 Y95.592 E13.4972
G1 X156.152 Y95.818
G1 X155.827 Y95.512 E13.5121
G1 X155.547 Y95.776
G1 X155.874 Y96.084 E13.5270
G1 X155.596 Y96.351
G1 X155.280 Y96.053 E13.5415
G1 X155.024 Y96.340
G1 X155.343 Y96.641 E13.5561
G1 X155.113 Y96.952
G1 X154.798 Y96.655 E13.5705
G1 X154.572 Y96.971
G1 X154.883 Y97.264 E13.5847
G1 X154.701 Y97.620
G1 X154.384 Y97.322 E13.5992
G1 X154.201 Y97.677
G1 X154.520 Y97.978 E13.6137
G1 X154.367 Y98.362
G1 X154.044 Y98.058 E13.6285
G1 X153.908 Y98.458
G1 X154.241 Y98.772 E13.6437
G1 X154.128 Y99.193
G1 X153.790 Y98.875 E13.6591
G1 X153.707 Y99.325
G1 X154.067 Y99.665 E13.6756
G1 X154.017 Y100.145
G1 X153.650 Y99.800 E13.6924
G1 X153.629 Y100.308
G1 X154.040 Y100.696 E13.7112
G1 X154.102 Y101.283
G1 X153.650 Y100.856 E13.7318
G1 X153.713 Y101.444
G1 X154.245 Y101.946 E13.7562
G1 X153.891 Y102.141
G1 X154.561 Y102.772 E13.7868
G1 X154.195 Y102.956
G1 X155.481 Y104.169 E13.8456
G1 X154.876 Y104.127
G1 X156.439 Y105.601 E13.9171
G1 X156.279 Y104.921
G1 X157.707 Y106.269 E13.9824
G1 X157.717 Y105.749
G1 X158.529 Y106.516 E14.0196
G1 X159.198 Y106.618
G1 X158.565 Y106.021 E14.0485
G0 F4800 E13.0485
G0 X161.408 Y105.988 F10800
G0 X171.118 Y100.540
G0 F4800 E14.0485
;segType:Support
G1 X171.518 Y100.540 E14.0598 F5400
G1 X171.397 Y100.473 E14.0637
G1 X171.797 Y100.473 E14.0750
G1 X171.796 Y100.573 E14.0778
G1 X172.196 Y100.573 E14.0892
G1 X172.046 Y100.448 E14.0947
G1 X172.446 Y100.448 E14.1060
G1 X172.432 Y100.225 E14.1123
G1 X172.832 Y100.225 E14.1236
G1 X172.899 Y100.148 E14.1265
G1 X173.778 Y100.165 E14.1514
G1 X173.778 Y100.565 E14.1627
G1 X172.899 Y100.548 E14.1875
G1 X172.832 Y100.625 E14.1904
G1 X172.432 Y100.625 E14.2017
G0 F4800 E13.2017
G0 X167.591 Y100.179 F10800
G0 F4800 E14.2017
G1 X167.897 Y100.178 E14.2104 F5400
G1 X168.381 Y100.138 E14.2241
G1 X169.628 Y100.143 E14.2594
G1 X170.197 Y100.161 E14.2754
G1 X170.062 Y100.108 E14.2796
G1 X170.794 Y100.124 E14.3003
G1 X170.733 Y100.029 E14.3035
G1 X171.133 Y100.029 E14.3148
G0 F4800 E13.3148
G0 X172.446 Y100.048 F10800
G0 F4800 E14.3148
G1 X172.046 Y100.048 E14.3261 F5400
G1 X172.196 Y100.173 E14.3316
G1 X171.796 Y100.173 E14.3429
G1 X171.797 Y100.073 E14.3458
G1 X171.397 Y100.073 E14.3571
G1 X171.518 Y100.140 E14.3610
G1 X171.118 Y100.140 E14.3723
G1 X171.133 Y100.429 E14.3805
